DEF 10L_CLN_TEAW()
;FOLD INI
  ;FOLD BASISTECH INI
    BAS (#INITMOV,0)
  ;ENDFOLD (BASISTECH INI)
  ;FOLD USER INI
    ;WAAM-optimized initialization with weaving capability
  ;ENDFOLD (USER INI)
;ENDFOLD (INI)

BASE_DATA[10] = {FRAME: X 270.73, Y -630.81, Z 710.35, A 179.93, B -0.22, C -1.44}
TOOL_DATA[6] = {FRAME: X -14.67, Y -33.93, Z 286.30, A 0, B 0, C 0}
$BASE = BASE_DATA[10]
$TOOL = TOOL_DATA[6]

BAS (#VEL_PTP,100)
BAS (#ACC_PTP,100)
BAS (#VEL_CP,0.0099)
BAS (#ACC_CP,0.05)

$VEL.CP = 0.0099
$ACC.CP = 0.05
$VEL.ORI1 = 90
$VEL.ORI2 = 90
$ACC.ORI1 = 500
$ACC.ORI2 = 500
$ORI_TYPE = #VAR
$ADVANCE = 3
$APO.CDIS = 0.25
$OV_PRO = 100

; Taught position mode - skipping HOME move
; Robot should already be at desired starting position
$OUT[1] = FALSE

;===========
; BEGIN WAAM PROCESS
;===========

; TAUGHT START POSITION MODE ENABLED
; Robot will read current position at startup as substrate origin
; X, Y and Z coordinates are offset
; Jog robot to desired starting point before running this program

; Read current robot position as taught starting point
TAUGHT_START = $POS_ACT

; First motion must be PTP to satisfy KUKA controller requirement
; Moving to taught position (already there, but satisfies KSS01443)
PTP TAUGHT_START

; SAFETY DELAY - 7.5 seconds before starting weld process
; This allows operator to verify position and move to safety
WAIT SEC 7.5

; First weld point offset from taught position: X=0.000, Y=0.000 (Z is absolute)

; Weaving enabled: amplitude=2.25mm, frequency=0.17/mm
; Welding strategy: ALTERNATING (A->B, B->A, A->B...)
; Travel Z-lift: 10.0mm (prevents scratching welded beads)
; Travel stabilization delay: 5.0s (wait after travel before Z lowers)
; ;LAYER_CHANGE
; Reset TEMP_VAR at the start of this layer
TEMP_VAR = FALSE
; Layer index: 1
OFFSET_POS = {X 0.000, Y 0.000, Z 2.000, A 0, B 0, C 0}
TARGET_POS = TAUGHT_START
TARGET_POS.X = TAUGHT_START.X + OFFSET_POS.X
TARGET_POS.Y = TAUGHT_START.Y + OFFSET_POS.Y
TARGET_POS.Z = TAUGHT_START.Z + OFFSET_POS.Z
TARGET_POS.A = TAUGHT_START.A
TARGET_POS.B = TAUGHT_START.B
TARGET_POS.C = TAUGHT_START.C
LIN TARGET_POS C_DIS
$OUT[1] = TRUE
WAIT SEC 0.200
OFFSET_POS = {X 1.492, Y 2.249, Z 2.000, A 0, B 0, C 0}
TARGET_POS = TAUGHT_START
TARGET_POS.X = TAUGHT_START.X + OFFSET_POS.X
TARGET_POS.Y = TAUGHT_START.Y + OFFSET_POS.Y
TARGET_POS.Z = TAUGHT_START.Z + OFFSET_POS.Z
TARGET_POS.A = TAUGHT_START.A
TARGET_POS.B = TAUGHT_START.B
TARGET_POS.C = TAUGHT_START.C
LIN TARGET_POS C_DIS
CONTINUE
OFFSET_POS = {X 2.984, Y -0.104, Z 2.000, A 0, B 0, C 0}
TARGET_POS = TAUGHT_START
TARGET_POS.X = TAUGHT_START.X + OFFSET_POS.X
TARGET_POS.Y = TAUGHT_START.Y + OFFSET_POS.Y
TARGET_POS.Z = TAUGHT_START.Z + OFFSET_POS.Z
TARGET_POS.A = TAUGHT_START.A
TARGET_POS.B = TAUGHT_START.B
TARGET_POS.C = TAUGHT_START.C
LIN TARGET_POS C_DIS
CONTINUE
OFFSET_POS = {X 4.477, Y -2.245, Z 2.000, A 0, B 0, C 0}
TARGET_POS = TAUGHT_START
TARGET_POS.X = TAUGHT_START.X + OFFSET_POS.X
TARGET_POS.Y = TAUGHT_START.Y + OFFSET_POS.Y
TARGET_POS.Z = TAUGHT_START.Z + OFFSET_POS.Z
TARGET_POS.A = TAUGHT_START.A
TARGET_POS.B = TAUGHT_START.B
TARGET_POS.C = TAUGHT_START.C
LIN TARGET_POS C_DIS
CONTINUE
OFFSET_POS = {X 5.969, Y 0.207, Z 2.000, A 0, B 0, C 0}
TARGET_POS = TAUGHT_START
TARGET_POS.X = TAUGHT_START.X + OFFSET_POS.X
TARGET_POS.Y = TAUGHT_START.Y + OFFSET_POS.Y
TARGET_POS.Z = TAUGHT_START.Z + OFFSET_POS.Z
TARGET_POS.A = TAUGHT_START.A
TARGET_POS.B = TAUGHT_START.B
TARGET_POS.C = TAUGHT_START.C
LIN TARGET_POS C_DIS
CONTINUE
OFFSET_POS = {X 7.461, Y 2.235, Z 2.000, A 0, B 0, C 0}
TARGET_POS = TAUGHT_START
TARGET_POS.X = TAUGHT_START.X + OFFSET_POS.X
TARGET_POS.Y = TAUGHT_START.Y + OFFSET_POS.Y
TARGET_POS.Z = TAUGHT_START.Z + OFFSET_POS.Z
TARGET_POS.A = TAUGHT_START.A
TARGET_POS.B = TAUGHT_START.B
TARGET_POS.C = TAUGHT_START.C
LIN TARGET_POS C_DIS
CONTINUE
OFFSET_POS = {X 8.953, Y -0.310, Z 2.000, A 0, B 0, C 0}
TARGET_POS = TAUGHT_START
TARGET_POS.X = TAUGHT_START.X + OFFSET_POS.X
TARGET_POS.Y = TAUGHT_START.Y + OFFSET_POS.Y
TARGET_POS.Z = TAUGHT_START.Z + OFFSET_POS.Z
TARGET_POS.A = TAUGHT_START.A
TARGET_POS.B = TAUGHT_START.B
TARGET_POS.C = TAUGHT_START.C
LIN TARGET_POS C_DIS
CONTINUE
OFFSET_POS = {X 10.445, Y -2.221, Z 2.000, A 0, B 0, C 0}
TARGET_POS = TAUGHT_START
TARGET_POS.X = TAUGHT_START.X + OFFSET_POS.X
TARGET_POS.Y = TAUGHT_START.Y + OFFSET_POS.Y
TARGET_POS.Z = TAUGHT_START.Z + OFFSET_POS.Z
TARGET_POS.A = TAUGHT_START.A
TARGET_POS.B = TAUGHT_START.B
TARGET_POS.C = TAUGHT_START.C
LIN TARGET_POS C_DIS
CONTINUE
OFFSET_POS = {X 11.938, Y 0.413, Z 2.000, A 0, B 0, C 0}
TARGET_POS = TAUGHT_START
TARGET_POS.X = TAUGHT_START.X + OFFSET_POS.X
TARGET_POS.Y = TAUGHT_START.Y + OFFSET_POS.Y
TARGET_POS.Z = TAUGHT_START.Z + OFFSET_POS.Z
TARGET_POS.A = TAUGHT_START.A
TARGET_POS.B = TAUGHT_START.B
TARGET_POS.C = TAUGHT_START.C
LIN TARGET_POS C_DIS
CONTINUE
OFFSET_POS = {X 13.430, Y 2.202, Z 2.000, A 0, B 0, C 0}
TARGET_POS = TAUGHT_START
TARGET_POS.X = TAUGHT_START.X + OFFSET_POS.X
TARGET_POS.Y = TAUGHT_START.Y + OFFSET_POS.Y
TARGET_POS.Z = TAUGHT_START.Z + OFFSET_POS.Z
TARGET_POS.A = TAUGHT_START.A
TARGET_POS.B = TAUGHT_START.B
TARGET_POS.C = TAUGHT_START.C
LIN TARGET_POS C_DIS
CONTINUE
OFFSET_POS = {X 14.922, Y -0.515, Z 2.000, A 0, B 0, C 0}
TARGET_POS = TAUGHT_START
TARGET_POS.X = TAUGHT_START.X + OFFSET_POS.X
TARGET_POS.Y = TAUGHT_START.Y + OFFSET_POS.Y
TARGET_POS.Z = TAUGHT_START.Z + OFFSET_POS.Z
TARGET_POS.A = TAUGHT_START.A
TARGET_POS.B = TAUGHT_START.B
TARGET_POS.C = TAUGHT_START.C
LIN TARGET_POS C_DIS
CONTINUE
OFFSET_POS = {X 16.414, Y -2.178, Z 2.000, A 0, B 0, C 0}
TARGET_POS = TAUGHT_START
TARGET_POS.X = TAUGHT_START.X + OFFSET_POS.X
TARGET_POS.Y = TAUGHT_START.Y + OFFSET_POS.Y
TARGET_POS.Z = TAUGHT_START.Z + OFFSET_POS.Z
TARGET_POS.A = TAUGHT_START.A
TARGET_POS.B = TAUGHT_START.B
TARGET_POS.C = TAUGHT_START.C
LIN TARGET_POS C_DIS
CONTINUE
OFFSET_POS = {X 17.906, Y 0.615, Z 2.000, A 0, B 0, C 0}
TARGET_POS = TAUGHT_START
TARGET_POS.X = TAUGHT_START.X + OFFSET_POS.X
TARGET_POS.Y = TAUGHT_START.Y + OFFSET_POS.Y
TARGET_POS.Z = TAUGHT_START.Z + OFFSET_POS.Z
TARGET_POS.A = TAUGHT_START.A
TARGET_POS.B = TAUGHT_START.B
TARGET_POS.C = TAUGHT_START.C
LIN TARGET_POS C_DIS
CONTINUE
OFFSET_POS = {X 19.398, Y 2.150, Z 2.000, A 0, B 0, C 0}
TARGET_POS = TAUGHT_START
TARGET_POS.X = TAUGHT_START.X + OFFSET_POS.X
TARGET_POS.Y = TAUGHT_START.Y + OFFSET_POS.Y
TARGET_POS.Z = TAUGHT_START.Z + OFFSET_POS.Z
TARGET_POS.A = TAUGHT_START.A
TARGET_POS.B = TAUGHT_START.B
TARGET_POS.C = TAUGHT_START.C
LIN TARGET_POS C_DIS
CONTINUE
OFFSET_POS = {X 20.891, Y -0.714, Z 2.000, A 0, B 0, C 0}
TARGET_POS = TAUGHT_START
TARGET_POS.X = TAUGHT_START.X + OFFSET_POS.X
TARGET_POS.Y = TAUGHT_START.Y + OFFSET_POS.Y
TARGET_POS.Z = TAUGHT_START.Z + OFFSET_POS.Z
TARGET_POS.A = TAUGHT_START.A
TARGET_POS.B = TAUGHT_START.B
TARGET_POS.C = TAUGHT_START.C
LIN TARGET_POS C_DIS
CONTINUE
OFFSET_POS = {X 22.383, Y -2.117, Z 2.000, A 0, B 0, C 0}
TARGET_POS = TAUGHT_START
TARGET_POS.X = TAUGHT_START.X + OFFSET_POS.X
TARGET_POS.Y = TAUGHT_START.Y + OFFSET_POS.Y
TARGET_POS.Z = TAUGHT_START.Z + OFFSET_POS.Z
TARGET_POS.A = TAUGHT_START.A
TARGET_POS.B = TAUGHT_START.B
TARGET_POS.C = TAUGHT_START.C
LIN TARGET_POS C_DIS
CONTINUE
OFFSET_POS = {X 23.875, Y 0.812, Z 2.000, A 0, B 0, C 0}
TARGET_POS = TAUGHT_START
TARGET_POS.X = TAUGHT_START.X + OFFSET_POS.X
TARGET_POS.Y = TAUGHT_START.Y + OFFSET_POS.Y
TARGET_POS.Z = TAUGHT_START.Z + OFFSET_POS.Z
TARGET_POS.A = TAUGHT_START.A
TARGET_POS.B = TAUGHT_START.B
TARGET_POS.C = TAUGHT_START.C
LIN TARGET_POS C_DIS
CONTINUE
OFFSET_POS = {X 25.367, Y 2.079, Z 2.000, A 0, B 0, C 0}
TARGET_POS = TAUGHT_START
TARGET_POS.X = TAUGHT_START.X + OFFSET_POS.X
TARGET_POS.Y = TAUGHT_START.Y + OFFSET_POS.Y
TARGET_POS.Z = TAUGHT_START.Z + OFFSET_POS.Z
TARGET_POS.A = TAUGHT_START.A
TARGET_POS.B = TAUGHT_START.B
TARGET_POS.C = TAUGHT_START.C
LIN TARGET_POS C_DIS
CONTINUE
OFFSET_POS = {X 26.859, Y -0.908, Z 2.000, A 0, B 0, C 0}
TARGET_POS = TAUGHT_START
TARGET_POS.X = TAUGHT_START.X + OFFSET_POS.X
TARGET_POS.Y = TAUGHT_START.Y + OFFSET_POS.Y
TARGET_POS.Z = TAUGHT_START.Z + OFFSET_POS.Z
TARGET_POS.A = TAUGHT_START.A
TARGET_POS.B = TAUGHT_START.B
TARGET_POS.C = TAUGHT_START.C
LIN TARGET_POS C_DIS
CONTINUE
OFFSET_POS = {X 28.352, Y -2.037, Z 2.000, A 0, B 0, C 0}
TARGET_POS = TAUGHT_START
TARGET_POS.X = TAUGHT_START.X + OFFSET_POS.X
TARGET_POS.Y = TAUGHT_START.Y + OFFSET_POS.Y
TARGET_POS.Z = TAUGHT_START.Z + OFFSET_POS.Z
TARGET_POS.A = TAUGHT_START.A
TARGET_POS.B = TAUGHT_START.B
TARGET_POS.C = TAUGHT_START.C
LIN TARGET_POS C_DIS
CONTINUE
OFFSET_POS = {X 29.844, Y 1.002, Z 2.000, A 0, B 0, C 0}
TARGET_POS = TAUGHT_START
TARGET_POS.X = TAUGHT_START.X + OFFSET_POS.X
TARGET_POS.Y = TAUGHT_START.Y + OFFSET_POS.Y
TARGET_POS.Z = TAUGHT_START.Z + OFFSET_POS.Z
TARGET_POS.A = TAUGHT_START.A
TARGET_POS.B = TAUGHT_START.B
TARGET_POS.C = TAUGHT_START.C
LIN TARGET_POS C_DIS
CONTINUE
OFFSET_POS = {X 31.336, Y 1.991, Z 2.000, A 0, B 0, C 0}
TARGET_POS = TAUGHT_START
TARGET_POS.X = TAUGHT_START.X + OFFSET_POS.X
TARGET_POS.Y = TAUGHT_START.Y + OFFSET_POS.Y
TARGET_POS.Z = TAUGHT_START.Z + OFFSET_POS.Z
TARGET_POS.A = TAUGHT_START.A
TARGET_POS.B = TAUGHT_START.B
TARGET_POS.C = TAUGHT_START.C
LIN TARGET_POS C_DIS
CONTINUE
OFFSET_POS = {X 32.828, Y -1.094, Z 2.000, A 0, B 0, C 0}
TARGET_POS = TAUGHT_START
TARGET_POS.X = TAUGHT_START.X + OFFSET_POS.X
TARGET_POS.Y = TAUGHT_START.Y + OFFSET_POS.Y
TARGET_POS.Z = TAUGHT_START.Z + OFFSET_POS.Z
TARGET_POS.A = TAUGHT_START.A
TARGET_POS.B = TAUGHT_START.B
TARGET_POS.C = TAUGHT_START.C
LIN TARGET_POS C_DIS
CONTINUE
OFFSET_POS = {X 34.320, Y -1.941, Z 2.000, A 0, B 0, C 0}
TARGET_POS = TAUGHT_START
TARGET_POS.X = TAUGHT_START.X + OFFSET_POS.X
TARGET_POS.Y = TAUGHT_START.Y + OFFSET_POS.Y
TARGET_POS.Z = TAUGHT_START.Z + OFFSET_POS.Z
TARGET_POS.A = TAUGHT_START.A
TARGET_POS.B = TAUGHT_START.B
TARGET_POS.C = TAUGHT_START.C
LIN TARGET_POS C_DIS
CONTINUE
OFFSET_POS = {X 35.812, Y 1.183, Z 2.000, A 0, B 0, C 0}
TARGET_POS = TAUGHT_START
TARGET_POS.X = TAUGHT_START.X + OFFSET_POS.X
TARGET_POS.Y = TAUGHT_START.Y + OFFSET_POS.Y
TARGET_POS.Z = TAUGHT_START.Z + OFFSET_POS.Z
TARGET_POS.A = TAUGHT_START.A
TARGET_POS.B = TAUGHT_START.B
TARGET_POS.C = TAUGHT_START.C
LIN TARGET_POS C_DIS
CONTINUE
OFFSET_POS = {X 37.305, Y 1.886, Z 2.000, A 0, B 0, C 0}
TARGET_POS = TAUGHT_START
TARGET_POS.X = TAUGHT_START.X + OFFSET_POS.X
TARGET_POS.Y = TAUGHT_START.Y + OFFSET_POS.Y
TARGET_POS.Z = TAUGHT_START.Z + OFFSET_POS.Z
TARGET_POS.A = TAUGHT_START.A
TARGET_POS.B = TAUGHT_START.B
TARGET_POS.C = TAUGHT_START.C
LIN TARGET_POS C_DIS
CONTINUE
OFFSET_POS = {X 38.797, Y -1.270, Z 2.000, A 0, B 0, C 0}
TARGET_POS = TAUGHT_START
TARGET_POS.X = TAUGHT_START.X + OFFSET_POS.X
TARGET_POS.Y = TAUGHT_START.Y + OFFSET_POS.Y
TARGET_POS.Z = TAUGHT_START.Z + OFFSET_POS.Z
TARGET_POS.A = TAUGHT_START.A
TARGET_POS.B = TAUGHT_START.B
TARGET_POS.C = TAUGHT_START.C
LIN TARGET_POS C_DIS
CONTINUE
OFFSET_POS = {X 40.289, Y -1.827, Z 2.000, A 0, B 0, C 0}
TARGET_POS = TAUGHT_START
TARGET_POS.X = TAUGHT_START.X + OFFSET_POS.X
TARGET_POS.Y = TAUGHT_START.Y + OFFSET_POS.Y
TARGET_POS.Z = TAUGHT_START.Z + OFFSET_POS.Z
TARGET_POS.A = TAUGHT_START.A
TARGET_POS.B = TAUGHT_START.B
TARGET_POS.C = TAUGHT_START.C
LIN TARGET_POS C_DIS
CONTINUE
OFFSET_POS = {X 41.781, Y 1.354, Z 2.000, A 0, B 0, C 0}
TARGET_POS = TAUGHT_START
TARGET_POS.X = TAUGHT_START.X + OFFSET_POS.X
TARGET_POS.Y = TAUGHT_START.Y + OFFSET_POS.Y
TARGET_POS.Z = TAUGHT_START.Z + OFFSET_POS.Z
TARGET_POS.A = TAUGHT_START.A
TARGET_POS.B = TAUGHT_START.B
TARGET_POS.C = TAUGHT_START.C
LIN TARGET_POS C_DIS
CONTINUE
OFFSET_POS = {X 43.273, Y 1.765, Z 2.000, A 0, B 0, C 0}
TARGET_POS = TAUGHT_START
TARGET_POS.X = TAUGHT_START.X + OFFSET_POS.X
TARGET_POS.Y = TAUGHT_START.Y + OFFSET_POS.Y
TARGET_POS.Z = TAUGHT_START.Z + OFFSET_POS.Z
TARGET_POS.A = TAUGHT_START.A
TARGET_POS.B = TAUGHT_START.B
TARGET_POS.C = TAUGHT_START.C
LIN TARGET_POS C_DIS
CONTINUE
OFFSET_POS = {X 44.766, Y -1.436, Z 2.000, A 0, B 0, C 0}
TARGET_POS = TAUGHT_START
TARGET_POS.X = TAUGHT_START.X + OFFSET_POS.X
TARGET_POS.Y = TAUGHT_START.Y + OFFSET_POS.Y
TARGET_POS.Z = TAUGHT_START.Z + OFFSET_POS.Z
TARGET_POS.A = TAUGHT_START.A
TARGET_POS.B = TAUGHT_START.B
TARGET_POS.C = TAUGHT_START.C
LIN TARGET_POS C_DIS
CONTINUE
OFFSET_POS = {X 46.258, Y -1.699, Z 2.000, A 0, B 0, C 0}
TARGET_POS = TAUGHT_START
TARGET_POS.X = TAUGHT_START.X + OFFSET_POS.X
TARGET_POS.Y = TAUGHT_START.Y + OFFSET_POS.Y
TARGET_POS.Z = TAUGHT_START.Z + OFFSET_POS.Z
TARGET_POS.A = TAUGHT_START.A
TARGET_POS.B = TAUGHT_START.B
TARGET_POS.C = TAUGHT_START.C
LIN TARGET_POS C_DIS
CONTINUE
OFFSET_POS = {X 47.750, Y 1.514, Z 2.000, A 0, B 0, C 0}
TARGET_POS = TAUGHT_START
TARGET_POS.X = TAUGHT_START.X + OFFSET_POS.X
TARGET_POS.Y = TAUGHT_START.Y + OFFSET_POS.Y
TARGET_POS.Z = TAUGHT_START.Z + OFFSET_POS.Z
TARGET_POS.A = TAUGHT_START.A
TARGET_POS.B = TAUGHT_START.B
TARGET_POS.C = TAUGHT_START.C
LIN TARGET_POS C_DIS
CONTINUE
OFFSET_POS = {X 49.242, Y 1.629, Z 2.000, A 0, B 0, C 0}
TARGET_POS = TAUGHT_START
TARGET_POS.X = TAUGHT_START.X + OFFSET_POS.X
TARGET_POS.Y = TAUGHT_START.Y + OFFSET_POS.Y
TARGET_POS.Z = TAUGHT_START.Z + OFFSET_POS.Z
TARGET_POS.A = TAUGHT_START.A
TARGET_POS.B = TAUGHT_START.B
TARGET_POS.C = TAUGHT_START.C
LIN TARGET_POS C_DIS
CONTINUE
OFFSET_POS = {X 50.734, Y -1.589, Z 2.000, A 0, B 0, C 0}
TARGET_POS = TAUGHT_START
TARGET_POS.X = TAUGHT_START.X + OFFSET_POS.X
TARGET_POS.Y = TAUGHT_START.Y + OFFSET_POS.Y
TARGET_POS.Z = TAUGHT_START.Z + OFFSET_POS.Z
TARGET_POS.A = TAUGHT_START.A
TARGET_POS.B = TAUGHT_START.B
TARGET_POS.C = TAUGHT_START.C
LIN TARGET_POS C_DIS
CONTINUE
OFFSET_POS = {X 52.227, Y -1.555, Z 2.000, A 0, B 0, C 0}
TARGET_POS = TAUGHT_START
TARGET_POS.X = TAUGHT_START.X + OFFSET_POS.X
TARGET_POS.Y = TAUGHT_START.Y + OFFSET_POS.Y
TARGET_POS.Z = TAUGHT_START.Z + OFFSET_POS.Z
TARGET_POS.A = TAUGHT_START.A
TARGET_POS.B = TAUGHT_START.B
TARGET_POS.C = TAUGHT_START.C
LIN TARGET_POS C_DIS
CONTINUE
OFFSET_POS = {X 53.719, Y 1.661, Z 2.000, A 0, B 0, C 0}
TARGET_POS = TAUGHT_START
TARGET_POS.X = TAUGHT_START.X + OFFSET_POS.X
TARGET_POS.Y = TAUGHT_START.Y + OFFSET_POS.Y
TARGET_POS.Z = TAUGHT_START.Z + OFFSET_POS.Z
TARGET_POS.A = TAUGHT_START.A
TARGET_POS.B = TAUGHT_START.B
TARGET_POS.C = TAUGHT_START.C
LIN TARGET_POS C_DIS
CONTINUE
OFFSET_POS = {X 55.211, Y 1.479, Z 2.000, A 0, B 0, C 0}
TARGET_POS = TAUGHT_START
TARGET_POS.X = TAUGHT_START.X + OFFSET_POS.X
TARGET_POS.Y = TAUGHT_START.Y + OFFSET_POS.Y
TARGET_POS.Z = TAUGHT_START.Z + OFFSET_POS.Z
TARGET_POS.A = TAUGHT_START.A
TARGET_POS.B = TAUGHT_START.B
TARGET_POS.C = TAUGHT_START.C
LIN TARGET_POS C_DIS
CONTINUE
OFFSET_POS = {X 56.703, Y -1.729, Z 2.000, A 0, B 0, C 0}
TARGET_POS = TAUGHT_START
TARGET_POS.X = TAUGHT_START.X + OFFSET_POS.X
TARGET_POS.Y = TAUGHT_START.Y + OFFSET_POS.Y
TARGET_POS.Z = TAUGHT_START.Z + OFFSET_POS.Z
TARGET_POS.A = TAUGHT_START.A
TARGET_POS.B = TAUGHT_START.B
TARGET_POS.C = TAUGHT_START.C
LIN TARGET_POS C_DIS
CONTINUE
OFFSET_POS = {X 58.195, Y -1.399, Z 2.000, A 0, B 0, C 0}
TARGET_POS = TAUGHT_START
TARGET_POS.X = TAUGHT_START.X + OFFSET_POS.X
TARGET_POS.Y = TAUGHT_START.Y + OFFSET_POS.Y
TARGET_POS.Z = TAUGHT_START.Z + OFFSET_POS.Z
TARGET_POS.A = TAUGHT_START.A
TARGET_POS.B = TAUGHT_START.B
TARGET_POS.C = TAUGHT_START.C
LIN TARGET_POS C_DIS
CONTINUE
OFFSET_POS = {X 59.688, Y 1.794, Z 2.000, A 0, B 0, C 0}
TARGET_POS = TAUGHT_START
TARGET_POS.X = TAUGHT_START.X + OFFSET_POS.X
TARGET_POS.Y = TAUGHT_START.Y + OFFSET_POS.Y
TARGET_POS.Z = TAUGHT_START.Z + OFFSET_POS.Z
TARGET_POS.A = TAUGHT_START.A
TARGET_POS.B = TAUGHT_START.B
TARGET_POS.C = TAUGHT_START.C
LIN TARGET_POS C_DIS
CONTINUE
OFFSET_POS = {X 61.180, Y 1.316, Z 2.000, A 0, B 0, C 0}
TARGET_POS = TAUGHT_START
TARGET_POS.X = TAUGHT_START.X + OFFSET_POS.X
TARGET_POS.Y = TAUGHT_START.Y + OFFSET_POS.Y
TARGET_POS.Z = TAUGHT_START.Z + OFFSET_POS.Z
TARGET_POS.A = TAUGHT_START.A
TARGET_POS.B = TAUGHT_START.B
TARGET_POS.C = TAUGHT_START.C
LIN TARGET_POS C_DIS
CONTINUE
OFFSET_POS = {X 62.672, Y -1.855, Z 2.000, A 0, B 0, C 0}
TARGET_POS = TAUGHT_START
TARGET_POS.X = TAUGHT_START.X + OFFSET_POS.X
TARGET_POS.Y = TAUGHT_START.Y + OFFSET_POS.Y
TARGET_POS.Z = TAUGHT_START.Z + OFFSET_POS.Z
TARGET_POS.A = TAUGHT_START.A
TARGET_POS.B = TAUGHT_START.B
TARGET_POS.C = TAUGHT_START.C
LIN TARGET_POS C_DIS
CONTINUE
OFFSET_POS = {X 64.164, Y -1.231, Z 2.000, A 0, B 0, C 0}
TARGET_POS = TAUGHT_START
TARGET_POS.X = TAUGHT_START.X + OFFSET_POS.X
TARGET_POS.Y = TAUGHT_START.Y + OFFSET_POS.Y
TARGET_POS.Z = TAUGHT_START.Z + OFFSET_POS.Z
TARGET_POS.A = TAUGHT_START.A
TARGET_POS.B = TAUGHT_START.B
TARGET_POS.C = TAUGHT_START.C
LIN TARGET_POS C_DIS
CONTINUE
OFFSET_POS = {X 65.656, Y 1.911, Z 2.000, A 0, B 0, C 0}
TARGET_POS = TAUGHT_START
TARGET_POS.X = TAUGHT_START.X + OFFSET_POS.X
TARGET_POS.Y = TAUGHT_START.Y + OFFSET_POS.Y
TARGET_POS.Z = TAUGHT_START.Z + OFFSET_POS.Z
TARGET_POS.A = TAUGHT_START.A
TARGET_POS.B = TAUGHT_START.B
TARGET_POS.C = TAUGHT_START.C
LIN TARGET_POS C_DIS
CONTINUE
OFFSET_POS = {X 67.148, Y 1.142, Z 2.000, A 0, B 0, C 0}
TARGET_POS = TAUGHT_START
TARGET_POS.X = TAUGHT_START.X + OFFSET_POS.X
TARGET_POS.Y = TAUGHT_START.Y + OFFSET_POS.Y
TARGET_POS.Z = TAUGHT_START.Z + OFFSET_POS.Z
TARGET_POS.A = TAUGHT_START.A
TARGET_POS.B = TAUGHT_START.B
TARGET_POS.C = TAUGHT_START.C
LIN TARGET_POS C_DIS
CONTINUE
OFFSET_POS = {X 68.641, Y -1.964, Z 2.000, A 0, B 0, C 0}
TARGET_POS = TAUGHT_START
TARGET_POS.X = TAUGHT_START.X + OFFSET_POS.X
TARGET_POS.Y = TAUGHT_START.Y + OFFSET_POS.Y
TARGET_POS.Z = TAUGHT_START.Z + OFFSET_POS.Z
TARGET_POS.A = TAUGHT_START.A
TARGET_POS.B = TAUGHT_START.B
TARGET_POS.C = TAUGHT_START.C
LIN TARGET_POS C_DIS
CONTINUE
OFFSET_POS = {X 70.133, Y -1.052, Z 2.000, A 0, B 0, C 0}
TARGET_POS = TAUGHT_START
TARGET_POS.X = TAUGHT_START.X + OFFSET_POS.X
TARGET_POS.Y = TAUGHT_START.Y + OFFSET_POS.Y
TARGET_POS.Z = TAUGHT_START.Z + OFFSET_POS.Z
TARGET_POS.A = TAUGHT_START.A
TARGET_POS.B = TAUGHT_START.B
TARGET_POS.C = TAUGHT_START.C
LIN TARGET_POS C_DIS
CONTINUE
OFFSET_POS = {X 71.625, Y 2.013, Z 2.000, A 0, B 0, C 0}
TARGET_POS = TAUGHT_START
TARGET_POS.X = TAUGHT_START.X + OFFSET_POS.X
TARGET_POS.Y = TAUGHT_START.Y + OFFSET_POS.Y
TARGET_POS.Z = TAUGHT_START.Z + OFFSET_POS.Z
TARGET_POS.A = TAUGHT_START.A
TARGET_POS.B = TAUGHT_START.B
TARGET_POS.C = TAUGHT_START.C
LIN TARGET_POS C_DIS
CONTINUE
OFFSET_POS = {X 73.117, Y 0.959, Z 2.000, A 0, B 0, C 0}
TARGET_POS = TAUGHT_START
TARGET_POS.X = TAUGHT_START.X + OFFSET_POS.X
TARGET_POS.Y = TAUGHT_START.Y + OFFSET_POS.Y
TARGET_POS.Z = TAUGHT_START.Z + OFFSET_POS.Z
TARGET_POS.A = TAUGHT_START.A
TARGET_POS.B = TAUGHT_START.B
TARGET_POS.C = TAUGHT_START.C
LIN TARGET_POS C_DIS
CONTINUE
OFFSET_POS = {X 74.609, Y -2.057, Z 2.000, A 0, B 0, C 0}
TARGET_POS = TAUGHT_START
TARGET_POS.X = TAUGHT_START.X + OFFSET_POS.X
TARGET_POS.Y = TAUGHT_START.Y + OFFSET_POS.Y
TARGET_POS.Z = TAUGHT_START.Z + OFFSET_POS.Z
TARGET_POS.A = TAUGHT_START.A
TARGET_POS.B = TAUGHT_START.B
TARGET_POS.C = TAUGHT_START.C
LIN TARGET_POS C_DIS
CONTINUE
OFFSET_POS = {X 76.102, Y -0.864, Z 2.000, A 0, B 0, C 0}
TARGET_POS = TAUGHT_START
TARGET_POS.X = TAUGHT_START.X + OFFSET_POS.X
TARGET_POS.Y = TAUGHT_START.Y + OFFSET_POS.Y
TARGET_POS.Z = TAUGHT_START.Z + OFFSET_POS.Z
TARGET_POS.A = TAUGHT_START.A
TARGET_POS.B = TAUGHT_START.B
TARGET_POS.C = TAUGHT_START.C
LIN TARGET_POS C_DIS
CONTINUE
OFFSET_POS = {X 77.594, Y 2.097, Z 2.000, A 0, B 0, C 0}
TARGET_POS = TAUGHT_START
TARGET_POS.X = TAUGHT_START.X + OFFSET_POS.X
TARGET_POS.Y = TAUGHT_START.Y + OFFSET_POS.Y
TARGET_POS.Z = TAUGHT_START.Z + OFFSET_POS.Z
TARGET_POS.A = TAUGHT_START.A
TARGET_POS.B = TAUGHT_START.B
TARGET_POS.C = TAUGHT_START.C
LIN TARGET_POS C_DIS
CONTINUE
OFFSET_POS = {X 79.086, Y 0.767, Z 2.000, A 0, B 0, C 0}
TARGET_POS = TAUGHT_START
TARGET_POS.X = TAUGHT_START.X + OFFSET_POS.X
TARGET_POS.Y = TAUGHT_START.Y + OFFSET_POS.Y
TARGET_POS.Z = TAUGHT_START.Z + OFFSET_POS.Z
TARGET_POS.A = TAUGHT_START.A
TARGET_POS.B = TAUGHT_START.B
TARGET_POS.C = TAUGHT_START.C
LIN TARGET_POS C_DIS
CONTINUE
OFFSET_POS = {X 80.578, Y -2.132, Z 2.000, A 0, B 0, C 0}
TARGET_POS = TAUGHT_START
TARGET_POS.X = TAUGHT_START.X + OFFSET_POS.X
TARGET_POS.Y = TAUGHT_START.Y + OFFSET_POS.Y
TARGET_POS.Z = TAUGHT_START.Z + OFFSET_POS.Z
TARGET_POS.A = TAUGHT_START.A
TARGET_POS.B = TAUGHT_START.B
TARGET_POS.C = TAUGHT_START.C
LIN TARGET_POS C_DIS
CONTINUE
OFFSET_POS = {X 82.070, Y -0.669, Z 2.000, A 0, B 0, C 0}
TARGET_POS = TAUGHT_START
TARGET_POS.X = TAUGHT_START.X + OFFSET_POS.X
TARGET_POS.Y = TAUGHT_START.Y + OFFSET_POS.Y
TARGET_POS.Z = TAUGHT_START.Z + OFFSET_POS.Z
TARGET_POS.A = TAUGHT_START.A
TARGET_POS.B = TAUGHT_START.B
TARGET_POS.C = TAUGHT_START.C
LIN TARGET_POS C_DIS
CONTINUE
OFFSET_POS = {X 83.562, Y 2.163, Z 2.000, A 0, B 0, C 0}
TARGET_POS = TAUGHT_START
TARGET_POS.X = TAUGHT_START.X + OFFSET_POS.X
TARGET_POS.Y = TAUGHT_START.Y + OFFSET_POS.Y
TARGET_POS.Z = TAUGHT_START.Z + OFFSET_POS.Z
TARGET_POS.A = TAUGHT_START.A
TARGET_POS.B = TAUGHT_START.B
TARGET_POS.C = TAUGHT_START.C
LIN TARGET_POS C_DIS
CONTINUE
OFFSET_POS = {X 85.055, Y 0.569, Z 2.000, A 0, B 0, C 0}
TARGET_POS = TAUGHT_START
TARGET_POS.X = TAUGHT_START.X + OFFSET_POS.X
TARGET_POS.Y = TAUGHT_START.Y + OFFSET_POS.Y
TARGET_POS.Z = TAUGHT_START.Z + OFFSET_POS.Z
TARGET_POS.A = TAUGHT_START.A
TARGET_POS.B = TAUGHT_START.B
TARGET_POS.C = TAUGHT_START.C
LIN TARGET_POS C_DIS
CONTINUE
OFFSET_POS = {X 86.547, Y -2.189, Z 2.000, A 0, B 0, C 0}
TARGET_POS = TAUGHT_START
TARGET_POS.X = TAUGHT_START.X + OFFSET_POS.X
TARGET_POS.Y = TAUGHT_START.Y + OFFSET_POS.Y
TARGET_POS.Z = TAUGHT_START.Z + OFFSET_POS.Z
TARGET_POS.A = TAUGHT_START.A
TARGET_POS.B = TAUGHT_START.B
TARGET_POS.C = TAUGHT_START.C
LIN TARGET_POS C_DIS
CONTINUE
OFFSET_POS = {X 88.039, Y -0.468, Z 2.000, A 0, B 0, C 0}
TARGET_POS = TAUGHT_START
TARGET_POS.X = TAUGHT_START.X + OFFSET_POS.X
TARGET_POS.Y = TAUGHT_START.Y + OFFSET_POS.Y
TARGET_POS.Z = TAUGHT_START.Z + OFFSET_POS.Z
TARGET_POS.A = TAUGHT_START.A
TARGET_POS.B = TAUGHT_START.B
TARGET_POS.C = TAUGHT_START.C
LIN TARGET_POS C_DIS
CONTINUE
OFFSET_POS = {X 89.531, Y 2.211, Z 2.000, A 0, B 0, C 0}
TARGET_POS = TAUGHT_START
TARGET_POS.X = TAUGHT_START.X + OFFSET_POS.X
TARGET_POS.Y = TAUGHT_START.Y + OFFSET_POS.Y
TARGET_POS.Z = TAUGHT_START.Z + OFFSET_POS.Z
TARGET_POS.A = TAUGHT_START.A
TARGET_POS.B = TAUGHT_START.B
TARGET_POS.C = TAUGHT_START.C
LIN TARGET_POS C_DIS
CONTINUE
OFFSET_POS = {X 91.023, Y 0.366, Z 2.000, A 0, B 0, C 0}
TARGET_POS = TAUGHT_START
TARGET_POS.X = TAUGHT_START.X + OFFSET_POS.X
TARGET_POS.Y = TAUGHT_START.Y + OFFSET_POS.Y
TARGET_POS.Z = TAUGHT_START.Z + OFFSET_POS.Z
TARGET_POS.A = TAUGHT_START.A
TARGET_POS.B = TAUGHT_START.B
TARGET_POS.C = TAUGHT_START.C
LIN TARGET_POS C_DIS
CONTINUE
OFFSET_POS = {X 92.516, Y -2.228, Z 2.000, A 0, B 0, C 0}
TARGET_POS = TAUGHT_START
TARGET_POS.X = TAUGHT_START.X + OFFSET_POS.X
TARGET_POS.Y = TAUGHT_START.Y + OFFSET_POS.Y
TARGET_POS.Z = TAUGHT_START.Z + OFFSET_POS.Z
TARGET_POS.A = TAUGHT_START.A
TARGET_POS.B = TAUGHT_START.B
TARGET_POS.C = TAUGHT_START.C
LIN TARGET_POS C_DIS
CONTINUE
OFFSET_POS = {X 94.008, Y -0.263, Z 2.000, A 0, B 0, C 0}
TARGET_POS = TAUGHT_START
TARGET_POS.X = TAUGHT_START.X + OFFSET_POS.X
TARGET_POS.Y = TAUGHT_START.Y + OFFSET_POS.Y
TARGET_POS.Z = TAUGHT_START.Z + OFFSET_POS.Z
TARGET_POS.A = TAUGHT_START.A
TARGET_POS.B = TAUGHT_START.B
TARGET_POS.C = TAUGHT_START.C
LIN TARGET_POS C_DIS
CONTINUE
OFFSET_POS = {X 95.500, Y 2.240, Z 2.000, A 0, B 0, C 0}
TARGET_POS = TAUGHT_START
TARGET_POS.X = TAUGHT_START.X + OFFSET_POS.X
TARGET_POS.Y = TAUGHT_START.Y + OFFSET_POS.Y
TARGET_POS.Z = TAUGHT_START.Z + OFFSET_POS.Z
TARGET_POS.A = TAUGHT_START.A
TARGET_POS.B = TAUGHT_START.B
TARGET_POS.C = TAUGHT_START.C
LIN TARGET_POS C_DIS
$OUT[1] = FALSE
WAIT SEC 0.200
; Lift Z by 10.0mm to avoid scratching welded bead
LIN_REL {Z 10.0}
; Stabilization delay - ensures travel motion completes before Z lowers
WAIT SEC 5.0
;Waiting for TEMP_VAR to go high indicating temperature reached before next layer
WAIT SEC 30
WAIT FOR TEMP_VAR
WAIT SEC 30
; Lower Z back to weld height
LIN_REL {Z -10.0}
; ;LAYER_CHANGE
; Reset TEMP_VAR at the start of this layer
TEMP_VAR = FALSE
; Layer index: 3
OFFSET_POS = {X 0.000, Y 0.000, Z 4.000, A 0, B 0, C 0}
TARGET_POS = TAUGHT_START
TARGET_POS.X = TAUGHT_START.X + OFFSET_POS.X
TARGET_POS.Y = TAUGHT_START.Y + OFFSET_POS.Y
TARGET_POS.Z = TAUGHT_START.Z + OFFSET_POS.Z
TARGET_POS.A = TAUGHT_START.A
TARGET_POS.B = TAUGHT_START.B
TARGET_POS.C = TAUGHT_START.C
LIN TARGET_POS C_DIS
$OUT[1] = TRUE
WAIT SEC 0.200
OFFSET_POS = {X 1.492, Y 2.249, Z 4.000, A 0, B 0, C 0}
TARGET_POS = TAUGHT_START
TARGET_POS.X = TAUGHT_START.X + OFFSET_POS.X
TARGET_POS.Y = TAUGHT_START.Y + OFFSET_POS.Y
TARGET_POS.Z = TAUGHT_START.Z + OFFSET_POS.Z
TARGET_POS.A = TAUGHT_START.A
TARGET_POS.B = TAUGHT_START.B
TARGET_POS.C = TAUGHT_START.C
LIN TARGET_POS C_DIS
CONTINUE
OFFSET_POS = {X 2.984, Y -0.104, Z 4.000, A 0, B 0, C 0}
TARGET_POS = TAUGHT_START
TARGET_POS.X = TAUGHT_START.X + OFFSET_POS.X
TARGET_POS.Y = TAUGHT_START.Y + OFFSET_POS.Y
TARGET_POS.Z = TAUGHT_START.Z + OFFSET_POS.Z
TARGET_POS.A = TAUGHT_START.A
TARGET_POS.B = TAUGHT_START.B
TARGET_POS.C = TAUGHT_START.C
LIN TARGET_POS C_DIS
CONTINUE
OFFSET_POS = {X 4.477, Y -2.245, Z 4.000, A 0, B 0, C 0}
TARGET_POS = TAUGHT_START
TARGET_POS.X = TAUGHT_START.X + OFFSET_POS.X
TARGET_POS.Y = TAUGHT_START.Y + OFFSET_POS.Y
TARGET_POS.Z = TAUGHT_START.Z + OFFSET_POS.Z
TARGET_POS.A = TAUGHT_START.A
TARGET_POS.B = TAUGHT_START.B
TARGET_POS.C = TAUGHT_START.C
LIN TARGET_POS C_DIS
CONTINUE
OFFSET_POS = {X 5.969, Y 0.207, Z 4.000, A 0, B 0, C 0}
TARGET_POS = TAUGHT_START
TARGET_POS.X = TAUGHT_START.X + OFFSET_POS.X
TARGET_POS.Y = TAUGHT_START.Y + OFFSET_POS.Y
TARGET_POS.Z = TAUGHT_START.Z + OFFSET_POS.Z
TARGET_POS.A = TAUGHT_START.A
TARGET_POS.B = TAUGHT_START.B
TARGET_POS.C = TAUGHT_START.C
LIN TARGET_POS C_DIS
CONTINUE
OFFSET_POS = {X 7.461, Y 2.235, Z 4.000, A 0, B 0, C 0}
TARGET_POS = TAUGHT_START
TARGET_POS.X = TAUGHT_START.X + OFFSET_POS.X
TARGET_POS.Y = TAUGHT_START.Y + OFFSET_POS.Y
TARGET_POS.Z = TAUGHT_START.Z + OFFSET_POS.Z
TARGET_POS.A = TAUGHT_START.A
TARGET_POS.B = TAUGHT_START.B
TARGET_POS.C = TAUGHT_START.C
LIN TARGET_POS C_DIS
CONTINUE
OFFSET_POS = {X 8.953, Y -0.310, Z 4.000, A 0, B 0, C 0}
TARGET_POS = TAUGHT_START
TARGET_POS.X = TAUGHT_START.X + OFFSET_POS.X
TARGET_POS.Y = TAUGHT_START.Y + OFFSET_POS.Y
TARGET_POS.Z = TAUGHT_START.Z + OFFSET_POS.Z
TARGET_POS.A = TAUGHT_START.A
TARGET_POS.B = TAUGHT_START.B
TARGET_POS.C = TAUGHT_START.C
LIN TARGET_POS C_DIS
CONTINUE
OFFSET_POS = {X 10.445, Y -2.221, Z 4.000, A 0, B 0, C 0}
TARGET_POS = TAUGHT_START
TARGET_POS.X = TAUGHT_START.X + OFFSET_POS.X
TARGET_POS.Y = TAUGHT_START.Y + OFFSET_POS.Y
TARGET_POS.Z = TAUGHT_START.Z + OFFSET_POS.Z
TARGET_POS.A = TAUGHT_START.A
TARGET_POS.B = TAUGHT_START.B
TARGET_POS.C = TAUGHT_START.C
LIN TARGET_POS C_DIS
CONTINUE
OFFSET_POS = {X 11.938, Y 0.413, Z 4.000, A 0, B 0, C 0}
TARGET_POS = TAUGHT_START
TARGET_POS.X = TAUGHT_START.X + OFFSET_POS.X
TARGET_POS.Y = TAUGHT_START.Y + OFFSET_POS.Y
TARGET_POS.Z = TAUGHT_START.Z + OFFSET_POS.Z
TARGET_POS.A = TAUGHT_START.A
TARGET_POS.B = TAUGHT_START.B
TARGET_POS.C = TAUGHT_START.C
LIN TARGET_POS C_DIS
CONTINUE
OFFSET_POS = {X 13.430, Y 2.202, Z 4.000, A 0, B 0, C 0}
TARGET_POS = TAUGHT_START
TARGET_POS.X = TAUGHT_START.X + OFFSET_POS.X
TARGET_POS.Y = TAUGHT_START.Y + OFFSET_POS.Y
TARGET_POS.Z = TAUGHT_START.Z + OFFSET_POS.Z
TARGET_POS.A = TAUGHT_START.A
TARGET_POS.B = TAUGHT_START.B
TARGET_POS.C = TAUGHT_START.C
LIN TARGET_POS C_DIS
CONTINUE
OFFSET_POS = {X 14.922, Y -0.515, Z 4.000, A 0, B 0, C 0}
TARGET_POS = TAUGHT_START
TARGET_POS.X = TAUGHT_START.X + OFFSET_POS.X
TARGET_POS.Y = TAUGHT_START.Y + OFFSET_POS.Y
TARGET_POS.Z = TAUGHT_START.Z + OFFSET_POS.Z
TARGET_POS.A = TAUGHT_START.A
TARGET_POS.B = TAUGHT_START.B
TARGET_POS.C = TAUGHT_START.C
LIN TARGET_POS C_DIS
CONTINUE
OFFSET_POS = {X 16.414, Y -2.178, Z 4.000, A 0, B 0, C 0}
TARGET_POS = TAUGHT_START
TARGET_POS.X = TAUGHT_START.X + OFFSET_POS.X
TARGET_POS.Y = TAUGHT_START.Y + OFFSET_POS.Y
TARGET_POS.Z = TAUGHT_START.Z + OFFSET_POS.Z
TARGET_POS.A = TAUGHT_START.A
TARGET_POS.B = TAUGHT_START.B
TARGET_POS.C = TAUGHT_START.C
LIN TARGET_POS C_DIS
CONTINUE
OFFSET_POS = {X 17.906, Y 0.615, Z 4.000, A 0, B 0, C 0}
TARGET_POS = TAUGHT_START
TARGET_POS.X = TAUGHT_START.X + OFFSET_POS.X
TARGET_POS.Y = TAUGHT_START.Y + OFFSET_POS.Y
TARGET_POS.Z = TAUGHT_START.Z + OFFSET_POS.Z
TARGET_POS.A = TAUGHT_START.A
TARGET_POS.B = TAUGHT_START.B
TARGET_POS.C = TAUGHT_START.C
LIN TARGET_POS C_DIS
CONTINUE
OFFSET_POS = {X 19.398, Y 2.150, Z 4.000, A 0, B 0, C 0}
TARGET_POS = TAUGHT_START
TARGET_POS.X = TAUGHT_START.X + OFFSET_POS.X
TARGET_POS.Y = TAUGHT_START.Y + OFFSET_POS.Y
TARGET_POS.Z = TAUGHT_START.Z + OFFSET_POS.Z
TARGET_POS.A = TAUGHT_START.A
TARGET_POS.B = TAUGHT_START.B
TARGET_POS.C = TAUGHT_START.C
LIN TARGET_POS C_DIS
CONTINUE
OFFSET_POS = {X 20.891, Y -0.714, Z 4.000, A 0, B 0, C 0}
TARGET_POS = TAUGHT_START
TARGET_POS.X = TAUGHT_START.X + OFFSET_POS.X
TARGET_POS.Y = TAUGHT_START.Y + OFFSET_POS.Y
TARGET_POS.Z = TAUGHT_START.Z + OFFSET_POS.Z
TARGET_POS.A = TAUGHT_START.A
TARGET_POS.B = TAUGHT_START.B
TARGET_POS.C = TAUGHT_START.C
LIN TARGET_POS C_DIS
CONTINUE
OFFSET_POS = {X 22.383, Y -2.117, Z 4.000, A 0, B 0, C 0}
TARGET_POS = TAUGHT_START
TARGET_POS.X = TAUGHT_START.X + OFFSET_POS.X
TARGET_POS.Y = TAUGHT_START.Y + OFFSET_POS.Y
TARGET_POS.Z = TAUGHT_START.Z + OFFSET_POS.Z
TARGET_POS.A = TAUGHT_START.A
TARGET_POS.B = TAUGHT_START.B
TARGET_POS.C = TAUGHT_START.C
LIN TARGET_POS C_DIS
CONTINUE
OFFSET_POS = {X 23.875, Y 0.812, Z 4.000, A 0, B 0, C 0}
TARGET_POS = TAUGHT_START
TARGET_POS.X = TAUGHT_START.X + OFFSET_POS.X
TARGET_POS.Y = TAUGHT_START.Y + OFFSET_POS.Y
TARGET_POS.Z = TAUGHT_START.Z + OFFSET_POS.Z
TARGET_POS.A = TAUGHT_START.A
TARGET_POS.B = TAUGHT_START.B
TARGET_POS.C = TAUGHT_START.C
LIN TARGET_POS C_DIS
CONTINUE
OFFSET_POS = {X 25.367, Y 2.079, Z 4.000, A 0, B 0, C 0}
TARGET_POS = TAUGHT_START
TARGET_POS.X = TAUGHT_START.X + OFFSET_POS.X
TARGET_POS.Y = TAUGHT_START.Y + OFFSET_POS.Y
TARGET_POS.Z = TAUGHT_START.Z + OFFSET_POS.Z
TARGET_POS.A = TAUGHT_START.A
TARGET_POS.B = TAUGHT_START.B
TARGET_POS.C = TAUGHT_START.C
LIN TARGET_POS C_DIS
CONTINUE
OFFSET_POS = {X 26.859, Y -0.908, Z 4.000, A 0, B 0, C 0}
TARGET_POS = TAUGHT_START
TARGET_POS.X = TAUGHT_START.X + OFFSET_POS.X
TARGET_POS.Y = TAUGHT_START.Y + OFFSET_POS.Y
TARGET_POS.Z = TAUGHT_START.Z + OFFSET_POS.Z
TARGET_POS.A = TAUGHT_START.A
TARGET_POS.B = TAUGHT_START.B
TARGET_POS.C = TAUGHT_START.C
LIN TARGET_POS C_DIS
CONTINUE
OFFSET_POS = {X 28.352, Y -2.037, Z 4.000, A 0, B 0, C 0}
TARGET_POS = TAUGHT_START
TARGET_POS.X = TAUGHT_START.X + OFFSET_POS.X
TARGET_POS.Y = TAUGHT_START.Y + OFFSET_POS.Y
TARGET_POS.Z = TAUGHT_START.Z + OFFSET_POS.Z
TARGET_POS.A = TAUGHT_START.A
TARGET_POS.B = TAUGHT_START.B
TARGET_POS.C = TAUGHT_START.C
LIN TARGET_POS C_DIS
CONTINUE
OFFSET_POS = {X 29.844, Y 1.002, Z 4.000, A 0, B 0, C 0}
TARGET_POS = TAUGHT_START
TARGET_POS.X = TAUGHT_START.X + OFFSET_POS.X
TARGET_POS.Y = TAUGHT_START.Y + OFFSET_POS.Y
TARGET_POS.Z = TAUGHT_START.Z + OFFSET_POS.Z
TARGET_POS.A = TAUGHT_START.A
TARGET_POS.B = TAUGHT_START.B
TARGET_POS.C = TAUGHT_START.C
LIN TARGET_POS C_DIS
CONTINUE
OFFSET_POS = {X 31.336, Y 1.991, Z 4.000, A 0, B 0, C 0}
TARGET_POS = TAUGHT_START
TARGET_POS.X = TAUGHT_START.X + OFFSET_POS.X
TARGET_POS.Y = TAUGHT_START.Y + OFFSET_POS.Y
TARGET_POS.Z = TAUGHT_START.Z + OFFSET_POS.Z
TARGET_POS.A = TAUGHT_START.A
TARGET_POS.B = TAUGHT_START.B
TARGET_POS.C = TAUGHT_START.C
LIN TARGET_POS C_DIS
CONTINUE
OFFSET_POS = {X 32.828, Y -1.094, Z 4.000, A 0, B 0, C 0}
TARGET_POS = TAUGHT_START
TARGET_POS.X = TAUGHT_START.X + OFFSET_POS.X
TARGET_POS.Y = TAUGHT_START.Y + OFFSET_POS.Y
TARGET_POS.Z = TAUGHT_START.Z + OFFSET_POS.Z
TARGET_POS.A = TAUGHT_START.A
TARGET_POS.B = TAUGHT_START.B
TARGET_POS.C = TAUGHT_START.C
LIN TARGET_POS C_DIS
CONTINUE
OFFSET_POS = {X 34.320, Y -1.941, Z 4.000, A 0, B 0, C 0}
TARGET_POS = TAUGHT_START
TARGET_POS.X = TAUGHT_START.X + OFFSET_POS.X
TARGET_POS.Y = TAUGHT_START.Y + OFFSET_POS.Y
TARGET_POS.Z = TAUGHT_START.Z + OFFSET_POS.Z
TARGET_POS.A = TAUGHT_START.A
TARGET_POS.B = TAUGHT_START.B
TARGET_POS.C = TAUGHT_START.C
LIN TARGET_POS C_DIS
CONTINUE
OFFSET_POS = {X 35.812, Y 1.183, Z 4.000, A 0, B 0, C 0}
TARGET_POS = TAUGHT_START
TARGET_POS.X = TAUGHT_START.X + OFFSET_POS.X
TARGET_POS.Y = TAUGHT_START.Y + OFFSET_POS.Y
TARGET_POS.Z = TAUGHT_START.Z + OFFSET_POS.Z
TARGET_POS.A = TAUGHT_START.A
TARGET_POS.B = TAUGHT_START.B
TARGET_POS.C = TAUGHT_START.C
LIN TARGET_POS C_DIS
CONTINUE
OFFSET_POS = {X 37.305, Y 1.886, Z 4.000, A 0, B 0, C 0}
TARGET_POS = TAUGHT_START
TARGET_POS.X = TAUGHT_START.X + OFFSET_POS.X
TARGET_POS.Y = TAUGHT_START.Y + OFFSET_POS.Y
TARGET_POS.Z = TAUGHT_START.Z + OFFSET_POS.Z
TARGET_POS.A = TAUGHT_START.A
TARGET_POS.B = TAUGHT_START.B
TARGET_POS.C = TAUGHT_START.C
LIN TARGET_POS C_DIS
CONTINUE
OFFSET_POS = {X 38.797, Y -1.270, Z 4.000, A 0, B 0, C 0}
TARGET_POS = TAUGHT_START
TARGET_POS.X = TAUGHT_START.X + OFFSET_POS.X
TARGET_POS.Y = TAUGHT_START.Y + OFFSET_POS.Y
TARGET_POS.Z = TAUGHT_START.Z + OFFSET_POS.Z
TARGET_POS.A = TAUGHT_START.A
TARGET_POS.B = TAUGHT_START.B
TARGET_POS.C = TAUGHT_START.C
LIN TARGET_POS C_DIS
CONTINUE
OFFSET_POS = {X 40.289, Y -1.827, Z 4.000, A 0, B 0, C 0}
TARGET_POS = TAUGHT_START
TARGET_POS.X = TAUGHT_START.X + OFFSET_POS.X
TARGET_POS.Y = TAUGHT_START.Y + OFFSET_POS.Y
TARGET_POS.Z = TAUGHT_START.Z + OFFSET_POS.Z
TARGET_POS.A = TAUGHT_START.A
TARGET_POS.B = TAUGHT_START.B
TARGET_POS.C = TAUGHT_START.C
LIN TARGET_POS C_DIS
CONTINUE
OFFSET_POS = {X 41.781, Y 1.354, Z 4.000, A 0, B 0, C 0}
TARGET_POS = TAUGHT_START
TARGET_POS.X = TAUGHT_START.X + OFFSET_POS.X
TARGET_POS.Y = TAUGHT_START.Y + OFFSET_POS.Y
TARGET_POS.Z = TAUGHT_START.Z + OFFSET_POS.Z
TARGET_POS.A = TAUGHT_START.A
TARGET_POS.B = TAUGHT_START.B
TARGET_POS.C = TAUGHT_START.C
LIN TARGET_POS C_DIS
CONTINUE
OFFSET_POS = {X 43.273, Y 1.765, Z 4.000, A 0, B 0, C 0}
TARGET_POS = TAUGHT_START
TARGET_POS.X = TAUGHT_START.X + OFFSET_POS.X
TARGET_POS.Y = TAUGHT_START.Y + OFFSET_POS.Y
TARGET_POS.Z = TAUGHT_START.Z + OFFSET_POS.Z
TARGET_POS.A = TAUGHT_START.A
TARGET_POS.B = TAUGHT_START.B
TARGET_POS.C = TAUGHT_START.C
LIN TARGET_POS C_DIS
CONTINUE
OFFSET_POS = {X 44.766, Y -1.436, Z 4.000, A 0, B 0, C 0}
TARGET_POS = TAUGHT_START
TARGET_POS.X = TAUGHT_START.X + OFFSET_POS.X
TARGET_POS.Y = TAUGHT_START.Y + OFFSET_POS.Y
TARGET_POS.Z = TAUGHT_START.Z + OFFSET_POS.Z
TARGET_POS.A = TAUGHT_START.A
TARGET_POS.B = TAUGHT_START.B
TARGET_POS.C = TAUGHT_START.C
LIN TARGET_POS C_DIS
CONTINUE
OFFSET_POS = {X 46.258, Y -1.699, Z 4.000, A 0, B 0, C 0}
TARGET_POS = TAUGHT_START
TARGET_POS.X = TAUGHT_START.X + OFFSET_POS.X
TARGET_POS.Y = TAUGHT_START.Y + OFFSET_POS.Y
TARGET_POS.Z = TAUGHT_START.Z + OFFSET_POS.Z
TARGET_POS.A = TAUGHT_START.A
TARGET_POS.B = TAUGHT_START.B
TARGET_POS.C = TAUGHT_START.C
LIN TARGET_POS C_DIS
CONTINUE
OFFSET_POS = {X 47.750, Y 1.514, Z 4.000, A 0, B 0, C 0}
TARGET_POS = TAUGHT_START
TARGET_POS.X = TAUGHT_START.X + OFFSET_POS.X
TARGET_POS.Y = TAUGHT_START.Y + OFFSET_POS.Y
TARGET_POS.Z = TAUGHT_START.Z + OFFSET_POS.Z
TARGET_POS.A = TAUGHT_START.A
TARGET_POS.B = TAUGHT_START.B
TARGET_POS.C = TAUGHT_START.C
LIN TARGET_POS C_DIS
CONTINUE
OFFSET_POS = {X 49.242, Y 1.629, Z 4.000, A 0, B 0, C 0}
TARGET_POS = TAUGHT_START
TARGET_POS.X = TAUGHT_START.X + OFFSET_POS.X
TARGET_POS.Y = TAUGHT_START.Y + OFFSET_POS.Y
TARGET_POS.Z = TAUGHT_START.Z + OFFSET_POS.Z
TARGET_POS.A = TAUGHT_START.A
TARGET_POS.B = TAUGHT_START.B
TARGET_POS.C = TAUGHT_START.C
LIN TARGET_POS C_DIS
CONTINUE
OFFSET_POS = {X 50.734, Y -1.589, Z 4.000, A 0, B 0, C 0}
TARGET_POS = TAUGHT_START
TARGET_POS.X = TAUGHT_START.X + OFFSET_POS.X
TARGET_POS.Y = TAUGHT_START.Y + OFFSET_POS.Y
TARGET_POS.Z = TAUGHT_START.Z + OFFSET_POS.Z
TARGET_POS.A = TAUGHT_START.A
TARGET_POS.B = TAUGHT_START.B
TARGET_POS.C = TAUGHT_START.C
LIN TARGET_POS C_DIS
CONTINUE
OFFSET_POS = {X 52.227, Y -1.555, Z 4.000, A 0, B 0, C 0}
TARGET_POS = TAUGHT_START
TARGET_POS.X = TAUGHT_START.X + OFFSET_POS.X
TARGET_POS.Y = TAUGHT_START.Y + OFFSET_POS.Y
TARGET_POS.Z = TAUGHT_START.Z + OFFSET_POS.Z
TARGET_POS.A = TAUGHT_START.A
TARGET_POS.B = TAUGHT_START.B
TARGET_POS.C = TAUGHT_START.C
LIN TARGET_POS C_DIS
CONTINUE
OFFSET_POS = {X 53.719, Y 1.661, Z 4.000, A 0, B 0, C 0}
TARGET_POS = TAUGHT_START
TARGET_POS.X = TAUGHT_START.X + OFFSET_POS.X
TARGET_POS.Y = TAUGHT_START.Y + OFFSET_POS.Y
TARGET_POS.Z = TAUGHT_START.Z + OFFSET_POS.Z
TARGET_POS.A = TAUGHT_START.A
TARGET_POS.B = TAUGHT_START.B
TARGET_POS.C = TAUGHT_START.C
LIN TARGET_POS C_DIS
CONTINUE
OFFSET_POS = {X 55.211, Y 1.479, Z 4.000, A 0, B 0, C 0}
TARGET_POS = TAUGHT_START
TARGET_POS.X = TAUGHT_START.X + OFFSET_POS.X
TARGET_POS.Y = TAUGHT_START.Y + OFFSET_POS.Y
TARGET_POS.Z = TAUGHT_START.Z + OFFSET_POS.Z
TARGET_POS.A = TAUGHT_START.A
TARGET_POS.B = TAUGHT_START.B
TARGET_POS.C = TAUGHT_START.C
LIN TARGET_POS C_DIS
CONTINUE
OFFSET_POS = {X 56.703, Y -1.729, Z 4.000, A 0, B 0, C 0}
TARGET_POS = TAUGHT_START
TARGET_POS.X = TAUGHT_START.X + OFFSET_POS.X
TARGET_POS.Y = TAUGHT_START.Y + OFFSET_POS.Y
TARGET_POS.Z = TAUGHT_START.Z + OFFSET_POS.Z
TARGET_POS.A = TAUGHT_START.A
TARGET_POS.B = TAUGHT_START.B
TARGET_POS.C = TAUGHT_START.C
LIN TARGET_POS C_DIS
CONTINUE
OFFSET_POS = {X 58.195, Y -1.399, Z 4.000, A 0, B 0, C 0}
TARGET_POS = TAUGHT_START
TARGET_POS.X = TAUGHT_START.X + OFFSET_POS.X
TARGET_POS.Y = TAUGHT_START.Y + OFFSET_POS.Y
TARGET_POS.Z = TAUGHT_START.Z + OFFSET_POS.Z
TARGET_POS.A = TAUGHT_START.A
TARGET_POS.B = TAUGHT_START.B
TARGET_POS.C = TAUGHT_START.C
LIN TARGET_POS C_DIS
CONTINUE
OFFSET_POS = {X 59.688, Y 1.794, Z 4.000, A 0, B 0, C 0}
TARGET_POS = TAUGHT_START
TARGET_POS.X = TAUGHT_START.X + OFFSET_POS.X
TARGET_POS.Y = TAUGHT_START.Y + OFFSET_POS.Y
TARGET_POS.Z = TAUGHT_START.Z + OFFSET_POS.Z
TARGET_POS.A = TAUGHT_START.A
TARGET_POS.B = TAUGHT_START.B
TARGET_POS.C = TAUGHT_START.C
LIN TARGET_POS C_DIS
CONTINUE
OFFSET_POS = {X 61.180, Y 1.316, Z 4.000, A 0, B 0, C 0}
TARGET_POS = TAUGHT_START
TARGET_POS.X = TAUGHT_START.X + OFFSET_POS.X
TARGET_POS.Y = TAUGHT_START.Y + OFFSET_POS.Y
TARGET_POS.Z = TAUGHT_START.Z + OFFSET_POS.Z
TARGET_POS.A = TAUGHT_START.A
TARGET_POS.B = TAUGHT_START.B
TARGET_POS.C = TAUGHT_START.C
LIN TARGET_POS C_DIS
CONTINUE
OFFSET_POS = {X 62.672, Y -1.855, Z 4.000, A 0, B 0, C 0}
TARGET_POS = TAUGHT_START
TARGET_POS.X = TAUGHT_START.X + OFFSET_POS.X
TARGET_POS.Y = TAUGHT_START.Y + OFFSET_POS.Y
TARGET_POS.Z = TAUGHT_START.Z + OFFSET_POS.Z
TARGET_POS.A = TAUGHT_START.A
TARGET_POS.B = TAUGHT_START.B
TARGET_POS.C = TAUGHT_START.C
LIN TARGET_POS C_DIS
CONTINUE
OFFSET_POS = {X 64.164, Y -1.231, Z 4.000, A 0, B 0, C 0}
TARGET_POS = TAUGHT_START
TARGET_POS.X = TAUGHT_START.X + OFFSET_POS.X
TARGET_POS.Y = TAUGHT_START.Y + OFFSET_POS.Y
TARGET_POS.Z = TAUGHT_START.Z + OFFSET_POS.Z
TARGET_POS.A = TAUGHT_START.A
TARGET_POS.B = TAUGHT_START.B
TARGET_POS.C = TAUGHT_START.C
LIN TARGET_POS C_DIS
CONTINUE
OFFSET_POS = {X 65.656, Y 1.911, Z 4.000, A 0, B 0, C 0}
TARGET_POS = TAUGHT_START
TARGET_POS.X = TAUGHT_START.X + OFFSET_POS.X
TARGET_POS.Y = TAUGHT_START.Y + OFFSET_POS.Y
TARGET_POS.Z = TAUGHT_START.Z + OFFSET_POS.Z
TARGET_POS.A = TAUGHT_START.A
TARGET_POS.B = TAUGHT_START.B
TARGET_POS.C = TAUGHT_START.C
LIN TARGET_POS C_DIS
CONTINUE
OFFSET_POS = {X 67.148, Y 1.142, Z 4.000, A 0, B 0, C 0}
TARGET_POS = TAUGHT_START
TARGET_POS.X = TAUGHT_START.X + OFFSET_POS.X
TARGET_POS.Y = TAUGHT_START.Y + OFFSET_POS.Y
TARGET_POS.Z = TAUGHT_START.Z + OFFSET_POS.Z
TARGET_POS.A = TAUGHT_START.A
TARGET_POS.B = TAUGHT_START.B
TARGET_POS.C = TAUGHT_START.C
LIN TARGET_POS C_DIS
CONTINUE
OFFSET_POS = {X 68.641, Y -1.964, Z 4.000, A 0, B 0, C 0}
TARGET_POS = TAUGHT_START
TARGET_POS.X = TAUGHT_START.X + OFFSET_POS.X
TARGET_POS.Y = TAUGHT_START.Y + OFFSET_POS.Y
TARGET_POS.Z = TAUGHT_START.Z + OFFSET_POS.Z
TARGET_POS.A = TAUGHT_START.A
TARGET_POS.B = TAUGHT_START.B
TARGET_POS.C = TAUGHT_START.C
LIN TARGET_POS C_DIS
CONTINUE
OFFSET_POS = {X 70.133, Y -1.052, Z 4.000, A 0, B 0, C 0}
TARGET_POS = TAUGHT_START
TARGET_POS.X = TAUGHT_START.X + OFFSET_POS.X
TARGET_POS.Y = TAUGHT_START.Y + OFFSET_POS.Y
TARGET_POS.Z = TAUGHT_START.Z + OFFSET_POS.Z
TARGET_POS.A = TAUGHT_START.A
TARGET_POS.B = TAUGHT_START.B
TARGET_POS.C = TAUGHT_START.C
LIN TARGET_POS C_DIS
CONTINUE
OFFSET_POS = {X 71.625, Y 2.013, Z 4.000, A 0, B 0, C 0}
TARGET_POS = TAUGHT_START
TARGET_POS.X = TAUGHT_START.X + OFFSET_POS.X
TARGET_POS.Y = TAUGHT_START.Y + OFFSET_POS.Y
TARGET_POS.Z = TAUGHT_START.Z + OFFSET_POS.Z
TARGET_POS.A = TAUGHT_START.A
TARGET_POS.B = TAUGHT_START.B
TARGET_POS.C = TAUGHT_START.C
LIN TARGET_POS C_DIS
CONTINUE
OFFSET_POS = {X 73.117, Y 0.959, Z 4.000, A 0, B 0, C 0}
TARGET_POS = TAUGHT_START
TARGET_POS.X = TAUGHT_START.X + OFFSET_POS.X
TARGET_POS.Y = TAUGHT_START.Y + OFFSET_POS.Y
TARGET_POS.Z = TAUGHT_START.Z + OFFSET_POS.Z
TARGET_POS.A = TAUGHT_START.A
TARGET_POS.B = TAUGHT_START.B
TARGET_POS.C = TAUGHT_START.C
LIN TARGET_POS C_DIS
CONTINUE
OFFSET_POS = {X 74.609, Y -2.057, Z 4.000, A 0, B 0, C 0}
TARGET_POS = TAUGHT_START
TARGET_POS.X = TAUGHT_START.X + OFFSET_POS.X
TARGET_POS.Y = TAUGHT_START.Y + OFFSET_POS.Y
TARGET_POS.Z = TAUGHT_START.Z + OFFSET_POS.Z
TARGET_POS.A = TAUGHT_START.A
TARGET_POS.B = TAUGHT_START.B
TARGET_POS.C = TAUGHT_START.C
LIN TARGET_POS C_DIS
CONTINUE
OFFSET_POS = {X 76.102, Y -0.864, Z 4.000, A 0, B 0, C 0}
TARGET_POS = TAUGHT_START
TARGET_POS.X = TAUGHT_START.X + OFFSET_POS.X
TARGET_POS.Y = TAUGHT_START.Y + OFFSET_POS.Y
TARGET_POS.Z = TAUGHT_START.Z + OFFSET_POS.Z
TARGET_POS.A = TAUGHT_START.A
TARGET_POS.B = TAUGHT_START.B
TARGET_POS.C = TAUGHT_START.C
LIN TARGET_POS C_DIS
CONTINUE
OFFSET_POS = {X 77.594, Y 2.097, Z 4.000, A 0, B 0, C 0}
TARGET_POS = TAUGHT_START
TARGET_POS.X = TAUGHT_START.X + OFFSET_POS.X
TARGET_POS.Y = TAUGHT_START.Y + OFFSET_POS.Y
TARGET_POS.Z = TAUGHT_START.Z + OFFSET_POS.Z
TARGET_POS.A = TAUGHT_START.A
TARGET_POS.B = TAUGHT_START.B
TARGET_POS.C = TAUGHT_START.C
LIN TARGET_POS C_DIS
CONTINUE
OFFSET_POS = {X 79.086, Y 0.767, Z 4.000, A 0, B 0, C 0}
TARGET_POS = TAUGHT_START
TARGET_POS.X = TAUGHT_START.X + OFFSET_POS.X
TARGET_POS.Y = TAUGHT_START.Y + OFFSET_POS.Y
TARGET_POS.Z = TAUGHT_START.Z + OFFSET_POS.Z
TARGET_POS.A = TAUGHT_START.A
TARGET_POS.B = TAUGHT_START.B
TARGET_POS.C = TAUGHT_START.C
LIN TARGET_POS C_DIS
CONTINUE
OFFSET_POS = {X 80.578, Y -2.132, Z 4.000, A 0, B 0, C 0}
TARGET_POS = TAUGHT_START
TARGET_POS.X = TAUGHT_START.X + OFFSET_POS.X
TARGET_POS.Y = TAUGHT_START.Y + OFFSET_POS.Y
TARGET_POS.Z = TAUGHT_START.Z + OFFSET_POS.Z
TARGET_POS.A = TAUGHT_START.A
TARGET_POS.B = TAUGHT_START.B
TARGET_POS.C = TAUGHT_START.C
LIN TARGET_POS C_DIS
CONTINUE
OFFSET_POS = {X 82.070, Y -0.669, Z 4.000, A 0, B 0, C 0}
TARGET_POS = TAUGHT_START
TARGET_POS.X = TAUGHT_START.X + OFFSET_POS.X
TARGET_POS.Y = TAUGHT_START.Y + OFFSET_POS.Y
TARGET_POS.Z = TAUGHT_START.Z + OFFSET_POS.Z
TARGET_POS.A = TAUGHT_START.A
TARGET_POS.B = TAUGHT_START.B
TARGET_POS.C = TAUGHT_START.C
LIN TARGET_POS C_DIS
CONTINUE
OFFSET_POS = {X 83.562, Y 2.163, Z 4.000, A 0, B 0, C 0}
TARGET_POS = TAUGHT_START
TARGET_POS.X = TAUGHT_START.X + OFFSET_POS.X
TARGET_POS.Y = TAUGHT_START.Y + OFFSET_POS.Y
TARGET_POS.Z = TAUGHT_START.Z + OFFSET_POS.Z
TARGET_POS.A = TAUGHT_START.A
TARGET_POS.B = TAUGHT_START.B
TARGET_POS.C = TAUGHT_START.C
LIN TARGET_POS C_DIS
CONTINUE
OFFSET_POS = {X 85.055, Y 0.569, Z 4.000, A 0, B 0, C 0}
TARGET_POS = TAUGHT_START
TARGET_POS.X = TAUGHT_START.X + OFFSET_POS.X
TARGET_POS.Y = TAUGHT_START.Y + OFFSET_POS.Y
TARGET_POS.Z = TAUGHT_START.Z + OFFSET_POS.Z
TARGET_POS.A = TAUGHT_START.A
TARGET_POS.B = TAUGHT_START.B
TARGET_POS.C = TAUGHT_START.C
LIN TARGET_POS C_DIS
CONTINUE
OFFSET_POS = {X 86.547, Y -2.189, Z 4.000, A 0, B 0, C 0}
TARGET_POS = TAUGHT_START
TARGET_POS.X = TAUGHT_START.X + OFFSET_POS.X
TARGET_POS.Y = TAUGHT_START.Y + OFFSET_POS.Y
TARGET_POS.Z = TAUGHT_START.Z + OFFSET_POS.Z
TARGET_POS.A = TAUGHT_START.A
TARGET_POS.B = TAUGHT_START.B
TARGET_POS.C = TAUGHT_START.C
LIN TARGET_POS C_DIS
CONTINUE
OFFSET_POS = {X 88.039, Y -0.468, Z 4.000, A 0, B 0, C 0}
TARGET_POS = TAUGHT_START
TARGET_POS.X = TAUGHT_START.X + OFFSET_POS.X
TARGET_POS.Y = TAUGHT_START.Y + OFFSET_POS.Y
TARGET_POS.Z = TAUGHT_START.Z + OFFSET_POS.Z
TARGET_POS.A = TAUGHT_START.A
TARGET_POS.B = TAUGHT_START.B
TARGET_POS.C = TAUGHT_START.C
LIN TARGET_POS C_DIS
CONTINUE
OFFSET_POS = {X 89.531, Y 2.211, Z 4.000, A 0, B 0, C 0}
TARGET_POS = TAUGHT_START
TARGET_POS.X = TAUGHT_START.X + OFFSET_POS.X
TARGET_POS.Y = TAUGHT_START.Y + OFFSET_POS.Y
TARGET_POS.Z = TAUGHT_START.Z + OFFSET_POS.Z
TARGET_POS.A = TAUGHT_START.A
TARGET_POS.B = TAUGHT_START.B
TARGET_POS.C = TAUGHT_START.C
LIN TARGET_POS C_DIS
CONTINUE
OFFSET_POS = {X 91.023, Y 0.366, Z 4.000, A 0, B 0, C 0}
TARGET_POS = TAUGHT_START
TARGET_POS.X = TAUGHT_START.X + OFFSET_POS.X
TARGET_POS.Y = TAUGHT_START.Y + OFFSET_POS.Y
TARGET_POS.Z = TAUGHT_START.Z + OFFSET_POS.Z
TARGET_POS.A = TAUGHT_START.A
TARGET_POS.B = TAUGHT_START.B
TARGET_POS.C = TAUGHT_START.C
LIN TARGET_POS C_DIS
CONTINUE
OFFSET_POS = {X 92.516, Y -2.228, Z 4.000, A 0, B 0, C 0}
TARGET_POS = TAUGHT_START
TARGET_POS.X = TAUGHT_START.X + OFFSET_POS.X
TARGET_POS.Y = TAUGHT_START.Y + OFFSET_POS.Y
TARGET_POS.Z = TAUGHT_START.Z + OFFSET_POS.Z
TARGET_POS.A = TAUGHT_START.A
TARGET_POS.B = TAUGHT_START.B
TARGET_POS.C = TAUGHT_START.C
LIN TARGET_POS C_DIS
CONTINUE
OFFSET_POS = {X 94.008, Y -0.263, Z 4.000, A 0, B 0, C 0}
TARGET_POS = TAUGHT_START
TARGET_POS.X = TAUGHT_START.X + OFFSET_POS.X
TARGET_POS.Y = TAUGHT_START.Y + OFFSET_POS.Y
TARGET_POS.Z = TAUGHT_START.Z + OFFSET_POS.Z
TARGET_POS.A = TAUGHT_START.A
TARGET_POS.B = TAUGHT_START.B
TARGET_POS.C = TAUGHT_START.C
LIN TARGET_POS C_DIS
CONTINUE
OFFSET_POS = {X 95.500, Y 2.240, Z 4.000, A 0, B 0, C 0}
TARGET_POS = TAUGHT_START
TARGET_POS.X = TAUGHT_START.X + OFFSET_POS.X
TARGET_POS.Y = TAUGHT_START.Y + OFFSET_POS.Y
TARGET_POS.Z = TAUGHT_START.Z + OFFSET_POS.Z
TARGET_POS.A = TAUGHT_START.A
TARGET_POS.B = TAUGHT_START.B
TARGET_POS.C = TAUGHT_START.C
LIN TARGET_POS C_DIS
$OUT[1] = FALSE
WAIT SEC 0.200
; Lift Z by 10.0mm to avoid scratching welded bead
LIN_REL {Z 10.0}
; Stabilization delay - ensures travel motion completes before Z lowers
WAIT SEC 5.0
;Waiting for TEMP_VAR to go high indicating temperature reached before next layer
WAIT SEC 30
WAIT FOR TEMP_VAR
WAIT SEC 30
; Lower Z back to weld height
LIN_REL {Z -10.0}
; ;LAYER_CHANGE
; Reset TEMP_VAR at the start of this layer
TEMP_VAR = FALSE
; Layer index: 5
OFFSET_POS = {X 95.500, Y 0.000, Z 6.000, A 0, B 0, C 0}
TARGET_POS = TAUGHT_START
TARGET_POS.X = TAUGHT_START.X + OFFSET_POS.X
TARGET_POS.Y = TAUGHT_START.Y + OFFSET_POS.Y
TARGET_POS.Z = TAUGHT_START.Z + OFFSET_POS.Z
TARGET_POS.A = TAUGHT_START.A
TARGET_POS.B = TAUGHT_START.B
TARGET_POS.C = TAUGHT_START.C
LIN TARGET_POS C_DIS
$OUT[1] = TRUE
WAIT SEC 0.200
OFFSET_POS = {X 94.008, Y -2.249, Z 6.000, A 0, B 0, C 0}
TARGET_POS = TAUGHT_START
TARGET_POS.X = TAUGHT_START.X + OFFSET_POS.X
TARGET_POS.Y = TAUGHT_START.Y + OFFSET_POS.Y
TARGET_POS.Z = TAUGHT_START.Z + OFFSET_POS.Z
TARGET_POS.A = TAUGHT_START.A
TARGET_POS.B = TAUGHT_START.B
TARGET_POS.C = TAUGHT_START.C
LIN TARGET_POS C_DIS
CONTINUE
OFFSET_POS = {X 92.516, Y 0.104, Z 6.000, A 0, B 0, C 0}
TARGET_POS = TAUGHT_START
TARGET_POS.X = TAUGHT_START.X + OFFSET_POS.X
TARGET_POS.Y = TAUGHT_START.Y + OFFSET_POS.Y
TARGET_POS.Z = TAUGHT_START.Z + OFFSET_POS.Z
TARGET_POS.A = TAUGHT_START.A
TARGET_POS.B = TAUGHT_START.B
TARGET_POS.C = TAUGHT_START.C
LIN TARGET_POS C_DIS
CONTINUE
OFFSET_POS = {X 91.023, Y 2.245, Z 6.000, A 0, B 0, C 0}
TARGET_POS = TAUGHT_START
TARGET_POS.X = TAUGHT_START.X + OFFSET_POS.X
TARGET_POS.Y = TAUGHT_START.Y + OFFSET_POS.Y
TARGET_POS.Z = TAUGHT_START.Z + OFFSET_POS.Z
TARGET_POS.A = TAUGHT_START.A
TARGET_POS.B = TAUGHT_START.B
TARGET_POS.C = TAUGHT_START.C
LIN TARGET_POS C_DIS
CONTINUE
OFFSET_POS = {X 89.531, Y -0.207, Z 6.000, A 0, B 0, C 0}
TARGET_POS = TAUGHT_START
TARGET_POS.X = TAUGHT_START.X + OFFSET_POS.X
TARGET_POS.Y = TAUGHT_START.Y + OFFSET_POS.Y
TARGET_POS.Z = TAUGHT_START.Z + OFFSET_POS.Z
TARGET_POS.A = TAUGHT_START.A
TARGET_POS.B = TAUGHT_START.B
TARGET_POS.C = TAUGHT_START.C
LIN TARGET_POS C_DIS
CONTINUE
OFFSET_POS = {X 88.039, Y -2.235, Z 6.000, A 0, B 0, C 0}
TARGET_POS = TAUGHT_START
TARGET_POS.X = TAUGHT_START.X + OFFSET_POS.X
TARGET_POS.Y = TAUGHT_START.Y + OFFSET_POS.Y
TARGET_POS.Z = TAUGHT_START.Z + OFFSET_POS.Z
TARGET_POS.A = TAUGHT_START.A
TARGET_POS.B = TAUGHT_START.B
TARGET_POS.C = TAUGHT_START.C
LIN TARGET_POS C_DIS
CONTINUE
OFFSET_POS = {X 86.547, Y 0.310, Z 6.000, A 0, B 0, C 0}
TARGET_POS = TAUGHT_START
TARGET_POS.X = TAUGHT_START.X + OFFSET_POS.X
TARGET_POS.Y = TAUGHT_START.Y + OFFSET_POS.Y
TARGET_POS.Z = TAUGHT_START.Z + OFFSET_POS.Z
TARGET_POS.A = TAUGHT_START.A
TARGET_POS.B = TAUGHT_START.B
TARGET_POS.C = TAUGHT_START.C
LIN TARGET_POS C_DIS
CONTINUE
OFFSET_POS = {X 85.055, Y 2.221, Z 6.000, A 0, B 0, C 0}
TARGET_POS = TAUGHT_START
TARGET_POS.X = TAUGHT_START.X + OFFSET_POS.X
TARGET_POS.Y = TAUGHT_START.Y + OFFSET_POS.Y
TARGET_POS.Z = TAUGHT_START.Z + OFFSET_POS.Z
TARGET_POS.A = TAUGHT_START.A
TARGET_POS.B = TAUGHT_START.B
TARGET_POS.C = TAUGHT_START.C
LIN TARGET_POS C_DIS
CONTINUE
OFFSET_POS = {X 83.562, Y -0.413, Z 6.000, A 0, B 0, C 0}
TARGET_POS = TAUGHT_START
TARGET_POS.X = TAUGHT_START.X + OFFSET_POS.X
TARGET_POS.Y = TAUGHT_START.Y + OFFSET_POS.Y
TARGET_POS.Z = TAUGHT_START.Z + OFFSET_POS.Z
TARGET_POS.A = TAUGHT_START.A
TARGET_POS.B = TAUGHT_START.B
TARGET_POS.C = TAUGHT_START.C
LIN TARGET_POS C_DIS
CONTINUE
OFFSET_POS = {X 82.070, Y -2.202, Z 6.000, A 0, B 0, C 0}
TARGET_POS = TAUGHT_START
TARGET_POS.X = TAUGHT_START.X + OFFSET_POS.X
TARGET_POS.Y = TAUGHT_START.Y + OFFSET_POS.Y
TARGET_POS.Z = TAUGHT_START.Z + OFFSET_POS.Z
TARGET_POS.A = TAUGHT_START.A
TARGET_POS.B = TAUGHT_START.B
TARGET_POS.C = TAUGHT_START.C
LIN TARGET_POS C_DIS
CONTINUE
OFFSET_POS = {X 80.578, Y 0.515, Z 6.000, A 0, B 0, C 0}
TARGET_POS = TAUGHT_START
TARGET_POS.X = TAUGHT_START.X + OFFSET_POS.X
TARGET_POS.Y = TAUGHT_START.Y + OFFSET_POS.Y
TARGET_POS.Z = TAUGHT_START.Z + OFFSET_POS.Z
TARGET_POS.A = TAUGHT_START.A
TARGET_POS.B = TAUGHT_START.B
TARGET_POS.C = TAUGHT_START.C
LIN TARGET_POS C_DIS
CONTINUE
OFFSET_POS = {X 79.086, Y 2.178, Z 6.000, A 0, B 0, C 0}
TARGET_POS = TAUGHT_START
TARGET_POS.X = TAUGHT_START.X + OFFSET_POS.X
TARGET_POS.Y = TAUGHT_START.Y + OFFSET_POS.Y
TARGET_POS.Z = TAUGHT_START.Z + OFFSET_POS.Z
TARGET_POS.A = TAUGHT_START.A
TARGET_POS.B = TAUGHT_START.B
TARGET_POS.C = TAUGHT_START.C
LIN TARGET_POS C_DIS
CONTINUE
OFFSET_POS = {X 77.594, Y -0.615, Z 6.000, A 0, B 0, C 0}
TARGET_POS = TAUGHT_START
TARGET_POS.X = TAUGHT_START.X + OFFSET_POS.X
TARGET_POS.Y = TAUGHT_START.Y + OFFSET_POS.Y
TARGET_POS.Z = TAUGHT_START.Z + OFFSET_POS.Z
TARGET_POS.A = TAUGHT_START.A
TARGET_POS.B = TAUGHT_START.B
TARGET_POS.C = TAUGHT_START.C
LIN TARGET_POS C_DIS
CONTINUE
OFFSET_POS = {X 76.102, Y -2.150, Z 6.000, A 0, B 0, C 0}
TARGET_POS = TAUGHT_START
TARGET_POS.X = TAUGHT_START.X + OFFSET_POS.X
TARGET_POS.Y = TAUGHT_START.Y + OFFSET_POS.Y
TARGET_POS.Z = TAUGHT_START.Z + OFFSET_POS.Z
TARGET_POS.A = TAUGHT_START.A
TARGET_POS.B = TAUGHT_START.B
TARGET_POS.C = TAUGHT_START.C
LIN TARGET_POS C_DIS
CONTINUE
OFFSET_POS = {X 74.609, Y 0.714, Z 6.000, A 0, B 0, C 0}
TARGET_POS = TAUGHT_START
TARGET_POS.X = TAUGHT_START.X + OFFSET_POS.X
TARGET_POS.Y = TAUGHT_START.Y + OFFSET_POS.Y
TARGET_POS.Z = TAUGHT_START.Z + OFFSET_POS.Z
TARGET_POS.A = TAUGHT_START.A
TARGET_POS.B = TAUGHT_START.B
TARGET_POS.C = TAUGHT_START.C
LIN TARGET_POS C_DIS
CONTINUE
OFFSET_POS = {X 73.117, Y 2.117, Z 6.000, A 0, B 0, C 0}
TARGET_POS = TAUGHT_START
TARGET_POS.X = TAUGHT_START.X + OFFSET_POS.X
TARGET_POS.Y = TAUGHT_START.Y + OFFSET_POS.Y
TARGET_POS.Z = TAUGHT_START.Z + OFFSET_POS.Z
TARGET_POS.A = TAUGHT_START.A
TARGET_POS.B = TAUGHT_START.B
TARGET_POS.C = TAUGHT_START.C
LIN TARGET_POS C_DIS
CONTINUE
OFFSET_POS = {X 71.625, Y -0.812, Z 6.000, A 0, B 0, C 0}
TARGET_POS = TAUGHT_START
TARGET_POS.X = TAUGHT_START.X + OFFSET_POS.X
TARGET_POS.Y = TAUGHT_START.Y + OFFSET_POS.Y
TARGET_POS.Z = TAUGHT_START.Z + OFFSET_POS.Z
TARGET_POS.A = TAUGHT_START.A
TARGET_POS.B = TAUGHT_START.B
TARGET_POS.C = TAUGHT_START.C
LIN TARGET_POS C_DIS
CONTINUE
OFFSET_POS = {X 70.133, Y -2.079, Z 6.000, A 0, B 0, C 0}
TARGET_POS = TAUGHT_START
TARGET_POS.X = TAUGHT_START.X + OFFSET_POS.X
TARGET_POS.Y = TAUGHT_START.Y + OFFSET_POS.Y
TARGET_POS.Z = TAUGHT_START.Z + OFFSET_POS.Z
TARGET_POS.A = TAUGHT_START.A
TARGET_POS.B = TAUGHT_START.B
TARGET_POS.C = TAUGHT_START.C
LIN TARGET_POS C_DIS
CONTINUE
OFFSET_POS = {X 68.641, Y 0.908, Z 6.000, A 0, B 0, C 0}
TARGET_POS = TAUGHT_START
TARGET_POS.X = TAUGHT_START.X + OFFSET_POS.X
TARGET_POS.Y = TAUGHT_START.Y + OFFSET_POS.Y
TARGET_POS.Z = TAUGHT_START.Z + OFFSET_POS.Z
TARGET_POS.A = TAUGHT_START.A
TARGET_POS.B = TAUGHT_START.B
TARGET_POS.C = TAUGHT_START.C
LIN TARGET_POS C_DIS
CONTINUE
OFFSET_POS = {X 67.148, Y 2.037, Z 6.000, A 0, B 0, C 0}
TARGET_POS = TAUGHT_START
TARGET_POS.X = TAUGHT_START.X + OFFSET_POS.X
TARGET_POS.Y = TAUGHT_START.Y + OFFSET_POS.Y
TARGET_POS.Z = TAUGHT_START.Z + OFFSET_POS.Z
TARGET_POS.A = TAUGHT_START.A
TARGET_POS.B = TAUGHT_START.B
TARGET_POS.C = TAUGHT_START.C
LIN TARGET_POS C_DIS
CONTINUE
OFFSET_POS = {X 65.656, Y -1.002, Z 6.000, A 0, B 0, C 0}
TARGET_POS = TAUGHT_START
TARGET_POS.X = TAUGHT_START.X + OFFSET_POS.X
TARGET_POS.Y = TAUGHT_START.Y + OFFSET_POS.Y
TARGET_POS.Z = TAUGHT_START.Z + OFFSET_POS.Z
TARGET_POS.A = TAUGHT_START.A
TARGET_POS.B = TAUGHT_START.B
TARGET_POS.C = TAUGHT_START.C
LIN TARGET_POS C_DIS
CONTINUE
OFFSET_POS = {X 64.164, Y -1.991, Z 6.000, A 0, B 0, C 0}
TARGET_POS = TAUGHT_START
TARGET_POS.X = TAUGHT_START.X + OFFSET_POS.X
TARGET_POS.Y = TAUGHT_START.Y + OFFSET_POS.Y
TARGET_POS.Z = TAUGHT_START.Z + OFFSET_POS.Z
TARGET_POS.A = TAUGHT_START.A
TARGET_POS.B = TAUGHT_START.B
TARGET_POS.C = TAUGHT_START.C
LIN TARGET_POS C_DIS
CONTINUE
OFFSET_POS = {X 62.672, Y 1.094, Z 6.000, A 0, B 0, C 0}
TARGET_POS = TAUGHT_START
TARGET_POS.X = TAUGHT_START.X + OFFSET_POS.X
TARGET_POS.Y = TAUGHT_START.Y + OFFSET_POS.Y
TARGET_POS.Z = TAUGHT_START.Z + OFFSET_POS.Z
TARGET_POS.A = TAUGHT_START.A
TARGET_POS.B = TAUGHT_START.B
TARGET_POS.C = TAUGHT_START.C
LIN TARGET_POS C_DIS
CONTINUE
OFFSET_POS = {X 61.180, Y 1.941, Z 6.000, A 0, B 0, C 0}
TARGET_POS = TAUGHT_START
TARGET_POS.X = TAUGHT_START.X + OFFSET_POS.X
TARGET_POS.Y = TAUGHT_START.Y + OFFSET_POS.Y
TARGET_POS.Z = TAUGHT_START.Z + OFFSET_POS.Z
TARGET_POS.A = TAUGHT_START.A
TARGET_POS.B = TAUGHT_START.B
TARGET_POS.C = TAUGHT_START.C
LIN TARGET_POS C_DIS
CONTINUE
OFFSET_POS = {X 59.688, Y -1.183, Z 6.000, A 0, B 0, C 0}
TARGET_POS = TAUGHT_START
TARGET_POS.X = TAUGHT_START.X + OFFSET_POS.X
TARGET_POS.Y = TAUGHT_START.Y + OFFSET_POS.Y
TARGET_POS.Z = TAUGHT_START.Z + OFFSET_POS.Z
TARGET_POS.A = TAUGHT_START.A
TARGET_POS.B = TAUGHT_START.B
TARGET_POS.C = TAUGHT_START.C
LIN TARGET_POS C_DIS
CONTINUE
OFFSET_POS = {X 58.195, Y -1.886, Z 6.000, A 0, B 0, C 0}
TARGET_POS = TAUGHT_START
TARGET_POS.X = TAUGHT_START.X + OFFSET_POS.X
TARGET_POS.Y = TAUGHT_START.Y + OFFSET_POS.Y
TARGET_POS.Z = TAUGHT_START.Z + OFFSET_POS.Z
TARGET_POS.A = TAUGHT_START.A
TARGET_POS.B = TAUGHT_START.B
TARGET_POS.C = TAUGHT_START.C
LIN TARGET_POS C_DIS
CONTINUE
OFFSET_POS = {X 56.703, Y 1.270, Z 6.000, A 0, B 0, C 0}
TARGET_POS = TAUGHT_START
TARGET_POS.X = TAUGHT_START.X + OFFSET_POS.X
TARGET_POS.Y = TAUGHT_START.Y + OFFSET_POS.Y
TARGET_POS.Z = TAUGHT_START.Z + OFFSET_POS.Z
TARGET_POS.A = TAUGHT_START.A
TARGET_POS.B = TAUGHT_START.B
TARGET_POS.C = TAUGHT_START.C
LIN TARGET_POS C_DIS
CONTINUE
OFFSET_POS = {X 55.211, Y 1.827, Z 6.000, A 0, B 0, C 0}
TARGET_POS = TAUGHT_START
TARGET_POS.X = TAUGHT_START.X + OFFSET_POS.X
TARGET_POS.Y = TAUGHT_START.Y + OFFSET_POS.Y
TARGET_POS.Z = TAUGHT_START.Z + OFFSET_POS.Z
TARGET_POS.A = TAUGHT_START.A
TARGET_POS.B = TAUGHT_START.B
TARGET_POS.C = TAUGHT_START.C
LIN TARGET_POS C_DIS
CONTINUE
OFFSET_POS = {X 53.719, Y -1.354, Z 6.000, A 0, B 0, C 0}
TARGET_POS = TAUGHT_START
TARGET_POS.X = TAUGHT_START.X + OFFSET_POS.X
TARGET_POS.Y = TAUGHT_START.Y + OFFSET_POS.Y
TARGET_POS.Z = TAUGHT_START.Z + OFFSET_POS.Z
TARGET_POS.A = TAUGHT_START.A
TARGET_POS.B = TAUGHT_START.B
TARGET_POS.C = TAUGHT_START.C
LIN TARGET_POS C_DIS
CONTINUE
OFFSET_POS = {X 52.227, Y -1.765, Z 6.000, A 0, B 0, C 0}
TARGET_POS = TAUGHT_START
TARGET_POS.X = TAUGHT_START.X + OFFSET_POS.X
TARGET_POS.Y = TAUGHT_START.Y + OFFSET_POS.Y
TARGET_POS.Z = TAUGHT_START.Z + OFFSET_POS.Z
TARGET_POS.A = TAUGHT_START.A
TARGET_POS.B = TAUGHT_START.B
TARGET_POS.C = TAUGHT_START.C
LIN TARGET_POS C_DIS
CONTINUE
OFFSET_POS = {X 50.734, Y 1.436, Z 6.000, A 0, B 0, C 0}
TARGET_POS = TAUGHT_START
TARGET_POS.X = TAUGHT_START.X + OFFSET_POS.X
TARGET_POS.Y = TAUGHT_START.Y + OFFSET_POS.Y
TARGET_POS.Z = TAUGHT_START.Z + OFFSET_POS.Z
TARGET_POS.A = TAUGHT_START.A
TARGET_POS.B = TAUGHT_START.B
TARGET_POS.C = TAUGHT_START.C
LIN TARGET_POS C_DIS
CONTINUE
OFFSET_POS = {X 49.242, Y 1.699, Z 6.000, A 0, B 0, C 0}
TARGET_POS = TAUGHT_START
TARGET_POS.X = TAUGHT_START.X + OFFSET_POS.X
TARGET_POS.Y = TAUGHT_START.Y + OFFSET_POS.Y
TARGET_POS.Z = TAUGHT_START.Z + OFFSET_POS.Z
TARGET_POS.A = TAUGHT_START.A
TARGET_POS.B = TAUGHT_START.B
TARGET_POS.C = TAUGHT_START.C
LIN TARGET_POS C_DIS
CONTINUE
OFFSET_POS = {X 47.750, Y -1.514, Z 6.000, A 0, B 0, C 0}
TARGET_POS = TAUGHT_START
TARGET_POS.X = TAUGHT_START.X + OFFSET_POS.X
TARGET_POS.Y = TAUGHT_START.Y + OFFSET_POS.Y
TARGET_POS.Z = TAUGHT_START.Z + OFFSET_POS.Z
TARGET_POS.A = TAUGHT_START.A
TARGET_POS.B = TAUGHT_START.B
TARGET_POS.C = TAUGHT_START.C
LIN TARGET_POS C_DIS
CONTINUE
OFFSET_POS = {X 46.258, Y -1.629, Z 6.000, A 0, B 0, C 0}
TARGET_POS = TAUGHT_START
TARGET_POS.X = TAUGHT_START.X + OFFSET_POS.X
TARGET_POS.Y = TAUGHT_START.Y + OFFSET_POS.Y
TARGET_POS.Z = TAUGHT_START.Z + OFFSET_POS.Z
TARGET_POS.A = TAUGHT_START.A
TARGET_POS.B = TAUGHT_START.B
TARGET_POS.C = TAUGHT_START.C
LIN TARGET_POS C_DIS
CONTINUE
OFFSET_POS = {X 44.766, Y 1.589, Z 6.000, A 0, B 0, C 0}
TARGET_POS = TAUGHT_START
TARGET_POS.X = TAUGHT_START.X + OFFSET_POS.X
TARGET_POS.Y = TAUGHT_START.Y + OFFSET_POS.Y
TARGET_POS.Z = TAUGHT_START.Z + OFFSET_POS.Z
TARGET_POS.A = TAUGHT_START.A
TARGET_POS.B = TAUGHT_START.B
TARGET_POS.C = TAUGHT_START.C
LIN TARGET_POS C_DIS
CONTINUE
OFFSET_POS = {X 43.273, Y 1.555, Z 6.000, A 0, B 0, C 0}
TARGET_POS = TAUGHT_START
TARGET_POS.X = TAUGHT_START.X + OFFSET_POS.X
TARGET_POS.Y = TAUGHT_START.Y + OFFSET_POS.Y
TARGET_POS.Z = TAUGHT_START.Z + OFFSET_POS.Z
TARGET_POS.A = TAUGHT_START.A
TARGET_POS.B = TAUGHT_START.B
TARGET_POS.C = TAUGHT_START.C
LIN TARGET_POS C_DIS
CONTINUE
OFFSET_POS = {X 41.781, Y -1.661, Z 6.000, A 0, B 0, C 0}
TARGET_POS = TAUGHT_START
TARGET_POS.X = TAUGHT_START.X + OFFSET_POS.X
TARGET_POS.Y = TAUGHT_START.Y + OFFSET_POS.Y
TARGET_POS.Z = TAUGHT_START.Z + OFFSET_POS.Z
TARGET_POS.A = TAUGHT_START.A
TARGET_POS.B = TAUGHT_START.B
TARGET_POS.C = TAUGHT_START.C
LIN TARGET_POS C_DIS
CONTINUE
OFFSET_POS = {X 40.289, Y -1.479, Z 6.000, A 0, B 0, C 0}
TARGET_POS = TAUGHT_START
TARGET_POS.X = TAUGHT_START.X + OFFSET_POS.X
TARGET_POS.Y = TAUGHT_START.Y + OFFSET_POS.Y
TARGET_POS.Z = TAUGHT_START.Z + OFFSET_POS.Z
TARGET_POS.A = TAUGHT_START.A
TARGET_POS.B = TAUGHT_START.B
TARGET_POS.C = TAUGHT_START.C
LIN TARGET_POS C_DIS
CONTINUE
OFFSET_POS = {X 38.797, Y 1.729, Z 6.000, A 0, B 0, C 0}
TARGET_POS = TAUGHT_START
TARGET_POS.X = TAUGHT_START.X + OFFSET_POS.X
TARGET_POS.Y = TAUGHT_START.Y + OFFSET_POS.Y
TARGET_POS.Z = TAUGHT_START.Z + OFFSET_POS.Z
TARGET_POS.A = TAUGHT_START.A
TARGET_POS.B = TAUGHT_START.B
TARGET_POS.C = TAUGHT_START.C
LIN TARGET_POS C_DIS
CONTINUE
OFFSET_POS = {X 37.305, Y 1.399, Z 6.000, A 0, B 0, C 0}
TARGET_POS = TAUGHT_START
TARGET_POS.X = TAUGHT_START.X + OFFSET_POS.X
TARGET_POS.Y = TAUGHT_START.Y + OFFSET_POS.Y
TARGET_POS.Z = TAUGHT_START.Z + OFFSET_POS.Z
TARGET_POS.A = TAUGHT_START.A
TARGET_POS.B = TAUGHT_START.B
TARGET_POS.C = TAUGHT_START.C
LIN TARGET_POS C_DIS
CONTINUE
OFFSET_POS = {X 35.812, Y -1.794, Z 6.000, A 0, B 0, C 0}
TARGET_POS = TAUGHT_START
TARGET_POS.X = TAUGHT_START.X + OFFSET_POS.X
TARGET_POS.Y = TAUGHT_START.Y + OFFSET_POS.Y
TARGET_POS.Z = TAUGHT_START.Z + OFFSET_POS.Z
TARGET_POS.A = TAUGHT_START.A
TARGET_POS.B = TAUGHT_START.B
TARGET_POS.C = TAUGHT_START.C
LIN TARGET_POS C_DIS
CONTINUE
OFFSET_POS = {X 34.320, Y -1.316, Z 6.000, A 0, B 0, C 0}
TARGET_POS = TAUGHT_START
TARGET_POS.X = TAUGHT_START.X + OFFSET_POS.X
TARGET_POS.Y = TAUGHT_START.Y + OFFSET_POS.Y
TARGET_POS.Z = TAUGHT_START.Z + OFFSET_POS.Z
TARGET_POS.A = TAUGHT_START.A
TARGET_POS.B = TAUGHT_START.B
TARGET_POS.C = TAUGHT_START.C
LIN TARGET_POS C_DIS
CONTINUE
OFFSET_POS = {X 32.828, Y 1.855, Z 6.000, A 0, B 0, C 0}
TARGET_POS = TAUGHT_START
TARGET_POS.X = TAUGHT_START.X + OFFSET_POS.X
TARGET_POS.Y = TAUGHT_START.Y + OFFSET_POS.Y
TARGET_POS.Z = TAUGHT_START.Z + OFFSET_POS.Z
TARGET_POS.A = TAUGHT_START.A
TARGET_POS.B = TAUGHT_START.B
TARGET_POS.C = TAUGHT_START.C
LIN TARGET_POS C_DIS
CONTINUE
OFFSET_POS = {X 31.336, Y 1.231, Z 6.000, A 0, B 0, C 0}
TARGET_POS = TAUGHT_START
TARGET_POS.X = TAUGHT_START.X + OFFSET_POS.X
TARGET_POS.Y = TAUGHT_START.Y + OFFSET_POS.Y
TARGET_POS.Z = TAUGHT_START.Z + OFFSET_POS.Z
TARGET_POS.A = TAUGHT_START.A
TARGET_POS.B = TAUGHT_START.B
TARGET_POS.C = TAUGHT_START.C
LIN TARGET_POS C_DIS
CONTINUE
OFFSET_POS = {X 29.844, Y -1.911, Z 6.000, A 0, B 0, C 0}
TARGET_POS = TAUGHT_START
TARGET_POS.X = TAUGHT_START.X + OFFSET_POS.X
TARGET_POS.Y = TAUGHT_START.Y + OFFSET_POS.Y
TARGET_POS.Z = TAUGHT_START.Z + OFFSET_POS.Z
TARGET_POS.A = TAUGHT_START.A
TARGET_POS.B = TAUGHT_START.B
TARGET_POS.C = TAUGHT_START.C
LIN TARGET_POS C_DIS
CONTINUE
OFFSET_POS = {X 28.352, Y -1.142, Z 6.000, A 0, B 0, C 0}
TARGET_POS = TAUGHT_START
TARGET_POS.X = TAUGHT_START.X + OFFSET_POS.X
TARGET_POS.Y = TAUGHT_START.Y + OFFSET_POS.Y
TARGET_POS.Z = TAUGHT_START.Z + OFFSET_POS.Z
TARGET_POS.A = TAUGHT_START.A
TARGET_POS.B = TAUGHT_START.B
TARGET_POS.C = TAUGHT_START.C
LIN TARGET_POS C_DIS
CONTINUE
OFFSET_POS = {X 26.859, Y 1.964, Z 6.000, A 0, B 0, C 0}
TARGET_POS = TAUGHT_START
TARGET_POS.X = TAUGHT_START.X + OFFSET_POS.X
TARGET_POS.Y = TAUGHT_START.Y + OFFSET_POS.Y
TARGET_POS.Z = TAUGHT_START.Z + OFFSET_POS.Z
TARGET_POS.A = TAUGHT_START.A
TARGET_POS.B = TAUGHT_START.B
TARGET_POS.C = TAUGHT_START.C
LIN TARGET_POS C_DIS
CONTINUE
OFFSET_POS = {X 25.367, Y 1.052, Z 6.000, A 0, B 0, C 0}
TARGET_POS = TAUGHT_START
TARGET_POS.X = TAUGHT_START.X + OFFSET_POS.X
TARGET_POS.Y = TAUGHT_START.Y + OFFSET_POS.Y
TARGET_POS.Z = TAUGHT_START.Z + OFFSET_POS.Z
TARGET_POS.A = TAUGHT_START.A
TARGET_POS.B = TAUGHT_START.B
TARGET_POS.C = TAUGHT_START.C
LIN TARGET_POS C_DIS
CONTINUE
OFFSET_POS = {X 23.875, Y -2.013, Z 6.000, A 0, B 0, C 0}
TARGET_POS = TAUGHT_START
TARGET_POS.X = TAUGHT_START.X + OFFSET_POS.X
TARGET_POS.Y = TAUGHT_START.Y + OFFSET_POS.Y
TARGET_POS.Z = TAUGHT_START.Z + OFFSET_POS.Z
TARGET_POS.A = TAUGHT_START.A
TARGET_POS.B = TAUGHT_START.B
TARGET_POS.C = TAUGHT_START.C
LIN TARGET_POS C_DIS
CONTINUE
OFFSET_POS = {X 22.383, Y -0.959, Z 6.000, A 0, B 0, C 0}
TARGET_POS = TAUGHT_START
TARGET_POS.X = TAUGHT_START.X + OFFSET_POS.X
TARGET_POS.Y = TAUGHT_START.Y + OFFSET_POS.Y
TARGET_POS.Z = TAUGHT_START.Z + OFFSET_POS.Z
TARGET_POS.A = TAUGHT_START.A
TARGET_POS.B = TAUGHT_START.B
TARGET_POS.C = TAUGHT_START.C
LIN TARGET_POS C_DIS
CONTINUE
OFFSET_POS = {X 20.891, Y 2.057, Z 6.000, A 0, B 0, C 0}
TARGET_POS = TAUGHT_START
TARGET_POS.X = TAUGHT_START.X + OFFSET_POS.X
TARGET_POS.Y = TAUGHT_START.Y + OFFSET_POS.Y
TARGET_POS.Z = TAUGHT_START.Z + OFFSET_POS.Z
TARGET_POS.A = TAUGHT_START.A
TARGET_POS.B = TAUGHT_START.B
TARGET_POS.C = TAUGHT_START.C
LIN TARGET_POS C_DIS
CONTINUE
OFFSET_POS = {X 19.398, Y 0.864, Z 6.000, A 0, B 0, C 0}
TARGET_POS = TAUGHT_START
TARGET_POS.X = TAUGHT_START.X + OFFSET_POS.X
TARGET_POS.Y = TAUGHT_START.Y + OFFSET_POS.Y
TARGET_POS.Z = TAUGHT_START.Z + OFFSET_POS.Z
TARGET_POS.A = TAUGHT_START.A
TARGET_POS.B = TAUGHT_START.B
TARGET_POS.C = TAUGHT_START.C
LIN TARGET_POS C_DIS
CONTINUE
OFFSET_POS = {X 17.906, Y -2.097, Z 6.000, A 0, B 0, C 0}
TARGET_POS = TAUGHT_START
TARGET_POS.X = TAUGHT_START.X + OFFSET_POS.X
TARGET_POS.Y = TAUGHT_START.Y + OFFSET_POS.Y
TARGET_POS.Z = TAUGHT_START.Z + OFFSET_POS.Z
TARGET_POS.A = TAUGHT_START.A
TARGET_POS.B = TAUGHT_START.B
TARGET_POS.C = TAUGHT_START.C
LIN TARGET_POS C_DIS
CONTINUE
OFFSET_POS = {X 16.414, Y -0.767, Z 6.000, A 0, B 0, C 0}
TARGET_POS = TAUGHT_START
TARGET_POS.X = TAUGHT_START.X + OFFSET_POS.X
TARGET_POS.Y = TAUGHT_START.Y + OFFSET_POS.Y
TARGET_POS.Z = TAUGHT_START.Z + OFFSET_POS.Z
TARGET_POS.A = TAUGHT_START.A
TARGET_POS.B = TAUGHT_START.B
TARGET_POS.C = TAUGHT_START.C
LIN TARGET_POS C_DIS
CONTINUE
OFFSET_POS = {X 14.922, Y 2.132, Z 6.000, A 0, B 0, C 0}
TARGET_POS = TAUGHT_START
TARGET_POS.X = TAUGHT_START.X + OFFSET_POS.X
TARGET_POS.Y = TAUGHT_START.Y + OFFSET_POS.Y
TARGET_POS.Z = TAUGHT_START.Z + OFFSET_POS.Z
TARGET_POS.A = TAUGHT_START.A
TARGET_POS.B = TAUGHT_START.B
TARGET_POS.C = TAUGHT_START.C
LIN TARGET_POS C_DIS
CONTINUE
OFFSET_POS = {X 13.430, Y 0.669, Z 6.000, A 0, B 0, C 0}
TARGET_POS = TAUGHT_START
TARGET_POS.X = TAUGHT_START.X + OFFSET_POS.X
TARGET_POS.Y = TAUGHT_START.Y + OFFSET_POS.Y
TARGET_POS.Z = TAUGHT_START.Z + OFFSET_POS.Z
TARGET_POS.A = TAUGHT_START.A
TARGET_POS.B = TAUGHT_START.B
TARGET_POS.C = TAUGHT_START.C
LIN TARGET_POS C_DIS
CONTINUE
OFFSET_POS = {X 11.938, Y -2.163, Z 6.000, A 0, B 0, C 0}
TARGET_POS = TAUGHT_START
TARGET_POS.X = TAUGHT_START.X + OFFSET_POS.X
TARGET_POS.Y = TAUGHT_START.Y + OFFSET_POS.Y
TARGET_POS.Z = TAUGHT_START.Z + OFFSET_POS.Z
TARGET_POS.A = TAUGHT_START.A
TARGET_POS.B = TAUGHT_START.B
TARGET_POS.C = TAUGHT_START.C
LIN TARGET_POS C_DIS
CONTINUE
OFFSET_POS = {X 10.445, Y -0.569, Z 6.000, A 0, B 0, C 0}
TARGET_POS = TAUGHT_START
TARGET_POS.X = TAUGHT_START.X + OFFSET_POS.X
TARGET_POS.Y = TAUGHT_START.Y + OFFSET_POS.Y
TARGET_POS.Z = TAUGHT_START.Z + OFFSET_POS.Z
TARGET_POS.A = TAUGHT_START.A
TARGET_POS.B = TAUGHT_START.B
TARGET_POS.C = TAUGHT_START.C
LIN TARGET_POS C_DIS
CONTINUE
OFFSET_POS = {X 8.953, Y 2.189, Z 6.000, A 0, B 0, C 0}
TARGET_POS = TAUGHT_START
TARGET_POS.X = TAUGHT_START.X + OFFSET_POS.X
TARGET_POS.Y = TAUGHT_START.Y + OFFSET_POS.Y
TARGET_POS.Z = TAUGHT_START.Z + OFFSET_POS.Z
TARGET_POS.A = TAUGHT_START.A
TARGET_POS.B = TAUGHT_START.B
TARGET_POS.C = TAUGHT_START.C
LIN TARGET_POS C_DIS
CONTINUE
OFFSET_POS = {X 7.461, Y 0.468, Z 6.000, A 0, B 0, C 0}
TARGET_POS = TAUGHT_START
TARGET_POS.X = TAUGHT_START.X + OFFSET_POS.X
TARGET_POS.Y = TAUGHT_START.Y + OFFSET_POS.Y
TARGET_POS.Z = TAUGHT_START.Z + OFFSET_POS.Z
TARGET_POS.A = TAUGHT_START.A
TARGET_POS.B = TAUGHT_START.B
TARGET_POS.C = TAUGHT_START.C
LIN TARGET_POS C_DIS
CONTINUE
OFFSET_POS = {X 5.969, Y -2.211, Z 6.000, A 0, B 0, C 0}
TARGET_POS = TAUGHT_START
TARGET_POS.X = TAUGHT_START.X + OFFSET_POS.X
TARGET_POS.Y = TAUGHT_START.Y + OFFSET_POS.Y
TARGET_POS.Z = TAUGHT_START.Z + OFFSET_POS.Z
TARGET_POS.A = TAUGHT_START.A
TARGET_POS.B = TAUGHT_START.B
TARGET_POS.C = TAUGHT_START.C
LIN TARGET_POS C_DIS
CONTINUE
OFFSET_POS = {X 4.477, Y -0.366, Z 6.000, A 0, B 0, C 0}
TARGET_POS = TAUGHT_START
TARGET_POS.X = TAUGHT_START.X + OFFSET_POS.X
TARGET_POS.Y = TAUGHT_START.Y + OFFSET_POS.Y
TARGET_POS.Z = TAUGHT_START.Z + OFFSET_POS.Z
TARGET_POS.A = TAUGHT_START.A
TARGET_POS.B = TAUGHT_START.B
TARGET_POS.C = TAUGHT_START.C
LIN TARGET_POS C_DIS
CONTINUE
OFFSET_POS = {X 2.984, Y 2.228, Z 6.000, A 0, B 0, C 0}
TARGET_POS = TAUGHT_START
TARGET_POS.X = TAUGHT_START.X + OFFSET_POS.X
TARGET_POS.Y = TAUGHT_START.Y + OFFSET_POS.Y
TARGET_POS.Z = TAUGHT_START.Z + OFFSET_POS.Z
TARGET_POS.A = TAUGHT_START.A
TARGET_POS.B = TAUGHT_START.B
TARGET_POS.C = TAUGHT_START.C
LIN TARGET_POS C_DIS
CONTINUE
OFFSET_POS = {X 1.492, Y 0.263, Z 6.000, A 0, B 0, C 0}
TARGET_POS = TAUGHT_START
TARGET_POS.X = TAUGHT_START.X + OFFSET_POS.X
TARGET_POS.Y = TAUGHT_START.Y + OFFSET_POS.Y
TARGET_POS.Z = TAUGHT_START.Z + OFFSET_POS.Z
TARGET_POS.A = TAUGHT_START.A
TARGET_POS.B = TAUGHT_START.B
TARGET_POS.C = TAUGHT_START.C
LIN TARGET_POS C_DIS
CONTINUE
OFFSET_POS = {X 0.000, Y -2.240, Z 6.000, A 0, B 0, C 0}
TARGET_POS = TAUGHT_START
TARGET_POS.X = TAUGHT_START.X + OFFSET_POS.X
TARGET_POS.Y = TAUGHT_START.Y + OFFSET_POS.Y
TARGET_POS.Z = TAUGHT_START.Z + OFFSET_POS.Z
TARGET_POS.A = TAUGHT_START.A
TARGET_POS.B = TAUGHT_START.B
TARGET_POS.C = TAUGHT_START.C
LIN TARGET_POS C_DIS
$OUT[1] = FALSE
WAIT SEC 0.200
; Lift Z by 10.0mm to avoid scratching welded bead
LIN_REL {Z 10.0}
; Stabilization delay - ensures travel motion completes before Z lowers
WAIT SEC 5.0
;Waiting for TEMP_VAR to go high indicating temperature reached before next layer
WAIT SEC 30
WAIT FOR TEMP_VAR
WAIT SEC 30
; Lower Z back to weld height
LIN_REL {Z -10.0}
; ;LAYER_CHANGE
; Reset TEMP_VAR at the start of this layer
TEMP_VAR = FALSE
; Layer index: 7
OFFSET_POS = {X 0.000, Y 0.000, Z 8.000, A 0, B 0, C 0}
TARGET_POS = TAUGHT_START
TARGET_POS.X = TAUGHT_START.X + OFFSET_POS.X
TARGET_POS.Y = TAUGHT_START.Y + OFFSET_POS.Y
TARGET_POS.Z = TAUGHT_START.Z + OFFSET_POS.Z
TARGET_POS.A = TAUGHT_START.A
TARGET_POS.B = TAUGHT_START.B
TARGET_POS.C = TAUGHT_START.C
LIN TARGET_POS C_DIS
$OUT[1] = TRUE
WAIT SEC 0.200
OFFSET_POS = {X 1.492, Y 2.249, Z 8.000, A 0, B 0, C 0}
TARGET_POS = TAUGHT_START
TARGET_POS.X = TAUGHT_START.X + OFFSET_POS.X
TARGET_POS.Y = TAUGHT_START.Y + OFFSET_POS.Y
TARGET_POS.Z = TAUGHT_START.Z + OFFSET_POS.Z
TARGET_POS.A = TAUGHT_START.A
TARGET_POS.B = TAUGHT_START.B
TARGET_POS.C = TAUGHT_START.C
LIN TARGET_POS C_DIS
CONTINUE
OFFSET_POS = {X 2.984, Y -0.104, Z 8.000, A 0, B 0, C 0}
TARGET_POS = TAUGHT_START
TARGET_POS.X = TAUGHT_START.X + OFFSET_POS.X
TARGET_POS.Y = TAUGHT_START.Y + OFFSET_POS.Y
TARGET_POS.Z = TAUGHT_START.Z + OFFSET_POS.Z
TARGET_POS.A = TAUGHT_START.A
TARGET_POS.B = TAUGHT_START.B
TARGET_POS.C = TAUGHT_START.C
LIN TARGET_POS C_DIS
CONTINUE
OFFSET_POS = {X 4.477, Y -2.245, Z 8.000, A 0, B 0, C 0}
TARGET_POS = TAUGHT_START
TARGET_POS.X = TAUGHT_START.X + OFFSET_POS.X
TARGET_POS.Y = TAUGHT_START.Y + OFFSET_POS.Y
TARGET_POS.Z = TAUGHT_START.Z + OFFSET_POS.Z
TARGET_POS.A = TAUGHT_START.A
TARGET_POS.B = TAUGHT_START.B
TARGET_POS.C = TAUGHT_START.C
LIN TARGET_POS C_DIS
CONTINUE
OFFSET_POS = {X 5.969, Y 0.207, Z 8.000, A 0, B 0, C 0}
TARGET_POS = TAUGHT_START
TARGET_POS.X = TAUGHT_START.X + OFFSET_POS.X
TARGET_POS.Y = TAUGHT_START.Y + OFFSET_POS.Y
TARGET_POS.Z = TAUGHT_START.Z + OFFSET_POS.Z
TARGET_POS.A = TAUGHT_START.A
TARGET_POS.B = TAUGHT_START.B
TARGET_POS.C = TAUGHT_START.C
LIN TARGET_POS C_DIS
CONTINUE
OFFSET_POS = {X 7.461, Y 2.235, Z 8.000, A 0, B 0, C 0}
TARGET_POS = TAUGHT_START
TARGET_POS.X = TAUGHT_START.X + OFFSET_POS.X
TARGET_POS.Y = TAUGHT_START.Y + OFFSET_POS.Y
TARGET_POS.Z = TAUGHT_START.Z + OFFSET_POS.Z
TARGET_POS.A = TAUGHT_START.A
TARGET_POS.B = TAUGHT_START.B
TARGET_POS.C = TAUGHT_START.C
LIN TARGET_POS C_DIS
CONTINUE
OFFSET_POS = {X 8.953, Y -0.310, Z 8.000, A 0, B 0, C 0}
TARGET_POS = TAUGHT_START
TARGET_POS.X = TAUGHT_START.X + OFFSET_POS.X
TARGET_POS.Y = TAUGHT_START.Y + OFFSET_POS.Y
TARGET_POS.Z = TAUGHT_START.Z + OFFSET_POS.Z
TARGET_POS.A = TAUGHT_START.A
TARGET_POS.B = TAUGHT_START.B
TARGET_POS.C = TAUGHT_START.C
LIN TARGET_POS C_DIS
CONTINUE
OFFSET_POS = {X 10.445, Y -2.221, Z 8.000, A 0, B 0, C 0}
TARGET_POS = TAUGHT_START
TARGET_POS.X = TAUGHT_START.X + OFFSET_POS.X
TARGET_POS.Y = TAUGHT_START.Y + OFFSET_POS.Y
TARGET_POS.Z = TAUGHT_START.Z + OFFSET_POS.Z
TARGET_POS.A = TAUGHT_START.A
TARGET_POS.B = TAUGHT_START.B
TARGET_POS.C = TAUGHT_START.C
LIN TARGET_POS C_DIS
CONTINUE
OFFSET_POS = {X 11.938, Y 0.413, Z 8.000, A 0, B 0, C 0}
TARGET_POS = TAUGHT_START
TARGET_POS.X = TAUGHT_START.X + OFFSET_POS.X
TARGET_POS.Y = TAUGHT_START.Y + OFFSET_POS.Y
TARGET_POS.Z = TAUGHT_START.Z + OFFSET_POS.Z
TARGET_POS.A = TAUGHT_START.A
TARGET_POS.B = TAUGHT_START.B
TARGET_POS.C = TAUGHT_START.C
LIN TARGET_POS C_DIS
CONTINUE
OFFSET_POS = {X 13.430, Y 2.202, Z 8.000, A 0, B 0, C 0}
TARGET_POS = TAUGHT_START
TARGET_POS.X = TAUGHT_START.X + OFFSET_POS.X
TARGET_POS.Y = TAUGHT_START.Y + OFFSET_POS.Y
TARGET_POS.Z = TAUGHT_START.Z + OFFSET_POS.Z
TARGET_POS.A = TAUGHT_START.A
TARGET_POS.B = TAUGHT_START.B
TARGET_POS.C = TAUGHT_START.C
LIN TARGET_POS C_DIS
CONTINUE
OFFSET_POS = {X 14.922, Y -0.515, Z 8.000, A 0, B 0, C 0}
TARGET_POS = TAUGHT_START
TARGET_POS.X = TAUGHT_START.X + OFFSET_POS.X
TARGET_POS.Y = TAUGHT_START.Y + OFFSET_POS.Y
TARGET_POS.Z = TAUGHT_START.Z + OFFSET_POS.Z
TARGET_POS.A = TAUGHT_START.A
TARGET_POS.B = TAUGHT_START.B
TARGET_POS.C = TAUGHT_START.C
LIN TARGET_POS C_DIS
CONTINUE
OFFSET_POS = {X 16.414, Y -2.178, Z 8.000, A 0, B 0, C 0}
TARGET_POS = TAUGHT_START
TARGET_POS.X = TAUGHT_START.X + OFFSET_POS.X
TARGET_POS.Y = TAUGHT_START.Y + OFFSET_POS.Y
TARGET_POS.Z = TAUGHT_START.Z + OFFSET_POS.Z
TARGET_POS.A = TAUGHT_START.A
TARGET_POS.B = TAUGHT_START.B
TARGET_POS.C = TAUGHT_START.C
LIN TARGET_POS C_DIS
CONTINUE
OFFSET_POS = {X 17.906, Y 0.615, Z 8.000, A 0, B 0, C 0}
TARGET_POS = TAUGHT_START
TARGET_POS.X = TAUGHT_START.X + OFFSET_POS.X
TARGET_POS.Y = TAUGHT_START.Y + OFFSET_POS.Y
TARGET_POS.Z = TAUGHT_START.Z + OFFSET_POS.Z
TARGET_POS.A = TAUGHT_START.A
TARGET_POS.B = TAUGHT_START.B
TARGET_POS.C = TAUGHT_START.C
LIN TARGET_POS C_DIS
CONTINUE
OFFSET_POS = {X 19.398, Y 2.150, Z 8.000, A 0, B 0, C 0}
TARGET_POS = TAUGHT_START
TARGET_POS.X = TAUGHT_START.X + OFFSET_POS.X
TARGET_POS.Y = TAUGHT_START.Y + OFFSET_POS.Y
TARGET_POS.Z = TAUGHT_START.Z + OFFSET_POS.Z
TARGET_POS.A = TAUGHT_START.A
TARGET_POS.B = TAUGHT_START.B
TARGET_POS.C = TAUGHT_START.C
LIN TARGET_POS C_DIS
CONTINUE
OFFSET_POS = {X 20.891, Y -0.714, Z 8.000, A 0, B 0, C 0}
TARGET_POS = TAUGHT_START
TARGET_POS.X = TAUGHT_START.X + OFFSET_POS.X
TARGET_POS.Y = TAUGHT_START.Y + OFFSET_POS.Y
TARGET_POS.Z = TAUGHT_START.Z + OFFSET_POS.Z
TARGET_POS.A = TAUGHT_START.A
TARGET_POS.B = TAUGHT_START.B
TARGET_POS.C = TAUGHT_START.C
LIN TARGET_POS C_DIS
CONTINUE
OFFSET_POS = {X 22.383, Y -2.117, Z 8.000, A 0, B 0, C 0}
TARGET_POS = TAUGHT_START
TARGET_POS.X = TAUGHT_START.X + OFFSET_POS.X
TARGET_POS.Y = TAUGHT_START.Y + OFFSET_POS.Y
TARGET_POS.Z = TAUGHT_START.Z + OFFSET_POS.Z
TARGET_POS.A = TAUGHT_START.A
TARGET_POS.B = TAUGHT_START.B
TARGET_POS.C = TAUGHT_START.C
LIN TARGET_POS C_DIS
CONTINUE
OFFSET_POS = {X 23.875, Y 0.812, Z 8.000, A 0, B 0, C 0}
TARGET_POS = TAUGHT_START
TARGET_POS.X = TAUGHT_START.X + OFFSET_POS.X
TARGET_POS.Y = TAUGHT_START.Y + OFFSET_POS.Y
TARGET_POS.Z = TAUGHT_START.Z + OFFSET_POS.Z
TARGET_POS.A = TAUGHT_START.A
TARGET_POS.B = TAUGHT_START.B
TARGET_POS.C = TAUGHT_START.C
LIN TARGET_POS C_DIS
CONTINUE
OFFSET_POS = {X 25.367, Y 2.079, Z 8.000, A 0, B 0, C 0}
TARGET_POS = TAUGHT_START
TARGET_POS.X = TAUGHT_START.X + OFFSET_POS.X
TARGET_POS.Y = TAUGHT_START.Y + OFFSET_POS.Y
TARGET_POS.Z = TAUGHT_START.Z + OFFSET_POS.Z
TARGET_POS.A = TAUGHT_START.A
TARGET_POS.B = TAUGHT_START.B
TARGET_POS.C = TAUGHT_START.C
LIN TARGET_POS C_DIS
CONTINUE
OFFSET_POS = {X 26.859, Y -0.908, Z 8.000, A 0, B 0, C 0}
TARGET_POS = TAUGHT_START
TARGET_POS.X = TAUGHT_START.X + OFFSET_POS.X
TARGET_POS.Y = TAUGHT_START.Y + OFFSET_POS.Y
TARGET_POS.Z = TAUGHT_START.Z + OFFSET_POS.Z
TARGET_POS.A = TAUGHT_START.A
TARGET_POS.B = TAUGHT_START.B
TARGET_POS.C = TAUGHT_START.C
LIN TARGET_POS C_DIS
CONTINUE
OFFSET_POS = {X 28.352, Y -2.037, Z 8.000, A 0, B 0, C 0}
TARGET_POS = TAUGHT_START
TARGET_POS.X = TAUGHT_START.X + OFFSET_POS.X
TARGET_POS.Y = TAUGHT_START.Y + OFFSET_POS.Y
TARGET_POS.Z = TAUGHT_START.Z + OFFSET_POS.Z
TARGET_POS.A = TAUGHT_START.A
TARGET_POS.B = TAUGHT_START.B
TARGET_POS.C = TAUGHT_START.C
LIN TARGET_POS C_DIS
CONTINUE
OFFSET_POS = {X 29.844, Y 1.002, Z 8.000, A 0, B 0, C 0}
TARGET_POS = TAUGHT_START
TARGET_POS.X = TAUGHT_START.X + OFFSET_POS.X
TARGET_POS.Y = TAUGHT_START.Y + OFFSET_POS.Y
TARGET_POS.Z = TAUGHT_START.Z + OFFSET_POS.Z
TARGET_POS.A = TAUGHT_START.A
TARGET_POS.B = TAUGHT_START.B
TARGET_POS.C = TAUGHT_START.C
LIN TARGET_POS C_DIS
CONTINUE
OFFSET_POS = {X 31.336, Y 1.991, Z 8.000, A 0, B 0, C 0}
TARGET_POS = TAUGHT_START
TARGET_POS.X = TAUGHT_START.X + OFFSET_POS.X
TARGET_POS.Y = TAUGHT_START.Y + OFFSET_POS.Y
TARGET_POS.Z = TAUGHT_START.Z + OFFSET_POS.Z
TARGET_POS.A = TAUGHT_START.A
TARGET_POS.B = TAUGHT_START.B
TARGET_POS.C = TAUGHT_START.C
LIN TARGET_POS C_DIS
CONTINUE
OFFSET_POS = {X 32.828, Y -1.094, Z 8.000, A 0, B 0, C 0}
TARGET_POS = TAUGHT_START
TARGET_POS.X = TAUGHT_START.X + OFFSET_POS.X
TARGET_POS.Y = TAUGHT_START.Y + OFFSET_POS.Y
TARGET_POS.Z = TAUGHT_START.Z + OFFSET_POS.Z
TARGET_POS.A = TAUGHT_START.A
TARGET_POS.B = TAUGHT_START.B
TARGET_POS.C = TAUGHT_START.C
LIN TARGET_POS C_DIS
CONTINUE
OFFSET_POS = {X 34.320, Y -1.941, Z 8.000, A 0, B 0, C 0}
TARGET_POS = TAUGHT_START
TARGET_POS.X = TAUGHT_START.X + OFFSET_POS.X
TARGET_POS.Y = TAUGHT_START.Y + OFFSET_POS.Y
TARGET_POS.Z = TAUGHT_START.Z + OFFSET_POS.Z
TARGET_POS.A = TAUGHT_START.A
TARGET_POS.B = TAUGHT_START.B
TARGET_POS.C = TAUGHT_START.C
LIN TARGET_POS C_DIS
CONTINUE
OFFSET_POS = {X 35.812, Y 1.183, Z 8.000, A 0, B 0, C 0}
TARGET_POS = TAUGHT_START
TARGET_POS.X = TAUGHT_START.X + OFFSET_POS.X
TARGET_POS.Y = TAUGHT_START.Y + OFFSET_POS.Y
TARGET_POS.Z = TAUGHT_START.Z + OFFSET_POS.Z
TARGET_POS.A = TAUGHT_START.A
TARGET_POS.B = TAUGHT_START.B
TARGET_POS.C = TAUGHT_START.C
LIN TARGET_POS C_DIS
CONTINUE
OFFSET_POS = {X 37.305, Y 1.886, Z 8.000, A 0, B 0, C 0}
TARGET_POS = TAUGHT_START
TARGET_POS.X = TAUGHT_START.X + OFFSET_POS.X
TARGET_POS.Y = TAUGHT_START.Y + OFFSET_POS.Y
TARGET_POS.Z = TAUGHT_START.Z + OFFSET_POS.Z
TARGET_POS.A = TAUGHT_START.A
TARGET_POS.B = TAUGHT_START.B
TARGET_POS.C = TAUGHT_START.C
LIN TARGET_POS C_DIS
CONTINUE
OFFSET_POS = {X 38.797, Y -1.270, Z 8.000, A 0, B 0, C 0}
TARGET_POS = TAUGHT_START
TARGET_POS.X = TAUGHT_START.X + OFFSET_POS.X
TARGET_POS.Y = TAUGHT_START.Y + OFFSET_POS.Y
TARGET_POS.Z = TAUGHT_START.Z + OFFSET_POS.Z
TARGET_POS.A = TAUGHT_START.A
TARGET_POS.B = TAUGHT_START.B
TARGET_POS.C = TAUGHT_START.C
LIN TARGET_POS C_DIS
CONTINUE
OFFSET_POS = {X 40.289, Y -1.827, Z 8.000, A 0, B 0, C 0}
TARGET_POS = TAUGHT_START
TARGET_POS.X = TAUGHT_START.X + OFFSET_POS.X
TARGET_POS.Y = TAUGHT_START.Y + OFFSET_POS.Y
TARGET_POS.Z = TAUGHT_START.Z + OFFSET_POS.Z
TARGET_POS.A = TAUGHT_START.A
TARGET_POS.B = TAUGHT_START.B
TARGET_POS.C = TAUGHT_START.C
LIN TARGET_POS C_DIS
CONTINUE
OFFSET_POS = {X 41.781, Y 1.354, Z 8.000, A 0, B 0, C 0}
TARGET_POS = TAUGHT_START
TARGET_POS.X = TAUGHT_START.X + OFFSET_POS.X
TARGET_POS.Y = TAUGHT_START.Y + OFFSET_POS.Y
TARGET_POS.Z = TAUGHT_START.Z + OFFSET_POS.Z
TARGET_POS.A = TAUGHT_START.A
TARGET_POS.B = TAUGHT_START.B
TARGET_POS.C = TAUGHT_START.C
LIN TARGET_POS C_DIS
CONTINUE
OFFSET_POS = {X 43.273, Y 1.765, Z 8.000, A 0, B 0, C 0}
TARGET_POS = TAUGHT_START
TARGET_POS.X = TAUGHT_START.X + OFFSET_POS.X
TARGET_POS.Y = TAUGHT_START.Y + OFFSET_POS.Y
TARGET_POS.Z = TAUGHT_START.Z + OFFSET_POS.Z
TARGET_POS.A = TAUGHT_START.A
TARGET_POS.B = TAUGHT_START.B
TARGET_POS.C = TAUGHT_START.C
LIN TARGET_POS C_DIS
CONTINUE
OFFSET_POS = {X 44.766, Y -1.436, Z 8.000, A 0, B 0, C 0}
TARGET_POS = TAUGHT_START
TARGET_POS.X = TAUGHT_START.X + OFFSET_POS.X
TARGET_POS.Y = TAUGHT_START.Y + OFFSET_POS.Y
TARGET_POS.Z = TAUGHT_START.Z + OFFSET_POS.Z
TARGET_POS.A = TAUGHT_START.A
TARGET_POS.B = TAUGHT_START.B
TARGET_POS.C = TAUGHT_START.C
LIN TARGET_POS C_DIS
CONTINUE
OFFSET_POS = {X 46.258, Y -1.699, Z 8.000, A 0, B 0, C 0}
TARGET_POS = TAUGHT_START
TARGET_POS.X = TAUGHT_START.X + OFFSET_POS.X
TARGET_POS.Y = TAUGHT_START.Y + OFFSET_POS.Y
TARGET_POS.Z = TAUGHT_START.Z + OFFSET_POS.Z
TARGET_POS.A = TAUGHT_START.A
TARGET_POS.B = TAUGHT_START.B
TARGET_POS.C = TAUGHT_START.C
LIN TARGET_POS C_DIS
CONTINUE
OFFSET_POS = {X 47.750, Y 1.514, Z 8.000, A 0, B 0, C 0}
TARGET_POS = TAUGHT_START
TARGET_POS.X = TAUGHT_START.X + OFFSET_POS.X
TARGET_POS.Y = TAUGHT_START.Y + OFFSET_POS.Y
TARGET_POS.Z = TAUGHT_START.Z + OFFSET_POS.Z
TARGET_POS.A = TAUGHT_START.A
TARGET_POS.B = TAUGHT_START.B
TARGET_POS.C = TAUGHT_START.C
LIN TARGET_POS C_DIS
CONTINUE
OFFSET_POS = {X 49.242, Y 1.629, Z 8.000, A 0, B 0, C 0}
TARGET_POS = TAUGHT_START
TARGET_POS.X = TAUGHT_START.X + OFFSET_POS.X
TARGET_POS.Y = TAUGHT_START.Y + OFFSET_POS.Y
TARGET_POS.Z = TAUGHT_START.Z + OFFSET_POS.Z
TARGET_POS.A = TAUGHT_START.A
TARGET_POS.B = TAUGHT_START.B
TARGET_POS.C = TAUGHT_START.C
LIN TARGET_POS C_DIS
CONTINUE
OFFSET_POS = {X 50.734, Y -1.589, Z 8.000, A 0, B 0, C 0}
TARGET_POS = TAUGHT_START
TARGET_POS.X = TAUGHT_START.X + OFFSET_POS.X
TARGET_POS.Y = TAUGHT_START.Y + OFFSET_POS.Y
TARGET_POS.Z = TAUGHT_START.Z + OFFSET_POS.Z
TARGET_POS.A = TAUGHT_START.A
TARGET_POS.B = TAUGHT_START.B
TARGET_POS.C = TAUGHT_START.C
LIN TARGET_POS C_DIS
CONTINUE
OFFSET_POS = {X 52.227, Y -1.555, Z 8.000, A 0, B 0, C 0}
TARGET_POS = TAUGHT_START
TARGET_POS.X = TAUGHT_START.X + OFFSET_POS.X
TARGET_POS.Y = TAUGHT_START.Y + OFFSET_POS.Y
TARGET_POS.Z = TAUGHT_START.Z + OFFSET_POS.Z
TARGET_POS.A = TAUGHT_START.A
TARGET_POS.B = TAUGHT_START.B
TARGET_POS.C = TAUGHT_START.C
LIN TARGET_POS C_DIS
CONTINUE
OFFSET_POS = {X 53.719, Y 1.661, Z 8.000, A 0, B 0, C 0}
TARGET_POS = TAUGHT_START
TARGET_POS.X = TAUGHT_START.X + OFFSET_POS.X
TARGET_POS.Y = TAUGHT_START.Y + OFFSET_POS.Y
TARGET_POS.Z = TAUGHT_START.Z + OFFSET_POS.Z
TARGET_POS.A = TAUGHT_START.A
TARGET_POS.B = TAUGHT_START.B
TARGET_POS.C = TAUGHT_START.C
LIN TARGET_POS C_DIS
CONTINUE
OFFSET_POS = {X 55.211, Y 1.479, Z 8.000, A 0, B 0, C 0}
TARGET_POS = TAUGHT_START
TARGET_POS.X = TAUGHT_START.X + OFFSET_POS.X
TARGET_POS.Y = TAUGHT_START.Y + OFFSET_POS.Y
TARGET_POS.Z = TAUGHT_START.Z + OFFSET_POS.Z
TARGET_POS.A = TAUGHT_START.A
TARGET_POS.B = TAUGHT_START.B
TARGET_POS.C = TAUGHT_START.C
LIN TARGET_POS C_DIS
CONTINUE
OFFSET_POS = {X 56.703, Y -1.729, Z 8.000, A 0, B 0, C 0}
TARGET_POS = TAUGHT_START
TARGET_POS.X = TAUGHT_START.X + OFFSET_POS.X
TARGET_POS.Y = TAUGHT_START.Y + OFFSET_POS.Y
TARGET_POS.Z = TAUGHT_START.Z + OFFSET_POS.Z
TARGET_POS.A = TAUGHT_START.A
TARGET_POS.B = TAUGHT_START.B
TARGET_POS.C = TAUGHT_START.C
LIN TARGET_POS C_DIS
CONTINUE
OFFSET_POS = {X 58.195, Y -1.399, Z 8.000, A 0, B 0, C 0}
TARGET_POS = TAUGHT_START
TARGET_POS.X = TAUGHT_START.X + OFFSET_POS.X
TARGET_POS.Y = TAUGHT_START.Y + OFFSET_POS.Y
TARGET_POS.Z = TAUGHT_START.Z + OFFSET_POS.Z
TARGET_POS.A = TAUGHT_START.A
TARGET_POS.B = TAUGHT_START.B
TARGET_POS.C = TAUGHT_START.C
LIN TARGET_POS C_DIS
CONTINUE
OFFSET_POS = {X 59.688, Y 1.794, Z 8.000, A 0, B 0, C 0}
TARGET_POS = TAUGHT_START
TARGET_POS.X = TAUGHT_START.X + OFFSET_POS.X
TARGET_POS.Y = TAUGHT_START.Y + OFFSET_POS.Y
TARGET_POS.Z = TAUGHT_START.Z + OFFSET_POS.Z
TARGET_POS.A = TAUGHT_START.A
TARGET_POS.B = TAUGHT_START.B
TARGET_POS.C = TAUGHT_START.C
LIN TARGET_POS C_DIS
CONTINUE
OFFSET_POS = {X 61.180, Y 1.316, Z 8.000, A 0, B 0, C 0}
TARGET_POS = TAUGHT_START
TARGET_POS.X = TAUGHT_START.X + OFFSET_POS.X
TARGET_POS.Y = TAUGHT_START.Y + OFFSET_POS.Y
TARGET_POS.Z = TAUGHT_START.Z + OFFSET_POS.Z
TARGET_POS.A = TAUGHT_START.A
TARGET_POS.B = TAUGHT_START.B
TARGET_POS.C = TAUGHT_START.C
LIN TARGET_POS C_DIS
CONTINUE
OFFSET_POS = {X 62.672, Y -1.855, Z 8.000, A 0, B 0, C 0}
TARGET_POS = TAUGHT_START
TARGET_POS.X = TAUGHT_START.X + OFFSET_POS.X
TARGET_POS.Y = TAUGHT_START.Y + OFFSET_POS.Y
TARGET_POS.Z = TAUGHT_START.Z + OFFSET_POS.Z
TARGET_POS.A = TAUGHT_START.A
TARGET_POS.B = TAUGHT_START.B
TARGET_POS.C = TAUGHT_START.C
LIN TARGET_POS C_DIS
CONTINUE
OFFSET_POS = {X 64.164, Y -1.231, Z 8.000, A 0, B 0, C 0}
TARGET_POS = TAUGHT_START
TARGET_POS.X = TAUGHT_START.X + OFFSET_POS.X
TARGET_POS.Y = TAUGHT_START.Y + OFFSET_POS.Y
TARGET_POS.Z = TAUGHT_START.Z + OFFSET_POS.Z
TARGET_POS.A = TAUGHT_START.A
TARGET_POS.B = TAUGHT_START.B
TARGET_POS.C = TAUGHT_START.C
LIN TARGET_POS C_DIS
CONTINUE
OFFSET_POS = {X 65.656, Y 1.911, Z 8.000, A 0, B 0, C 0}
TARGET_POS = TAUGHT_START
TARGET_POS.X = TAUGHT_START.X + OFFSET_POS.X
TARGET_POS.Y = TAUGHT_START.Y + OFFSET_POS.Y
TARGET_POS.Z = TAUGHT_START.Z + OFFSET_POS.Z
TARGET_POS.A = TAUGHT_START.A
TARGET_POS.B = TAUGHT_START.B
TARGET_POS.C = TAUGHT_START.C
LIN TARGET_POS C_DIS
CONTINUE
OFFSET_POS = {X 67.148, Y 1.142, Z 8.000, A 0, B 0, C 0}
TARGET_POS = TAUGHT_START
TARGET_POS.X = TAUGHT_START.X + OFFSET_POS.X
TARGET_POS.Y = TAUGHT_START.Y + OFFSET_POS.Y
TARGET_POS.Z = TAUGHT_START.Z + OFFSET_POS.Z
TARGET_POS.A = TAUGHT_START.A
TARGET_POS.B = TAUGHT_START.B
TARGET_POS.C = TAUGHT_START.C
LIN TARGET_POS C_DIS
CONTINUE
OFFSET_POS = {X 68.641, Y -1.964, Z 8.000, A 0, B 0, C 0}
TARGET_POS = TAUGHT_START
TARGET_POS.X = TAUGHT_START.X + OFFSET_POS.X
TARGET_POS.Y = TAUGHT_START.Y + OFFSET_POS.Y
TARGET_POS.Z = TAUGHT_START.Z + OFFSET_POS.Z
TARGET_POS.A = TAUGHT_START.A
TARGET_POS.B = TAUGHT_START.B
TARGET_POS.C = TAUGHT_START.C
LIN TARGET_POS C_DIS
CONTINUE
OFFSET_POS = {X 70.133, Y -1.052, Z 8.000, A 0, B 0, C 0}
TARGET_POS = TAUGHT_START
TARGET_POS.X = TAUGHT_START.X + OFFSET_POS.X
TARGET_POS.Y = TAUGHT_START.Y + OFFSET_POS.Y
TARGET_POS.Z = TAUGHT_START.Z + OFFSET_POS.Z
TARGET_POS.A = TAUGHT_START.A
TARGET_POS.B = TAUGHT_START.B
TARGET_POS.C = TAUGHT_START.C
LIN TARGET_POS C_DIS
CONTINUE
OFFSET_POS = {X 71.625, Y 2.013, Z 8.000, A 0, B 0, C 0}
TARGET_POS = TAUGHT_START
TARGET_POS.X = TAUGHT_START.X + OFFSET_POS.X
TARGET_POS.Y = TAUGHT_START.Y + OFFSET_POS.Y
TARGET_POS.Z = TAUGHT_START.Z + OFFSET_POS.Z
TARGET_POS.A = TAUGHT_START.A
TARGET_POS.B = TAUGHT_START.B
TARGET_POS.C = TAUGHT_START.C
LIN TARGET_POS C_DIS
CONTINUE
OFFSET_POS = {X 73.117, Y 0.959, Z 8.000, A 0, B 0, C 0}
TARGET_POS = TAUGHT_START
TARGET_POS.X = TAUGHT_START.X + OFFSET_POS.X
TARGET_POS.Y = TAUGHT_START.Y + OFFSET_POS.Y
TARGET_POS.Z = TAUGHT_START.Z + OFFSET_POS.Z
TARGET_POS.A = TAUGHT_START.A
TARGET_POS.B = TAUGHT_START.B
TARGET_POS.C = TAUGHT_START.C
LIN TARGET_POS C_DIS
CONTINUE
OFFSET_POS = {X 74.609, Y -2.057, Z 8.000, A 0, B 0, C 0}
TARGET_POS = TAUGHT_START
TARGET_POS.X = TAUGHT_START.X + OFFSET_POS.X
TARGET_POS.Y = TAUGHT_START.Y + OFFSET_POS.Y
TARGET_POS.Z = TAUGHT_START.Z + OFFSET_POS.Z
TARGET_POS.A = TAUGHT_START.A
TARGET_POS.B = TAUGHT_START.B
TARGET_POS.C = TAUGHT_START.C
LIN TARGET_POS C_DIS
CONTINUE
OFFSET_POS = {X 76.102, Y -0.864, Z 8.000, A 0, B 0, C 0}
TARGET_POS = TAUGHT_START
TARGET_POS.X = TAUGHT_START.X + OFFSET_POS.X
TARGET_POS.Y = TAUGHT_START.Y + OFFSET_POS.Y
TARGET_POS.Z = TAUGHT_START.Z + OFFSET_POS.Z
TARGET_POS.A = TAUGHT_START.A
TARGET_POS.B = TAUGHT_START.B
TARGET_POS.C = TAUGHT_START.C
LIN TARGET_POS C_DIS
CONTINUE
OFFSET_POS = {X 77.594, Y 2.097, Z 8.000, A 0, B 0, C 0}
TARGET_POS = TAUGHT_START
TARGET_POS.X = TAUGHT_START.X + OFFSET_POS.X
TARGET_POS.Y = TAUGHT_START.Y + OFFSET_POS.Y
TARGET_POS.Z = TAUGHT_START.Z + OFFSET_POS.Z
TARGET_POS.A = TAUGHT_START.A
TARGET_POS.B = TAUGHT_START.B
TARGET_POS.C = TAUGHT_START.C
LIN TARGET_POS C_DIS
CONTINUE
OFFSET_POS = {X 79.086, Y 0.767, Z 8.000, A 0, B 0, C 0}
TARGET_POS = TAUGHT_START
TARGET_POS.X = TAUGHT_START.X + OFFSET_POS.X
TARGET_POS.Y = TAUGHT_START.Y + OFFSET_POS.Y
TARGET_POS.Z = TAUGHT_START.Z + OFFSET_POS.Z
TARGET_POS.A = TAUGHT_START.A
TARGET_POS.B = TAUGHT_START.B
TARGET_POS.C = TAUGHT_START.C
LIN TARGET_POS C_DIS
CONTINUE
OFFSET_POS = {X 80.578, Y -2.132, Z 8.000, A 0, B 0, C 0}
TARGET_POS = TAUGHT_START
TARGET_POS.X = TAUGHT_START.X + OFFSET_POS.X
TARGET_POS.Y = TAUGHT_START.Y + OFFSET_POS.Y
TARGET_POS.Z = TAUGHT_START.Z + OFFSET_POS.Z
TARGET_POS.A = TAUGHT_START.A
TARGET_POS.B = TAUGHT_START.B
TARGET_POS.C = TAUGHT_START.C
LIN TARGET_POS C_DIS
CONTINUE
OFFSET_POS = {X 82.070, Y -0.669, Z 8.000, A 0, B 0, C 0}
TARGET_POS = TAUGHT_START
TARGET_POS.X = TAUGHT_START.X + OFFSET_POS.X
TARGET_POS.Y = TAUGHT_START.Y + OFFSET_POS.Y
TARGET_POS.Z = TAUGHT_START.Z + OFFSET_POS.Z
TARGET_POS.A = TAUGHT_START.A
TARGET_POS.B = TAUGHT_START.B
TARGET_POS.C = TAUGHT_START.C
LIN TARGET_POS C_DIS
CONTINUE
OFFSET_POS = {X 83.562, Y 2.163, Z 8.000, A 0, B 0, C 0}
TARGET_POS = TAUGHT_START
TARGET_POS.X = TAUGHT_START.X + OFFSET_POS.X
TARGET_POS.Y = TAUGHT_START.Y + OFFSET_POS.Y
TARGET_POS.Z = TAUGHT_START.Z + OFFSET_POS.Z
TARGET_POS.A = TAUGHT_START.A
TARGET_POS.B = TAUGHT_START.B
TARGET_POS.C = TAUGHT_START.C
LIN TARGET_POS C_DIS
CONTINUE
OFFSET_POS = {X 85.055, Y 0.569, Z 8.000, A 0, B 0, C 0}
TARGET_POS = TAUGHT_START
TARGET_POS.X = TAUGHT_START.X + OFFSET_POS.X
TARGET_POS.Y = TAUGHT_START.Y + OFFSET_POS.Y
TARGET_POS.Z = TAUGHT_START.Z + OFFSET_POS.Z
TARGET_POS.A = TAUGHT_START.A
TARGET_POS.B = TAUGHT_START.B
TARGET_POS.C = TAUGHT_START.C
LIN TARGET_POS C_DIS
CONTINUE
OFFSET_POS = {X 86.547, Y -2.189, Z 8.000, A 0, B 0, C 0}
TARGET_POS = TAUGHT_START
TARGET_POS.X = TAUGHT_START.X + OFFSET_POS.X
TARGET_POS.Y = TAUGHT_START.Y + OFFSET_POS.Y
TARGET_POS.Z = TAUGHT_START.Z + OFFSET_POS.Z
TARGET_POS.A = TAUGHT_START.A
TARGET_POS.B = TAUGHT_START.B
TARGET_POS.C = TAUGHT_START.C
LIN TARGET_POS C_DIS
CONTINUE
OFFSET_POS = {X 88.039, Y -0.468, Z 8.000, A 0, B 0, C 0}
TARGET_POS = TAUGHT_START
TARGET_POS.X = TAUGHT_START.X + OFFSET_POS.X
TARGET_POS.Y = TAUGHT_START.Y + OFFSET_POS.Y
TARGET_POS.Z = TAUGHT_START.Z + OFFSET_POS.Z
TARGET_POS.A = TAUGHT_START.A
TARGET_POS.B = TAUGHT_START.B
TARGET_POS.C = TAUGHT_START.C
LIN TARGET_POS C_DIS
CONTINUE
OFFSET_POS = {X 89.531, Y 2.211, Z 8.000, A 0, B 0, C 0}
TARGET_POS = TAUGHT_START
TARGET_POS.X = TAUGHT_START.X + OFFSET_POS.X
TARGET_POS.Y = TAUGHT_START.Y + OFFSET_POS.Y
TARGET_POS.Z = TAUGHT_START.Z + OFFSET_POS.Z
TARGET_POS.A = TAUGHT_START.A
TARGET_POS.B = TAUGHT_START.B
TARGET_POS.C = TAUGHT_START.C
LIN TARGET_POS C_DIS
CONTINUE
OFFSET_POS = {X 91.023, Y 0.366, Z 8.000, A 0, B 0, C 0}
TARGET_POS = TAUGHT_START
TARGET_POS.X = TAUGHT_START.X + OFFSET_POS.X
TARGET_POS.Y = TAUGHT_START.Y + OFFSET_POS.Y
TARGET_POS.Z = TAUGHT_START.Z + OFFSET_POS.Z
TARGET_POS.A = TAUGHT_START.A
TARGET_POS.B = TAUGHT_START.B
TARGET_POS.C = TAUGHT_START.C
LIN TARGET_POS C_DIS
CONTINUE
OFFSET_POS = {X 92.516, Y -2.228, Z 8.000, A 0, B 0, C 0}
TARGET_POS = TAUGHT_START
TARGET_POS.X = TAUGHT_START.X + OFFSET_POS.X
TARGET_POS.Y = TAUGHT_START.Y + OFFSET_POS.Y
TARGET_POS.Z = TAUGHT_START.Z + OFFSET_POS.Z
TARGET_POS.A = TAUGHT_START.A
TARGET_POS.B = TAUGHT_START.B
TARGET_POS.C = TAUGHT_START.C
LIN TARGET_POS C_DIS
CONTINUE
OFFSET_POS = {X 94.008, Y -0.263, Z 8.000, A 0, B 0, C 0}
TARGET_POS = TAUGHT_START
TARGET_POS.X = TAUGHT_START.X + OFFSET_POS.X
TARGET_POS.Y = TAUGHT_START.Y + OFFSET_POS.Y
TARGET_POS.Z = TAUGHT_START.Z + OFFSET_POS.Z
TARGET_POS.A = TAUGHT_START.A
TARGET_POS.B = TAUGHT_START.B
TARGET_POS.C = TAUGHT_START.C
LIN TARGET_POS C_DIS
CONTINUE
OFFSET_POS = {X 95.500, Y 2.240, Z 8.000, A 0, B 0, C 0}
TARGET_POS = TAUGHT_START
TARGET_POS.X = TAUGHT_START.X + OFFSET_POS.X
TARGET_POS.Y = TAUGHT_START.Y + OFFSET_POS.Y
TARGET_POS.Z = TAUGHT_START.Z + OFFSET_POS.Z
TARGET_POS.A = TAUGHT_START.A
TARGET_POS.B = TAUGHT_START.B
TARGET_POS.C = TAUGHT_START.C
LIN TARGET_POS C_DIS
$OUT[1] = FALSE
WAIT SEC 0.200
; Lift Z by 10.0mm to avoid scratching welded bead
LIN_REL {Z 10.0}
; Stabilization delay - ensures travel motion completes before Z lowers
WAIT SEC 5.0
;Waiting for TEMP_VAR to go high indicating temperature reached before next layer
WAIT SEC 30
WAIT FOR TEMP_VAR
WAIT SEC 30
; Lower Z back to weld height
LIN_REL {Z -10.0}
; ;LAYER_CHANGE
; Reset TEMP_VAR at the start of this layer
TEMP_VAR = FALSE
; Layer index: 9
OFFSET_POS = {X 95.500, Y 0.000, Z 10.000, A 0, B 0, C 0}
TARGET_POS = TAUGHT_START
TARGET_POS.X = TAUGHT_START.X + OFFSET_POS.X
TARGET_POS.Y = TAUGHT_START.Y + OFFSET_POS.Y
TARGET_POS.Z = TAUGHT_START.Z + OFFSET_POS.Z
TARGET_POS.A = TAUGHT_START.A
TARGET_POS.B = TAUGHT_START.B
TARGET_POS.C = TAUGHT_START.C
LIN TARGET_POS C_DIS
$OUT[1] = TRUE
WAIT SEC 0.200
OFFSET_POS = {X 94.008, Y -2.249, Z 10.000, A 0, B 0, C 0}
TARGET_POS = TAUGHT_START
TARGET_POS.X = TAUGHT_START.X + OFFSET_POS.X
TARGET_POS.Y = TAUGHT_START.Y + OFFSET_POS.Y
TARGET_POS.Z = TAUGHT_START.Z + OFFSET_POS.Z
TARGET_POS.A = TAUGHT_START.A
TARGET_POS.B = TAUGHT_START.B
TARGET_POS.C = TAUGHT_START.C
LIN TARGET_POS C_DIS
CONTINUE
OFFSET_POS = {X 92.516, Y 0.104, Z 10.000, A 0, B 0, C 0}
TARGET_POS = TAUGHT_START
TARGET_POS.X = TAUGHT_START.X + OFFSET_POS.X
TARGET_POS.Y = TAUGHT_START.Y + OFFSET_POS.Y
TARGET_POS.Z = TAUGHT_START.Z + OFFSET_POS.Z
TARGET_POS.A = TAUGHT_START.A
TARGET_POS.B = TAUGHT_START.B
TARGET_POS.C = TAUGHT_START.C
LIN TARGET_POS C_DIS
CONTINUE
OFFSET_POS = {X 91.023, Y 2.245, Z 10.000, A 0, B 0, C 0}
TARGET_POS = TAUGHT_START
TARGET_POS.X = TAUGHT_START.X + OFFSET_POS.X
TARGET_POS.Y = TAUGHT_START.Y + OFFSET_POS.Y
TARGET_POS.Z = TAUGHT_START.Z + OFFSET_POS.Z
TARGET_POS.A = TAUGHT_START.A
TARGET_POS.B = TAUGHT_START.B
TARGET_POS.C = TAUGHT_START.C
LIN TARGET_POS C_DIS
CONTINUE
OFFSET_POS = {X 89.531, Y -0.207, Z 10.000, A 0, B 0, C 0}
TARGET_POS = TAUGHT_START
TARGET_POS.X = TAUGHT_START.X + OFFSET_POS.X
TARGET_POS.Y = TAUGHT_START.Y + OFFSET_POS.Y
TARGET_POS.Z = TAUGHT_START.Z + OFFSET_POS.Z
TARGET_POS.A = TAUGHT_START.A
TARGET_POS.B = TAUGHT_START.B
TARGET_POS.C = TAUGHT_START.C
LIN TARGET_POS C_DIS
CONTINUE
OFFSET_POS = {X 88.039, Y -2.235, Z 10.000, A 0, B 0, C 0}
TARGET_POS = TAUGHT_START
TARGET_POS.X = TAUGHT_START.X + OFFSET_POS.X
TARGET_POS.Y = TAUGHT_START.Y + OFFSET_POS.Y
TARGET_POS.Z = TAUGHT_START.Z + OFFSET_POS.Z
TARGET_POS.A = TAUGHT_START.A
TARGET_POS.B = TAUGHT_START.B
TARGET_POS.C = TAUGHT_START.C
LIN TARGET_POS C_DIS
CONTINUE
OFFSET_POS = {X 86.547, Y 0.310, Z 10.000, A 0, B 0, C 0}
TARGET_POS = TAUGHT_START
TARGET_POS.X = TAUGHT_START.X + OFFSET_POS.X
TARGET_POS.Y = TAUGHT_START.Y + OFFSET_POS.Y
TARGET_POS.Z = TAUGHT_START.Z + OFFSET_POS.Z
TARGET_POS.A = TAUGHT_START.A
TARGET_POS.B = TAUGHT_START.B
TARGET_POS.C = TAUGHT_START.C
LIN TARGET_POS C_DIS
CONTINUE
OFFSET_POS = {X 85.055, Y 2.221, Z 10.000, A 0, B 0, C 0}
TARGET_POS = TAUGHT_START
TARGET_POS.X = TAUGHT_START.X + OFFSET_POS.X
TARGET_POS.Y = TAUGHT_START.Y + OFFSET_POS.Y
TARGET_POS.Z = TAUGHT_START.Z + OFFSET_POS.Z
TARGET_POS.A = TAUGHT_START.A
TARGET_POS.B = TAUGHT_START.B
TARGET_POS.C = TAUGHT_START.C
LIN TARGET_POS C_DIS
CONTINUE
OFFSET_POS = {X 83.562, Y -0.413, Z 10.000, A 0, B 0, C 0}
TARGET_POS = TAUGHT_START
TARGET_POS.X = TAUGHT_START.X + OFFSET_POS.X
TARGET_POS.Y = TAUGHT_START.Y + OFFSET_POS.Y
TARGET_POS.Z = TAUGHT_START.Z + OFFSET_POS.Z
TARGET_POS.A = TAUGHT_START.A
TARGET_POS.B = TAUGHT_START.B
TARGET_POS.C = TAUGHT_START.C
LIN TARGET_POS C_DIS
CONTINUE
OFFSET_POS = {X 82.070, Y -2.202, Z 10.000, A 0, B 0, C 0}
TARGET_POS = TAUGHT_START
TARGET_POS.X = TAUGHT_START.X + OFFSET_POS.X
TARGET_POS.Y = TAUGHT_START.Y + OFFSET_POS.Y
TARGET_POS.Z = TAUGHT_START.Z + OFFSET_POS.Z
TARGET_POS.A = TAUGHT_START.A
TARGET_POS.B = TAUGHT_START.B
TARGET_POS.C = TAUGHT_START.C
LIN TARGET_POS C_DIS
CONTINUE
OFFSET_POS = {X 80.578, Y 0.515, Z 10.000, A 0, B 0, C 0}
TARGET_POS = TAUGHT_START
TARGET_POS.X = TAUGHT_START.X + OFFSET_POS.X
TARGET_POS.Y = TAUGHT_START.Y + OFFSET_POS.Y
TARGET_POS.Z = TAUGHT_START.Z + OFFSET_POS.Z
TARGET_POS.A = TAUGHT_START.A
TARGET_POS.B = TAUGHT_START.B
TARGET_POS.C = TAUGHT_START.C
LIN TARGET_POS C_DIS
CONTINUE
OFFSET_POS = {X 79.086, Y 2.178, Z 10.000, A 0, B 0, C 0}
TARGET_POS = TAUGHT_START
TARGET_POS.X = TAUGHT_START.X + OFFSET_POS.X
TARGET_POS.Y = TAUGHT_START.Y + OFFSET_POS.Y
TARGET_POS.Z = TAUGHT_START.Z + OFFSET_POS.Z
TARGET_POS.A = TAUGHT_START.A
TARGET_POS.B = TAUGHT_START.B
TARGET_POS.C = TAUGHT_START.C
LIN TARGET_POS C_DIS
CONTINUE
OFFSET_POS = {X 77.594, Y -0.615, Z 10.000, A 0, B 0, C 0}
TARGET_POS = TAUGHT_START
TARGET_POS.X = TAUGHT_START.X + OFFSET_POS.X
TARGET_POS.Y = TAUGHT_START.Y + OFFSET_POS.Y
TARGET_POS.Z = TAUGHT_START.Z + OFFSET_POS.Z
TARGET_POS.A = TAUGHT_START.A
TARGET_POS.B = TAUGHT_START.B
TARGET_POS.C = TAUGHT_START.C
LIN TARGET_POS C_DIS
CONTINUE
OFFSET_POS = {X 76.102, Y -2.150, Z 10.000, A 0, B 0, C 0}
TARGET_POS = TAUGHT_START
TARGET_POS.X = TAUGHT_START.X + OFFSET_POS.X
TARGET_POS.Y = TAUGHT_START.Y + OFFSET_POS.Y
TARGET_POS.Z = TAUGHT_START.Z + OFFSET_POS.Z
TARGET_POS.A = TAUGHT_START.A
TARGET_POS.B = TAUGHT_START.B
TARGET_POS.C = TAUGHT_START.C
LIN TARGET_POS C_DIS
CONTINUE
OFFSET_POS = {X 74.609, Y 0.714, Z 10.000, A 0, B 0, C 0}
TARGET_POS = TAUGHT_START
TARGET_POS.X = TAUGHT_START.X + OFFSET_POS.X
TARGET_POS.Y = TAUGHT_START.Y + OFFSET_POS.Y
TARGET_POS.Z = TAUGHT_START.Z + OFFSET_POS.Z
TARGET_POS.A = TAUGHT_START.A
TARGET_POS.B = TAUGHT_START.B
TARGET_POS.C = TAUGHT_START.C
LIN TARGET_POS C_DIS
CONTINUE
OFFSET_POS = {X 73.117, Y 2.117, Z 10.000, A 0, B 0, C 0}
TARGET_POS = TAUGHT_START
TARGET_POS.X = TAUGHT_START.X + OFFSET_POS.X
TARGET_POS.Y = TAUGHT_START.Y + OFFSET_POS.Y
TARGET_POS.Z = TAUGHT_START.Z + OFFSET_POS.Z
TARGET_POS.A = TAUGHT_START.A
TARGET_POS.B = TAUGHT_START.B
TARGET_POS.C = TAUGHT_START.C
LIN TARGET_POS C_DIS
CONTINUE
OFFSET_POS = {X 71.625, Y -0.812, Z 10.000, A 0, B 0, C 0}
TARGET_POS = TAUGHT_START
TARGET_POS.X = TAUGHT_START.X + OFFSET_POS.X
TARGET_POS.Y = TAUGHT_START.Y + OFFSET_POS.Y
TARGET_POS.Z = TAUGHT_START.Z + OFFSET_POS.Z
TARGET_POS.A = TAUGHT_START.A
TARGET_POS.B = TAUGHT_START.B
TARGET_POS.C = TAUGHT_START.C
LIN TARGET_POS C_DIS
CONTINUE
OFFSET_POS = {X 70.133, Y -2.079, Z 10.000, A 0, B 0, C 0}
TARGET_POS = TAUGHT_START
TARGET_POS.X = TAUGHT_START.X + OFFSET_POS.X
TARGET_POS.Y = TAUGHT_START.Y + OFFSET_POS.Y
TARGET_POS.Z = TAUGHT_START.Z + OFFSET_POS.Z
TARGET_POS.A = TAUGHT_START.A
TARGET_POS.B = TAUGHT_START.B
TARGET_POS.C = TAUGHT_START.C
LIN TARGET_POS C_DIS
CONTINUE
OFFSET_POS = {X 68.641, Y 0.908, Z 10.000, A 0, B 0, C 0}
TARGET_POS = TAUGHT_START
TARGET_POS.X = TAUGHT_START.X + OFFSET_POS.X
TARGET_POS.Y = TAUGHT_START.Y + OFFSET_POS.Y
TARGET_POS.Z = TAUGHT_START.Z + OFFSET_POS.Z
TARGET_POS.A = TAUGHT_START.A
TARGET_POS.B = TAUGHT_START.B
TARGET_POS.C = TAUGHT_START.C
LIN TARGET_POS C_DIS
CONTINUE
OFFSET_POS = {X 67.148, Y 2.037, Z 10.000, A 0, B 0, C 0}
TARGET_POS = TAUGHT_START
TARGET_POS.X = TAUGHT_START.X + OFFSET_POS.X
TARGET_POS.Y = TAUGHT_START.Y + OFFSET_POS.Y
TARGET_POS.Z = TAUGHT_START.Z + OFFSET_POS.Z
TARGET_POS.A = TAUGHT_START.A
TARGET_POS.B = TAUGHT_START.B
TARGET_POS.C = TAUGHT_START.C
LIN TARGET_POS C_DIS
CONTINUE
OFFSET_POS = {X 65.656, Y -1.002, Z 10.000, A 0, B 0, C 0}
TARGET_POS = TAUGHT_START
TARGET_POS.X = TAUGHT_START.X + OFFSET_POS.X
TARGET_POS.Y = TAUGHT_START.Y + OFFSET_POS.Y
TARGET_POS.Z = TAUGHT_START.Z + OFFSET_POS.Z
TARGET_POS.A = TAUGHT_START.A
TARGET_POS.B = TAUGHT_START.B
TARGET_POS.C = TAUGHT_START.C
LIN TARGET_POS C_DIS
CONTINUE
OFFSET_POS = {X 64.164, Y -1.991, Z 10.000, A 0, B 0, C 0}
TARGET_POS = TAUGHT_START
TARGET_POS.X = TAUGHT_START.X + OFFSET_POS.X
TARGET_POS.Y = TAUGHT_START.Y + OFFSET_POS.Y
TARGET_POS.Z = TAUGHT_START.Z + OFFSET_POS.Z
TARGET_POS.A = TAUGHT_START.A
TARGET_POS.B = TAUGHT_START.B
TARGET_POS.C = TAUGHT_START.C
LIN TARGET_POS C_DIS
CONTINUE
OFFSET_POS = {X 62.672, Y 1.094, Z 10.000, A 0, B 0, C 0}
TARGET_POS = TAUGHT_START
TARGET_POS.X = TAUGHT_START.X + OFFSET_POS.X
TARGET_POS.Y = TAUGHT_START.Y + OFFSET_POS.Y
TARGET_POS.Z = TAUGHT_START.Z + OFFSET_POS.Z
TARGET_POS.A = TAUGHT_START.A
TARGET_POS.B = TAUGHT_START.B
TARGET_POS.C = TAUGHT_START.C
LIN TARGET_POS C_DIS
CONTINUE
OFFSET_POS = {X 61.180, Y 1.941, Z 10.000, A 0, B 0, C 0}
TARGET_POS = TAUGHT_START
TARGET_POS.X = TAUGHT_START.X + OFFSET_POS.X
TARGET_POS.Y = TAUGHT_START.Y + OFFSET_POS.Y
TARGET_POS.Z = TAUGHT_START.Z + OFFSET_POS.Z
TARGET_POS.A = TAUGHT_START.A
TARGET_POS.B = TAUGHT_START.B
TARGET_POS.C = TAUGHT_START.C
LIN TARGET_POS C_DIS
CONTINUE
OFFSET_POS = {X 59.688, Y -1.183, Z 10.000, A 0, B 0, C 0}
TARGET_POS = TAUGHT_START
TARGET_POS.X = TAUGHT_START.X + OFFSET_POS.X
TARGET_POS.Y = TAUGHT_START.Y + OFFSET_POS.Y
