; generated by PrusaSlicer 2.9.4 on 2026-05-31 at 12:25:05 UTC

; 

; external perimeters extrusion width = 4.50mm
; perimeters extrusion width = 4.50mm
; infill extrusion width = 4.50mm
; solid infill extrusion width = 4.50mm
; top infill extrusion width = 4.50mm
; first layer extrusion width = 4.50mm

M104 S200 ; set temperature
;TYPE:Custom
G28 ; home all axes
G1 Z5 F5000 ; lift nozzle
M109 S200 ; set temperature and wait for it to be reached
G21 ; set units to millimeters
G90 ; use absolute coordinates
M82 ; use absolute distances for extrusion
G92 E0
; Filament gcode
M107
;LAYER_CHANGE
;Z:2.5
;HEIGHT:2.5
G1 E-2 F2400
G92 E0
G1 Z2.5 F7800
G92 E0
G1 X371.002 Y-34.726
G1 E2 F2400
;TYPE:External perimeter
;WIDTH:3.9365
G1 F1800
G1 X370.237 Y-33.219 E2.73163
G1 X370.081 Y-32.816 E2.9187
G1 X369.643 Y-31.25 E3.62264
G1 X369.556 Y-30.755 E3.84021
G1 X369.502 Y-30.047 E4.14759
G1 X369.417 Y-29.515 E4.38081
;WIDTH:3.98613
G1 X369.408 Y-29.462 E4.40442
;WIDTH:4.03575
G1 X369.398 Y-29.409 E4.42845
;WIDTH:4.08538
G1 X369.388 Y-29.356 E4.45282
;WIDTH:4.135
G1 X369.378 Y-29.302 E4.47798
;WIDTH:4.18463
G1 X369.368 Y-29.249 E4.50303
;WIDTH:4.23425
G1 X369.358 Y-29.196 E4.52842
;WIDTH:4.28387
G1 X369.349 Y-29.143 E4.55407
;WIDTH:4.3335
G1 X369.339 Y-29.09 E4.58014
;WIDTH:4.38312
G1 X369.329 Y-29.037 E4.60656
;WIDTH:4.43275
G1 X369.319 Y-28.983 E4.6338
;WIDTH:4.48237
G1 X369.309 Y-28.93 E4.6609
;WIDTH:4.53199
G1 X369.299 Y-28.877 E4.68834
;WIDTH:4.58162
G1 X369.29 Y-28.824 E4.71603
;WIDTH:4.63124
G1 X369.28 Y-28.771 E4.74415
;WIDTH:4.68087
G1 X369.27 Y-28.718 E4.77261
;WIDTH:4.73049
G1 X369.26 Y-28.664 E4.80194
;WIDTH:4.78012
G1 X369.25 Y-28.611 E4.83108
;WIDTH:4.82974
G1 X369.24 Y-28.558 E4.86056
;WIDTH:4.87936
G1 X369.231 Y-28.505 E4.89029
;WIDTH:4.92899
G1 X369.221 Y-28.452 E4.92045
;WIDTH:4.97861
G1 X369.211 Y-28.399 E4.95096
;WIDTH:5.02824
G1 X369.201 Y-28.345 E4.98237
;WIDTH:5.07786
G1 X369.191 Y-28.292 E5.01356
;WIDTH:5.12719
G1 X369.188 Y-28.252 E5.03701
;WIDTH:5.17651
G1 X369.185 Y-28.212 E5.06071
;WIDTH:5.22584
G1 X369.181 Y-28.171 E5.08531
;WIDTH:5.27516
G1 X369.178 Y-28.131 E5.10951
;WIDTH:5.32449
G1 X369.175 Y-28.09 E5.13457
;WIDTH:5.37382
G1 X369.171 Y-28.05 E5.15933
;WIDTH:5.42314
G1 X369.168 Y-28.009 E5.18491
;WIDTH:5.47247
G1 X369.165 Y-27.969 E5.21012
;WIDTH:5.52179
G1 X369.162 Y-27.929 E5.23558
;WIDTH:5.57112
G1 X369.158 Y-27.888 E5.26199
G1 X369.067 Y-27.846 E5.32624
;WIDTH:5.52443
G1 X368.977 Y-27.804 E5.38931
;WIDTH:5.47775
G1 X368.886 Y-27.761 E5.45263
;WIDTH:5.43106
G1 X368.795 Y-27.719 E5.51509
;WIDTH:5.38437
G1 X368.704 Y-27.676 E5.57721
;WIDTH:5.33768
G1 X368.489 Y-27.598 E5.71702
;WIDTH:5.302
G1 X368.274 Y-27.52 E5.85579
;WIDTH:5.26631
G1 X368.059 Y-27.442 E5.99352
;WIDTH:5.24542
G1 X366.928 Y-27.122 E6.69824
;WIDTH:5.29377
G1 X366.666 Y-27.071 E6.85992
;WIDTH:5.34212
G1 X366.404 Y-27.021 E7.02312
;WIDTH:5.39047
G1 X366.143 Y-26.97 E7.18748
G1 X366.081 Y-26.928 E7.23376
;WIDTH:5.34557
G1 X366.02 Y-26.886 E7.27911
;WIDTH:5.30067
G1 X365.959 Y-26.844 E7.32403
;WIDTH:5.25576
G1 X365.898 Y-26.802 E7.36853
;WIDTH:5.21086
G1 X365.836 Y-26.76 E7.4131
;WIDTH:5.16596
G1 X365.775 Y-26.718 E7.45675
;WIDTH:5.12106
G1 X365.714 Y-26.677 E7.49965
;WIDTH:5.07615
G1 X365.653 Y-26.635 E7.54246
;WIDTH:5.03125
G1 X365.592 Y-26.593 E7.58484
;WIDTH:4.98635
G1 X365.463 Y-26.52 E7.66882
;WIDTH:4.94034
G1 X365.335 Y-26.447 E7.75144
;WIDTH:4.89433
G1 X365.207 Y-26.374 E7.8332
;WIDTH:4.84832
G1 X365.079 Y-26.302 E7.91383
;WIDTH:4.80232
G1 X364.95 Y-26.229 E7.99434
;WIDTH:4.75631
G1 X364.822 Y-26.156 E8.07351
;WIDTH:4.7103
G1 X364.694 Y-26.083 E8.15182
;WIDTH:4.66429
G1 X364.566 Y-26.011 E8.229
;WIDTH:4.61828
G1 X364.438 Y-25.938 E8.30558
;WIDTH:4.57228
G1 X361.481 Y-24.515 E9.99182
;WIDTH:4.55954
G1 X360.4 Y-23.862 E10.63873
;WIDTH:4.55635
G1 X359.615 Y-23.344 E11.1201
;WIDTH:4.594
G1 X358.829 Y-22.826 E11.60641
G1 X358.348 Y-22.469 E11.91587
;WIDTH:4.55489
G1 X357.866 Y-22.113 E12.22245
;WIDTH:4.53393
G1 X356.817 Y-21.269 E12.90771
;WIDTH:4.56046
G1 X356.58 Y-21.064 E13.06826
;WIDTH:4.58698
G1 X356.342 Y-20.859 E13.23026
;WIDTH:4.63477
G1 X356.195 Y-20.75 E13.32575
;WIDTH:4.68256
G1 X356.047 Y-20.641 E13.42278
;WIDTH:4.73034
G1 X355.9 Y-20.533 E13.52018
;WIDTH:4.77813
G1 X355.752 Y-20.424 E13.61945
;WIDTH:4.82591
G1 X355.604 Y-20.315 E13.71984
;WIDTH:4.8737
G1 X355.457 Y-20.207 E13.82057
;WIDTH:4.92148
G1 X355.309 Y-20.098 E13.92319
;WIDTH:4.95635
G1 X355.228 Y-20.044 E13.97797
;WIDTH:4.99121
G1 X355.146 Y-19.99 E14.03366
;WIDTH:5.02607
G1 X355.064 Y-19.936 E14.08978
G1 X354.988 Y-19.831 E14.16387
;WIDTH:4.98049
G1 X354.912 Y-19.726 E14.23721
;WIDTH:4.93491
G1 X354.836 Y-19.621 E14.3098
;WIDTH:4.88933
G1 X354.76 Y-19.517 E14.38119
;WIDTH:4.84375
G1 X354.684 Y-19.412 E14.45227
;WIDTH:4.79817
G1 X354.608 Y-19.307 E14.5226
;WIDTH:4.75259
G1 X354.532 Y-19.203 E14.59175
;WIDTH:4.707
G1 X354.4 Y-19.023 E14.71028
;WIDTH:4.66167
G1 X354.267 Y-18.843 E14.82783
;WIDTH:4.61633
G1 X354.135 Y-18.663 E14.94378
;WIDTH:4.57099
G1 X353.591 Y-18.014 E15.37879
;WIDTH:4.55595
G1 X352.881 Y-17.093 E15.97393
;WIDTH:4.58507
G1 X352.171 Y-16.173 E16.57297
G1 X351.956 Y-15.862 E16.76786
;WIDTH:4.55402
G1 X351.742 Y-15.551 E16.96097
;WIDTH:4.52298
G1 X351.023 Y-14.413 E17.64422
;WIDTH:4.55419
G1 X350.792 Y-14.015 E17.87962
;WIDTH:4.58732
G1 X350.561 Y-13.617 E18.11697
G1 X350.073 Y-12.654 E18.67379
;WIDTH:4.55603
G1 X349.585 Y-11.691 E19.2263
;WIDTH:4.57049
G1 X349.161 Y-10.771 E19.7466
;WIDTH:4.60823
G1 X349.07 Y-10.599 E19.84748
;WIDTH:4.64597
G1 X348.979 Y-10.428 E19.94883
;WIDTH:4.68371
G1 X348.888 Y-10.256 E20.05158
;WIDTH:4.73246
G1 X348.819 Y-10.127 E20.12974
;WIDTH:4.78121
G1 X348.75 Y-9.998 E20.20881
;WIDTH:4.82995
G1 X348.682 Y-9.869 E20.28853
;WIDTH:4.8787
G1 X348.613 Y-9.741 E20.36892
;WIDTH:4.92744
G1 X348.544 Y-9.612 E20.45071
;WIDTH:4.97536
G1 X348.494 Y-9.536 E20.50213
;WIDTH:5.02328
G1 X348.443 Y-9.46 E20.55442
;WIDTH:5.0712
G1 X348.392 Y-9.384 E20.60726
;WIDTH:5.11911
G1 X348.342 Y-9.308 E20.66034
;WIDTH:5.16703
G1 X348.291 Y-9.232 E20.7143
;WIDTH:5.21495
G1 X348.241 Y-9.156 E20.76849
;WIDTH:5.26286
G1 X348.19 Y-9.081 E20.82307
;WIDTH:5.31078
G1 X348.139 Y-9.005 E20.87871
;WIDTH:5.3587
G1 X348.089 Y-8.929 E20.93457
;WIDTH:5.40661
G1 X348.038 Y-8.853 E20.99132
G1 X347.996 Y-8.658 E21.11501
;WIDTH:5.36266
G1 X347.955 Y-8.464 E21.23685
;WIDTH:5.31871
G1 X347.913 Y-8.269 E21.35831
;WIDTH:5.27477
G1 X347.871 Y-8.074 E21.47865
;WIDTH:5.23082
G1 X347.717 Y-7.57 E21.79364
;WIDTH:5.21215
G1 X347.557 Y-6.972 E22.16217
;WIDTH:5.25512
G1 X347.487 Y-6.774 E22.28834
;WIDTH:5.29809
G1 X347.416 Y-6.577 E22.41529
;WIDTH:5.34106
G1 X347.345 Y-6.379 E22.54397
;WIDTH:5.38403
G1 X347.274 Y-6.182 E22.67322
;WIDTH:5.43167
G1 X347.234 Y-6.097 E22.73177
;WIDTH:5.47931
G1 X347.194 Y-6.012 E22.79089
;WIDTH:5.52695
G1 X347.154 Y-5.927 E22.85058
;WIDTH:5.57459
G1 X347.114 Y-5.842 E22.91084
G1 X347.07 Y-5.836 E22.93933
;WIDTH:5.5263
G1 X347.025 Y-5.831 E22.9681
;WIDTH:5.47802
G1 X346.98 Y-5.825 E22.99666
;WIDTH:5.42973
G1 X346.935 Y-5.819 E23.02494
;WIDTH:5.38144
G1 X346.89 Y-5.813 E23.05295
;WIDTH:5.33316
G1 X346.845 Y-5.808 E23.0806
;WIDTH:5.28487
G1 X346.8 Y-5.802 E23.10805
;WIDTH:5.23658
G1 X346.755 Y-5.796 E23.13522
;WIDTH:5.1883
G1 X346.711 Y-5.791 E23.16145
;WIDTH:5.14001
G1 X346.666 Y-5.785 E23.18806
;WIDTH:5.09172
G1 X346.621 Y-5.779 E23.21439
;WIDTH:5.04344
G1 X346.576 Y-5.773 E23.24044
;WIDTH:4.99515
G1 X346.531 Y-5.768 E23.26614
;WIDTH:4.94686
G1 X346.486 Y-5.762 E23.29163
;WIDTH:4.89858
G1 X346.441 Y-5.756 E23.31684
;WIDTH:4.85029
G1 X346.396 Y-5.751 E23.34171
;WIDTH:4.802
G1 X346.352 Y-5.745 E23.36583
;WIDTH:4.75372
G1 X346.307 Y-5.739 E23.39021
;WIDTH:4.70543
G1 X346.262 Y-5.733 E23.41431
;WIDTH:4.65714
G1 X346.217 Y-5.728 E23.43806
;WIDTH:4.60886
G1 X346.172 Y-5.722 E23.4616
;WIDTH:4.56057
G1 X346.127 Y-5.716 E23.48486
;WIDTH:4.51228
G1 X346.082 Y-5.711 E23.50778
;WIDTH:4.46399
G1 X346.037 Y-5.705 E23.53048
;WIDTH:4.41571
G1 X345.993 Y-5.699 E23.55241
;WIDTH:4.36742
G1 X345.948 Y-5.693 E23.57455
;WIDTH:4.31913
G1 X345.823 Y-5.669 E23.63585
;WIDTH:4.27131
G1 X345.699 Y-5.645 E23.69591
;WIDTH:4.22348
G1 X345.575 Y-5.62 E23.75529
;WIDTH:4.17565
G1 X345.451 Y-5.596 E23.81381
;WIDTH:4.12782
G1 X345.326 Y-5.571 E23.8721
;WIDTH:4.07999
G1 X345.202 Y-5.547 E23.92908
;WIDTH:4.03216
G1 X345.078 Y-5.522 E23.98538
;WIDTH:3.98433
G1 X344.953 Y-5.498 E24.04126
;WIDTH:3.9365
G1 X344.245 Y-5.444 E24.34864
G1 X343.75 Y-5.357 E24.56621
G1 X342.184 Y-4.919 E25.27015
G1 X341.781 Y-4.763 E25.45722
G1 X340.274 Y-3.998 E26.18885
G1 X343.217 Y-6.708 F7800
G1 E24.18885 F2400
G92 E0
G1 X343.231 Y-6.659 F7800
G1 X338.915 Y.883
G1 X339.002 Y2.646
G1 X338.807 Y3.38
G1 X338.201 Y3.838
G1 X337.442 Y3.826
G1 X330.656 Y2.181
G1 X329.891 Y2.106
G1 X329.184 Y2.406
G1 X326.175 Y3.716
G1 X327.1 Y8.02
G1 X321.092 Y14.098
G1 X319.647 Y14.832
G1 E2 F2400
;WIDTH:4.01955
G1 F1800
G1 X319.385 Y14.902 E2.12027
;WIDTH:3.97803
G1 X319.122 Y14.972 E2.23953
G1 X319.385 Y14.902 E2.35879
;WIDTH:4.01955
G1 X319.647 Y14.832 E2.47906
G1 E.47906 F2400
G92 E0
G1 X321.092 Y14.098 F7800
G1 X322.354 Y13.76
G1 X326.409 Y17.051
G1 X346.854 Y44.759
G1 X348.35 Y44.338
G1 X381.991 Y52.554
G1 X383.085 Y51.095
G1 X407.55 Y40.207
G1 X408.944 Y39.037
G1 X409.203 Y34.238
G1 E2 F2400
;WIDTH:4.70627
G1 F1800
G1 X408.991 Y34.749 E2.29372
G1 X408.917 Y34.821 E2.34854
;WIDTH:4.65681
G1 X408.842 Y34.894 E2.40345
;WIDTH:4.60736
G1 X408.768 Y34.967 E2.45733
;WIDTH:4.5579
G1 X408.693 Y35.039 E2.51056
;WIDTH:4.50844
G1 X408.619 Y35.112 E2.56313
;WIDTH:4.45898
G1 X408.544 Y35.184 E2.61505
;WIDTH:4.40953
G1 X408.47 Y35.257 E2.66631
;WIDTH:4.36007
G1 X408.395 Y35.33 E2.71726
;WIDTH:4.31061
G1 X408.321 Y35.402 E2.76687
;WIDTH:4.26115
G1 X408.246 Y35.475 E2.8165
;WIDTH:4.2117
G1 X408.171 Y35.526 E2.85894
;WIDTH:4.16297
G1 X408.095 Y35.577 E2.9012
;WIDTH:4.11425
G1 X408.019 Y35.628 E2.94289
;WIDTH:4.06552
G1 X407.943 Y35.679 E2.98402
;WIDTH:4.0168
G1 X407.868 Y35.731 E3.02446
;WIDTH:3.96808
G1 X407.792 Y35.782 E3.06445
;WIDTH:3.91935
G1 X407.547 Y35.96 E3.19489
;WIDTH:3.87004
G1 X407.302 Y36.138 E3.32343
;WIDTH:3.82073
G1 X407.057 Y36.317 E3.45031
;WIDTH:3.77142
G1 X406.588 Y36.698 E3.69919
;WIDTH:3.73929
G1 X405.633 Y37.514 E4.21143
;WIDTH:3.77622
G1 X405.357 Y37.759 E4.36366
;WIDTH:3.82076
G1 X405.081 Y38.003 E4.51771
;WIDTH:3.86531
G1 X404.806 Y38.248 E4.67381
;WIDTH:3.9104
G1 X404.652 Y38.392 E4.76438
;WIDTH:3.9555
G1 X404.498 Y38.536 E4.85616
;WIDTH:4.0006
G1 X404.345 Y38.68 E4.94883
;WIDTH:4.0457
G1 X404.191 Y38.824 E5.04303
;WIDTH:4.0908
G1 X404.038 Y38.968 E5.13811
;WIDTH:4.13589
G1 X403.884 Y39.112 E5.23473
;WIDTH:4.18447
G1 X403.764 Y39.233 E5.31388
;WIDTH:4.23305
G1 X403.645 Y39.354 E5.39376
;WIDTH:4.28163
G1 X403.525 Y39.474 E5.47468
;WIDTH:4.33021
G1 X403.405 Y39.595 E5.557
;WIDTH:4.37879
G1 X403.286 Y39.716 E5.64003
;WIDTH:4.42737
G1 X403.166 Y39.836 E5.7241
;WIDTH:4.46665
G1 X403.132 Y39.884 E5.75353
;WIDTH:4.50594
G1 X403.098 Y39.931 E5.78285
;WIDTH:4.54523
G1 X403.064 Y39.979 E5.81287
G1 X402.942 Y40.031 E5.88056
;WIDTH:4.49824
G1 X402.821 Y40.083 E5.94699
;WIDTH:4.45125
G1 X402.699 Y40.135 E6.01309
;WIDTH:4.40427
G1 X402.577 Y40.187 E6.0784
;WIDTH:4.35728
G1 X402.456 Y40.239 E6.14247
;WIDTH:4.31029
G1 X402.308 Y40.31 E6.22134
;WIDTH:4.26697
G1 X402.16 Y40.381 E6.29931
;WIDTH:4.22365
G1 X402.012 Y40.453 E6.37658
;WIDTH:4.18033
G1 X401.864 Y40.524 E6.45274
;WIDTH:4.13701
G1 X401.677 Y40.62 E6.5491
;WIDTH:4.09119
G1 X401.489 Y40.716 E6.64464
;WIDTH:4.04537
G1 X401.302 Y40.812 E6.73855
;WIDTH:3.99955
G1 X401.114 Y40.908 E6.83163
;WIDTH:3.95373
G1 X400.927 Y41.004 E6.92309
;WIDTH:3.90792
G1 X400.739 Y41.1 E7.0137
;WIDTH:3.8621
G1 X400.582 Y41.182 E7.0887
;WIDTH:3.82762
G1 X400.425 Y41.263 E7.16273
;WIDTH:3.79314
G1 X400.268 Y41.345 E7.23617
;WIDTH:3.79106
G1 X399.806 Y41.541 E7.44413
;WIDTH:3.82346
G1 X399.344 Y41.736 E7.654
;WIDTH:3.8623
G1 X399.237 Y41.779 E7.70283
;WIDTH:3.90115
G1 X399.129 Y41.821 E7.75247
;WIDTH:3.93999
G1 X399.022 Y41.864 E7.80244
;WIDTH:3.97884
G1 X398.914 Y41.906 E7.85323
G1 X398.265 Y41.879 E8.13793
G1 X398.051 Y41.865 E8.23192
G1 X397.841 Y42.342 E8.46035
G1 X397.59 Y42.645 E8.6328
;WIDTH:3.99201
G1 X397.212 Y42.999 E8.86065
;WIDTH:4.03148
G1 X396.835 Y43.352 E9.09047
;WIDTH:4.07976
G1 X396.735 Y43.443 E9.15147
;WIDTH:4.12805
G1 X396.635 Y43.533 E9.21299
;WIDTH:4.17634
G1 X396.535 Y43.624 E9.27565
;WIDTH:4.22462
G1 X396.435 Y43.715 E9.33914
;WIDTH:4.27215
G1 X396.327 Y43.787 E9.40088
;WIDTH:4.31968
G1 X396.22 Y43.86 E9.46327
;WIDTH:4.36721
G1 X396.112 Y43.933 E9.52685
;WIDTH:4.41475
G1 X396.004 Y44.005 E9.59094
;WIDTH:4.46228
G1 X395.897 Y44.078 E9.65568
;WIDTH:4.50981
G1 X395.789 Y44.151 E9.72163
;WIDTH:4.55734
G1 X395.682 Y44.223 E9.78766
G1 X395.541 Y44.258 E9.86204
;WIDTH:4.50875
G1 X395.401 Y44.292 E9.9349
;WIDTH:4.46016
G1 X395.261 Y44.327 E10.00699
;WIDTH:4.41158
G1 X395.121 Y44.361 E10.07807
;WIDTH:4.36299
G1 X394.98 Y44.396 E10.14885
;WIDTH:4.3144
G1 X394.832 Y44.437 E10.22272
;WIDTH:4.27228
G1 X394.684 Y44.479 E10.2959
;WIDTH:4.23016
G1 X394.535 Y44.52 E10.36858
;WIDTH:4.18804
G1 X394.387 Y44.562 E10.44011
;WIDTH:4.14593
G1 X394.239 Y44.603 E10.51069
;WIDTH:4.10381
G1 X394.032 Y44.667 E10.6091
;WIDTH:4.05646
G1 X393.826 Y44.731 E10.70578
;WIDTH:4.00912
G1 X393.619 Y44.795 E10.80158
;WIDTH:3.96178
G1 X393.412 Y44.859 E10.89607
;WIDTH:3.91443
G1 X393.224 Y44.923 E10.98148
;WIDTH:3.87997
G1 X393.035 Y44.986 E11.06629
;WIDTH:3.8455
G1 X392.847 Y45.049 E11.14983
;WIDTH:3.81104
G1 X392.56 Y45.153 E11.2771
;WIDTH:3.77366
G1 X392.274 Y45.257 E11.40253
;WIDTH:3.73648
G1 X391.201 Y45.616 E11.86353
;WIDTH:3.77699
G1 X390.616 Y45.828 E12.12026
;WIDTH:3.82424
G1 X390.305 Y45.955 E12.26088
;WIDTH:3.8715
G1 X389.993 Y46.082 E12.40392
;WIDTH:3.91876
G1 X389.682 Y46.208 E12.54842
;WIDTH:3.96296
G1 X389.484 Y46.296 E12.64295
;WIDTH:4.00715
G1 X389.287 Y46.384 E12.73829
;WIDTH:4.05135
G1 X389.089 Y46.472 E12.83526
;WIDTH:4.09554
G1 X388.892 Y46.56 E12.93303
;WIDTH:4.14513
G1 X388.719 Y46.642 E13.02099
;WIDTH:4.19472
G1 X388.546 Y46.725 E13.11036
;WIDTH:4.24431
G1 X388.373 Y46.807 E13.20074
;WIDTH:4.2939
G1 X388.2 Y46.89 E13.29254
;WIDTH:4.33623
G1 X388.12 Y46.934 E13.33671
;WIDTH:4.37856
G1 X388.039 Y46.978 E13.3818
;WIDTH:4.4209
G1 X387.958 Y47.022 E13.42739
;WIDTH:4.46323
G1 X387.877 Y47.067 E13.47372
;WIDTH:4.50556
G1 X387.797 Y47.111 E13.51986
;WIDTH:4.54789
G1 X387.716 Y47.155 E13.56694
G1 X387.584 Y47.161 E13.63443
;WIDTH:4.50188
G1 X387.452 Y47.167 E13.70114
;WIDTH:4.45588
G1 X387.32 Y47.173 E13.76708
;WIDTH:4.40987
G1 X387.189 Y47.18 E13.83178
;WIDTH:4.36386
G1 X387.057 Y47.186 E13.89617
;WIDTH:4.31786
G1 X386.894 Y47.201 E13.97498
;WIDTH:4.27562
G1 X386.731 Y47.216 E14.05291
;WIDTH:4.23338
G1 X386.567 Y47.231 E14.13043
;WIDTH:4.19114
G1 X386.404 Y47.246 E14.2066
;WIDTH:4.1489
G1 X386.195 Y47.271 E14.30341
;WIDTH:4.10429
G1 X385.986 Y47.295 E14.39898
;WIDTH:4.05968
G1 X385.777 Y47.319 E14.49335
;WIDTH:4.01507
G1 X385.568 Y47.344 E14.58658
;WIDTH:3.97047
G1 X385.359 Y47.368 E14.67856
;WIDTH:3.92586
G1 X385.149 Y47.393 E14.76982
;WIDTH:3.88125
G1 X384.949 Y47.421 E14.85582
;WIDTH:3.84779
G1 X384.748 Y47.449 E14.94138
;WIDTH:3.81434
G1 X384.548 Y47.477 E15.02566
;WIDTH:3.78088
G1 X383.952 Y47.589 E15.27617
;WIDTH:3.73784
G1 X383.432 Y47.698 E15.49273
;WIDTH:3.73862
G1 X382.863 Y47.78 E15.72711
;WIDTH:3.78139
G1 X382.265 Y47.879 E15.97754
;WIDTH:3.81476
G1 X382.067 Y47.921 E16.06202
;WIDTH:3.84813
G1 X381.868 Y47.963 E16.14778
;WIDTH:3.88149
G1 X381.67 Y48.006 E16.23407
;WIDTH:3.926
G1 X381.465 Y48.054 E16.32493
;WIDTH:3.97051
G1 X381.261 Y48.103 E16.41666
;WIDTH:4.01502
G1 X381.056 Y48.152 E16.51001
;WIDTH:4.05953
G1 X380.851 Y48.201 E16.60456
;WIDTH:4.10404
G1 X380.646 Y48.25 E16.7003
;WIDTH:4.14855
G1 X380.441 Y48.298 E16.79713
;WIDTH:4.1908
G1 X380.283 Y48.34 E16.8732
;WIDTH:4.23306
G1 X380.124 Y48.382 E16.9506
;WIDTH:4.27531
G1 X379.965 Y48.423 E17.02877
;WIDTH:4.31757
G1 X379.806 Y48.465 E17.10794
;WIDTH:4.36363
G1 X379.68 Y48.505 E17.17236
;WIDTH:4.40969
