; generated by PrusaSlicer 2.9.4 on 2025-11-21 at 12:20:43 UTC

; 

; external perimeters extrusion width = 4.50mm
; perimeters extrusion width = 4.50mm
; infill extrusion width = 4.50mm
; solid infill extrusion width = 4.50mm
; top infill extrusion width = 4.00mm
; first layer extrusion width = 4.20mm

M104 S200 ; set temperature
;TYPE:Custom
G28 ; home all axes
G1 Z5 F5000 ; lift nozzle
M109 S200 ; set temperature and wait for it to be reached
G21 ; set units to millimeters
G90 ; use absolute coordinates
M82 ; use absolute distances for extrusion
G92 E0
; Filament gcode
M107
;LAYER_CHANGE
;Z:2
;HEIGHT:2
G1 Z2 F7800
G1 X-22.122 Y-4.122
;TYPE:External perimeter
;WIDTH:5.42892
G1 X-21.711 Y-5.916 E3.46452
G1 X-21.476 Y-6.707 E4.12113
G1 X-20.956 Y-8.187 E5.36939
G1 X-20.531 Y-9.197 E6.24133
G1 X-19.966 Y-10.366 E7.27449
G1 X-19.449 Y-11.305 E8.12745
G1 X-18.751 Y-12.427 E9.17892
G1 X-17.975 Y-13.524 E10.24816
G1 X-17.326 Y-14.349 E11.08342
G1 X-16.251 Y-15.554 E12.36838
G1 X-15.705 Y-16.11 E12.98846
G1 X-14.3 Y-17.367 E14.48859
G1 X-13.907 Y-17.69 E14.89338
G1 X-11.951 Y-19.072 E16.79913
G1 X-9.826 Y-20.245 E18.73057
G1 X-7.647 Y-21.156 E20.6099
G1 X-7.079 Y-21.347 E21.08674
G1 X-5.354 Y-21.842 E22.51477
G1 X-4.504 Y-22.029 E23.20732
G1 X-3.002 Y-22.283 E24.41948
G1 X-1.867 Y-22.404 E25.32775
G1 X-.616 Y-22.473 E26.32472
G1 X.501 Y-22.474 E27.21355
G1 X1.776 Y-22.409 E28.22942
G1 X3.156 Y-22.256 E29.33426
G1 X4.148 Y-22.094 E30.13408
G1 X5.766 Y-21.726 E31.45445
G1 X6.474 Y-21.529 E32.03923
G1 X8.296 Y-20.893 E33.57484
G1 X8.728 Y-20.722 E33.94455
G1 X10.884 Y-19.68 E35.85
G1 X12.912 Y-18.407 E37.75532
G1 X14.791 Y-16.924 E39.66008
G1 X15.267 Y-16.489 E40.17319
G1 X16.503 Y-15.251 E41.56523
G1 X17.108 Y-14.564 E42.29366
G1 X18.029 Y-13.407 E43.4704
G1 X18.709 Y-12.436 E44.41368
G1 X19.351 Y-11.413 E45.37473
G1 X20.05 Y-10.134 E46.53454
G1 X20.455 Y-9.29 E47.27946
G1 X21.005 Y-7.966 E48.42029
G1 X21.328 Y-7.062 E49.18417
G1 X21.801 Y-5.424 E50.54083
G1 X21.962 Y-4.753 E51.08992
G1 X22.294 Y-2.806 E52.66157
G1 X22.348 Y-2.391 E52.99458
G1 X22.481 Y0 E54.90011
G1 X22.348 Y2.391 E56.80564
G1 X22.294 Y2.806 E57.13865
G1 X21.962 Y4.753 E58.7103
G1 X21.801 Y5.424 E59.25939
G1 X21.328 Y7.062 E60.61605
G1 X21.005 Y7.966 E61.37993
G1 X20.455 Y9.29 E62.52076
G1 X19.914 Y10.396 E63.50048
G1 X19.351 Y11.413 E64.42547
G1 X18.709 Y12.436 E65.38652
G1 X18.029 Y13.407 E66.3298
G1 X16.918 Y14.789 E67.74079
G1 X16.503 Y15.251 E68.23496
G1 X15.267 Y16.489 E69.627
G1 X14.791 Y16.924 E70.14011
G1 X12.912 Y18.407 E72.04487
G1 X10.884 Y19.68 E73.95019
G1 X8.728 Y20.722 E75.85564
G1 X8.296 Y20.893 E76.22535
G1 X6.474 Y21.529 E77.76096
G1 X6.052 Y21.652 E78.11073
G1 X4.148 Y22.094 E79.66609
G1 X3.156 Y22.256 E80.46591
G1 X1.776 Y22.409 E81.57075
G1 X.501 Y22.474 E82.58662
G1 X-.616 Y22.473 E83.47545
G1 X-1.867 Y22.404 E84.47242
G1 X-3.002 Y22.283 E85.38069
G1 X-4.504 Y22.029 E86.59285
G1 X-5.354 Y21.842 E87.2854
G1 X-7.36 Y21.257 E88.94813
G1 X-7.647 Y21.156 E89.19023
G1 X-9.556 Y20.366 E90.83421
G1 X-9.855 Y20.23 E91.09559
G1 X-11.951 Y19.072 E93.00106
G1 X-13.907 Y17.69 E94.90681
G1 X-14.3 Y17.367 E95.3116
G1 X-15.705 Y16.11 E96.81173
G1 X-16.251 Y15.554 E97.43181
G1 X-17.326 Y14.349 E98.71677
G1 X-17.798 Y13.759 E99.318
G1 X-18.751 Y12.427 E100.62126
G1 X-19.449 Y11.305 E101.67273
G1 X-19.966 Y10.366 E102.52569
G1 X-20.531 Y9.197 E103.55885
G1 X-20.956 Y8.187 E104.43079
G1 X-21.476 Y6.707 E105.67905
G1 X-21.711 Y5.916 E106.33566
G1 X-22.122 Y4.122 E107.80018
G1 X-22.222 Y3.577 E108.24109
G1 X-22.482 Y1.197 E110.1462
G1 X-22.482 Y-1.197 E112.05118
G1 X-22.227 Y-3.532 E113.92026
G1 X-21.188 Y-7.394 F7800
;LAYER_CHANGE
;Z:4
;HEIGHT:2
G1 Z4 F7800
G1 X-22.122 Y-4.122
G1 X-21.711 Y-5.916 E3.46452
G1 X-21.476 Y-6.707 E4.12113
G1 X-20.956 Y-8.187 E5.36939
G1 X-20.531 Y-9.197 E6.24133
G1 X-19.966 Y-10.366 E7.27449
G1 X-19.449 Y-11.305 E8.12745
G1 X-18.751 Y-12.427 E9.17892
G1 X-17.865 Y-13.674 E10.39615
G1 X-17.326 Y-14.349 E11.0835
G1 X-16.251 Y-15.554 E12.36846
G1 X-15.705 Y-16.11 E12.98854
G1 X-14.3 Y-17.367 E14.48867
G1 X-13.907 Y-17.69 E14.89346
G1 X-11.951 Y-19.072 E16.79921
G1 X-9.826 Y-20.245 E18.73065
G1 X-7.647 Y-21.156 E20.60998
G1 X-7.079 Y-21.347 E21.08682
G1 X-5.354 Y-21.842 E22.51485
G1 X-4.504 Y-22.029 E23.2074
G1 X-3.002 Y-22.283 E24.41956
G1 X-1.867 Y-22.404 E25.32783
G1 X-.616 Y-22.473 E26.3248
G1 X.501 Y-22.474 E27.21363
G1 X1.776 Y-22.409 E28.2295
G1 X3.156 Y-22.256 E29.33434
G1 X4.148 Y-22.094 E30.13416
G1 X5.766 Y-21.726 E31.45453
G1 X6.474 Y-21.529 E32.03931
G1 X8.296 Y-20.893 E33.57492
G1 X8.728 Y-20.722 E33.94463
G1 X10.884 Y-19.68 E35.85008
G1 X12.912 Y-18.407 E37.7554
G1 X14.791 Y-16.924 E39.66016
G1 X15.267 Y-16.489 E40.17327
G1 X16.503 Y-15.251 E41.56531
G1 X17.108 Y-14.564 E42.29374
G1 X18.029 Y-13.407 E43.47048
G1 X18.709 Y-12.436 E44.41376
G1 X19.351 Y-11.413 E45.37481
G1 X20.05 Y-10.134 E46.53462
G1 X20.455 Y-9.29 E47.27954
G1 X21.005 Y-7.966 E48.42037
G1 X21.328 Y-7.062 E49.18425
G1 X21.801 Y-5.424 E50.54091
G1 X21.962 Y-4.753 E51.09
G1 X22.294 Y-2.806 E52.66165
G1 X22.348 Y-2.391 E52.99466
G1 X22.481 Y0 E54.90019
G1 X22.348 Y2.391 E56.80572
G1 X22.294 Y2.806 E57.13873
G1 X21.962 Y4.753 E58.71038
G1 X21.801 Y5.424 E59.25947
G1 X21.328 Y7.062 E60.61613
G1 X21.005 Y7.966 E61.38001
G1 X20.455 Y9.29 E62.52084
G1 X19.914 Y10.396 E63.50056
G1 X19.351 Y11.413 E64.42555
G1 X18.709 Y12.436 E65.3866
G1 X18.029 Y13.407 E66.32988
G1 X16.918 Y14.789 E67.74087
G1 X16.503 Y15.251 E68.23504
G1 X15.267 Y16.489 E69.62708
G1 X14.791 Y16.924 E70.14019
G1 X12.912 Y18.407 E72.04495
G1 X10.884 Y19.68 E73.95027
G1 X8.728 Y20.722 E75.85572
G1 X8.296 Y20.893 E76.22543
G1 X6.474 Y21.529 E77.76104
G1 X6.052 Y21.652 E78.11081
G1 X4.148 Y22.094 E79.66617
G1 X3.156 Y22.256 E80.46599
G1 X1.776 Y22.409 E81.57083
G1 X.501 Y22.474 E82.5867
G1 X-.616 Y22.473 E83.47553
G1 X-1.867 Y22.404 E84.4725
G1 X-3.002 Y22.283 E85.38077
G1 X-4.504 Y22.029 E86.59293
G1 X-5.354 Y21.842 E87.28548
G1 X-7.36 Y21.257 E88.94821
G1 X-7.647 Y21.156 E89.19031
G1 X-9.556 Y20.366 E90.83429
G1 X-9.855 Y20.23 E91.09567
G1 X-11.951 Y19.072 E93.00114
G1 X-13.907 Y17.69 E94.90689
G1 X-14.3 Y17.367 E95.31168
G1 X-15.705 Y16.11 E96.81181
G1 X-16.251 Y15.554 E97.43189
G1 X-17.326 Y14.349 E98.71685
G1 X-17.798 Y13.759 E99.31808
G1 X-18.751 Y12.427 E100.62134
G1 X-19.449 Y11.305 E101.67281
G1 X-19.966 Y10.366 E102.52577
G1 X-20.531 Y9.197 E103.55893
G1 X-20.956 Y8.187 E104.43087
G1 X-21.476 Y6.707 E105.67913
G1 X-21.711 Y5.916 E106.33574
G1 X-22.122 Y4.122 E107.80026
G1 X-22.222 Y3.577 E108.24117
G1 X-22.482 Y1.197 E110.14628
G1 X-22.482 Y-1.197 E112.05126
G1 X-22.227 Y-3.532 E113.92034
G1 X-21.188 Y-7.394 F7800
;LAYER_CHANGE
;Z:6
;HEIGHT:2
G1 Z6 F7800
G1 X-22.122 Y-4.122
G1 X-21.711 Y-5.916 E3.46452
G1 X-21.476 Y-6.707 E4.12113
G1 X-20.956 Y-8.187 E5.36939
G1 X-20.531 Y-9.197 E6.24133
G1 X-19.966 Y-10.366 E7.27449
G1 X-19.449 Y-11.305 E8.12745
G1 X-18.751 Y-12.427 E9.17892
G1 X-17.975 Y-13.524 E10.24816
G1 X-17.326 Y-14.349 E11.08342
G1 X-16.251 Y-15.554 E12.36838
G1 X-15.705 Y-16.11 E12.98846
G1 X-14.3 Y-17.367 E14.48859
G1 X-13.907 Y-17.69 E14.89338
G1 X-11.951 Y-19.072 E16.79913
G1 X-9.826 Y-20.245 E18.73057
G1 X-7.647 Y-21.156 E20.6099
G1 X-7.079 Y-21.347 E21.08674
G1 X-5.354 Y-21.842 E22.51477
G1 X-4.504 Y-22.029 E23.20732
G1 X-3.002 Y-22.283 E24.41948
G1 X-1.867 Y-22.404 E25.32775
G1 X-.616 Y-22.473 E26.32472
G1 X.501 Y-22.474 E27.21355
G1 X1.776 Y-22.409 E28.22942
G1 X3.156 Y-22.256 E29.33426
G1 X4.148 Y-22.094 E30.13408
G1 X5.766 Y-21.726 E31.45445
G1 X6.474 Y-21.529 E32.03923
G1 X8.296 Y-20.893 E33.57484
G1 X8.728 Y-20.722 E33.94455
G1 X10.884 Y-19.68 E35.85
G1 X12.912 Y-18.407 E37.75532
G1 X14.791 Y-16.924 E39.66008
G1 X15.267 Y-16.489 E40.17319
G1 X16.503 Y-15.251 E41.56523
G1 X17.108 Y-14.564 E42.29366
G1 X18.029 Y-13.407 E43.4704
G1 X18.709 Y-12.436 E44.41368
G1 X19.351 Y-11.413 E45.37473
G1 X20.05 Y-10.134 E46.53454
G1 X20.455 Y-9.29 E47.27946
G1 X21.005 Y-7.966 E48.42029
G1 X21.328 Y-7.062 E49.18417
G1 X21.801 Y-5.424 E50.54083
G1 X21.962 Y-4.753 E51.08992
G1 X22.294 Y-2.806 E52.66157
G1 X22.348 Y-2.391 E52.99458
G1 X22.481 Y0 E54.90011
G1 X22.348 Y2.391 E56.80564
G1 X22.294 Y2.806 E57.13865
G1 X21.962 Y4.753 E58.7103
G1 X21.801 Y5.424 E59.25939
G1 X21.328 Y7.062 E60.61605
G1 X21.005 Y7.966 E61.37993
G1 X20.455 Y9.29 E62.52076
G1 X19.914 Y10.396 E63.50048
G1 X19.351 Y11.413 E64.42547
G1 X18.709 Y12.436 E65.38652
G1 X18.029 Y13.407 E66.3298
G1 X16.918 Y14.789 E67.74079
G1 X16.503 Y15.251 E68.23496
G1 X15.267 Y16.489 E69.627
G1 X14.791 Y16.924 E70.14011
G1 X12.912 Y18.407 E72.04487
G1 X10.884 Y19.68 E73.95019
G1 X8.728 Y20.722 E75.85564
G1 X8.296 Y20.893 E76.22535
G1 X6.474 Y21.529 E77.76096
G1 X6.052 Y21.652 E78.11073
G1 X4.148 Y22.094 E79.66609
G1 X3.156 Y22.256 E80.46591
G1 X1.776 Y22.409 E81.57075
G1 X.501 Y22.474 E82.58662
G1 X-.616 Y22.473 E83.47545
G1 X-1.867 Y22.404 E84.47242
G1 X-3.002 Y22.283 E85.38069
G1 X-4.504 Y22.029 E86.59285
G1 X-5.354 Y21.842 E87.2854
G1 X-7.36 Y21.257 E88.94813
G1 X-7.647 Y21.156 E89.19023
G1 X-9.556 Y20.366 E90.83421
G1 X-9.855 Y20.23 E91.09559
G1 X-11.951 Y19.072 E93.00106
G1 X-13.907 Y17.69 E94.90681
G1 X-14.3 Y17.367 E95.3116
G1 X-15.705 Y16.11 E96.81173
G1 X-16.251 Y15.554 E97.43181
G1 X-17.326 Y14.349 E98.71677
G1 X-17.798 Y13.759 E99.318
G1 X-18.751 Y12.427 E100.62126
G1 X-19.449 Y11.305 E101.67273
G1 X-19.966 Y10.366 E102.52569
G1 X-20.531 Y9.197 E103.55885
G1 X-20.956 Y8.187 E104.43079
G1 X-21.476 Y6.707 E105.67905
G1 X-21.711 Y5.916 E106.33566
G1 X-22.122 Y4.122 E107.80018
G1 X-22.222 Y3.577 E108.24109
G1 X-22.482 Y1.197 E110.1462
G1 X-22.482 Y-1.197 E112.05118
G1 X-22.227 Y-3.532 E113.92026
G1 X-21.188 Y-7.394 F7800
M106 S252.45
;LAYER_CHANGE
;Z:8
;HEIGHT:2
G1 Z8 F7800
G1 X-22.122 Y-4.122
G1 X-21.711 Y-5.916 E3.46452
G1 X-21.476 Y-6.707 E4.12113
G1 X-20.956 Y-8.187 E5.36939
G1 X-20.531 Y-9.197 E6.24133
G1 X-19.966 Y-10.366 E7.27449
G1 X-19.449 Y-11.305 E8.12745
G1 X-18.751 Y-12.427 E9.17892
G1 X-17.975 Y-13.524 E10.24816
G1 X-17.326 Y-14.349 E11.08342
G1 X-16.251 Y-15.554 E12.36838
G1 X-15.705 Y-16.11 E12.98846
G1 X-14.3 Y-17.367 E14.48859
G1 X-13.907 Y-17.69 E14.89338
G1 X-11.951 Y-19.072 E16.79913
G1 X-9.826 Y-20.245 E18.73057
G1 X-7.647 Y-21.156 E20.6099
G1 X-7.079 Y-21.347 E21.08674
G1 X-5.354 Y-21.842 E22.51477
G1 X-4.504 Y-22.029 E23.20732
G1 X-3.002 Y-22.283 E24.41948
G1 X-1.867 Y-22.404 E25.32775
G1 X-.616 Y-22.473 E26.32472
G1 X.501 Y-22.474 E27.21355
G1 X1.776 Y-22.409 E28.22942
G1 X3.156 Y-22.256 E29.33426
G1 X4.148 Y-22.094 E30.13408
G1 X5.766 Y-21.726 E31.45445
G1 X6.474 Y-21.529 E32.03923
G1 X8.296 Y-20.893 E33.57484
G1 X8.728 Y-20.722 E33.94455
G1 X10.884 Y-19.68 E35.85
G1 X12.912 Y-18.407 E37.75532
G1 X14.791 Y-16.924 E39.66008
G1 X15.267 Y-16.489 E40.17319
G1 X16.503 Y-15.251 E41.56523
G1 X17.108 Y-14.564 E42.29366
G1 X18.029 Y-13.407 E43.4704
G1 X18.709 Y-12.436 E44.41368
G1 X19.351 Y-11.413 E45.37473
G1 X20.05 Y-10.134 E46.53454
G1 X20.455 Y-9.29 E47.27946
G1 X21.005 Y-7.966 E48.42029
G1 X21.328 Y-7.062 E49.18417
G1 X21.801 Y-5.424 E50.54083
G1 X21.962 Y-4.753 E51.08992
G1 X22.294 Y-2.806 E52.66157
G1 X22.348 Y-2.391 E52.99458
G1 X22.481 Y0 E54.90011
G1 X22.348 Y2.391 E56.80564
G1 X22.294 Y2.806 E57.13865
G1 X21.962 Y4.753 E58.7103
G1 X21.801 Y5.424 E59.25939
G1 X21.328 Y7.062 E60.61605
G1 X21.005 Y7.966 E61.37993
G1 X20.455 Y9.29 E62.52076
G1 X19.914 Y10.396 E63.50048
G1 X19.351 Y11.413 E64.42547
G1 X18.709 Y12.436 E65.38652
G1 X18.029 Y13.407 E66.3298
G1 X16.918 Y14.789 E67.74079
G1 X16.503 Y15.251 E68.23496
G1 X15.267 Y16.489 E69.627
G1 X14.791 Y16.924 E70.14011
G1 X12.912 Y18.407 E72.04487
G1 X10.884 Y19.68 E73.95019
G1 X8.728 Y20.722 E75.85564
G1 X8.296 Y20.893 E76.22535
G1 X6.474 Y21.529 E77.76096
G1 X6.052 Y21.652 E78.11073
G1 X4.148 Y22.094 E79.66609
G1 X3.156 Y22.256 E80.46591
G1 X1.776 Y22.409 E81.57075
G1 X.501 Y22.474 E82.58662
G1 X-.616 Y22.473 E83.47545
G1 X-1.867 Y22.404 E84.47242
G1 X-3.002 Y22.283 E85.38069
G1 X-4.504 Y22.029 E86.59285
G1 X-5.354 Y21.842 E87.2854
G1 X-7.36 Y21.257 E88.94813
G1 X-7.647 Y21.156 E89.19023
G1 X-9.556 Y20.366 E90.83421
G1 X-9.855 Y20.23 E91.09559
G1 X-11.951 Y19.072 E93.00106
G1 X-13.907 Y17.69 E94.90681
G1 X-14.3 Y17.367 E95.3116
G1 X-15.705 Y16.11 E96.81173
G1 X-16.251 Y15.554 E97.43181
G1 X-17.326 Y14.349 E98.71677
G1 X-17.798 Y13.759 E99.318
G1 X-18.751 Y12.427 E100.62126
G1 X-19.449 Y11.305 E101.67273
G1 X-19.966 Y10.366 E102.52569
G1 X-20.531 Y9.197 E103.55885
G1 X-20.956 Y8.187 E104.43079
G1 X-21.476 Y6.707 E105.67905
G1 X-21.711 Y5.916 E106.33566
G1 X-22.122 Y4.122 E107.80018
G1 X-22.222 Y3.577 E108.24109
G1 X-22.482 Y1.197 E110.1462
G1 X-22.482 Y-1.197 E112.05118
G1 X-22.227 Y-3.532 E113.92026
G1 X-21.188 Y-7.394 F7800
M107
;TYPE:Custom
; Filament-specific end gcode 
;END gcode for filament
M104 S0 ; turn off temperature
G28 X0  ; home X axis
M84     ; disable motors
; objects_info = {"objects":[]}
; filament used [mm] = 447.68
; filament used [cm3] = 5.63
; total filament used [g] = 0.00
; total filament cost = 0.00
; total filament used for wipe tower [g] = 0.00
; estimated printing time (normal mode) = 23s
; estimated first layer printing time (normal mode) = 6s

; prusaslicer_config = begin
; arc_fitting = disabled
; autoemit_temperature_commands = 1
; automatic_extrusion_widths = 0
; automatic_infill_combination = 0
; automatic_infill_combination_max_layer_height = 100%
; avoid_crossing_curled_overhangs = 0
; avoid_crossing_perimeters = 0
; avoid_crossing_perimeters_max_detour = 0
; bed_custom_model = 
; bed_custom_texture = 
; bed_shape = -250x-250,250x-250,250x250,-250x250
; bed_temperature = 0
; bed_temperature_extruder = 0
; before_layer_gcode = 
; between_objects_gcode = 
; binary_gcode = 0
; bottom_fill_pattern = monotonic
; bottom_solid_layers = 0
; bottom_solid_min_thickness = 0
; bridge_acceleration = 0
; bridge_angle = 0
; bridge_fan_speed = 100
; bridge_flow_ratio = 1
; bridge_speed = 60
; brim_separation = 0
; brim_type = no_brim
; brim_width = 0
; chamber_minimal_temperature = 0
; chamber_temperature = 0
; color_change_gcode = M600
; colorprint_heights = 
; complete_objects = 0
; cooling = 1
; cooling_perimeter_transition_distance = 0
; cooling_slowdown_logic = uniform_cooling
; cooling_tube_length = 5
; cooling_tube_retraction = 91.5
; custom_parameters_filament = ""
; custom_parameters_print = 
; custom_parameters_printer = 
; default_acceleration = 0
; default_filament_profile = 
; default_print_profile = 
; deretract_speed = 0
; disable_fan_first_layers = 3
; dont_support_bridges = 1
; draft_shield = disabled
; duplicate_distance = 6
; elefant_foot_compensation = 0
; enable_dynamic_fan_speeds = 0
; enable_dynamic_overhang_speeds = 0
; end_filament_gcode = "; Filament-specific end gcode \n;END gcode for filament\n"
; end_gcode = M104 S0 ; turn off temperature\nG28 X0  ; home X axis\nM84     ; disable motors\n
; ensure_vertical_shell_thickness = enabled
; external_perimeter_acceleration = 0
; external_perimeter_extrusion_width = 4.5
; external_perimeter_speed = 50%
; external_perimeters_first = 0
; extra_loading_move = -2
; extra_perimeters = 1
; extra_perimeters_on_overhangs = 0
; extruder_clearance_height = 20
; extruder_clearance_radius = 20
; extruder_colour = ""
; extruder_offset = 0x0
; extrusion_axis = E
; extrusion_multiplier = 1
; extrusion_width = 3.8
; fan_always_on = 0
; fan_below_layer_time = 60
; filament_abrasive = 0
; filament_colour = #29B2B2
; filament_cooling_final_speed = 3.4
; filament_cooling_initial_speed = 2.2
; filament_cooling_moves = 4
; filament_cost = 0
; filament_density = 0
; filament_deretract_speed = nil
; filament_diameter = 4
; filament_infill_max_crossing_speed = 0
; filament_infill_max_speed = 0
; filament_load_time = 0
; filament_loading_speed = 28
; filament_loading_speed_start = 3
; filament_max_volumetric_speed = 0
; filament_minimal_purge_on_wipe_tower = 15
; filament_multitool_ramming = 0
; filament_multitool_ramming_flow = 10
