DEF D_5_H_CLEANED()
;FOLD INI
  ;FOLD BASISTECH INI
    BAS (#INITMOV,0)
  ;ENDFOLD (BASISTECH INI)
  ;FOLD USER INI
    ;WAAM-optimized initialization with weaving capability
  ;ENDFOLD (USER INI)
;ENDFOLD (INI)

BASE_DATA[10] = {FRAME: X 270.73, Y -630.81, Z 710.35, A 179.93, B -0.22, C -1.44}
TOOL_DATA[6] = {FRAME: X -14.67, Y -33.93, Z 286.30, A 0, B 0, C 0}
$BASE = BASE_DATA[10]
$TOOL = TOOL_DATA[6]

BAS (#VEL_PTP,100)
BAS (#ACC_PTP,100)
BAS (#VEL_CP,0.0050)
BAS (#ACC_CP,0.05)

$VEL.CP = 0.0050
$ACC.CP = 0.05
$VEL.ORI1 = 90
$VEL.ORI2 = 90
$ACC.ORI1 = 500
$ACC.ORI2 = 500
$ORI_TYPE = #VAR
$ADVANCE = 1
$APO.CDIS = 0.25

; Taught position mode - skipping HOME move
; Robot should already be at desired starting position
$OUT[1] = FALSE

;===========
; BEGIN WAAM PROCESS
;===========

; TAUGHT START POSITION MODE ENABLED
; Robot will read current position at startup as substrate origin
; X, Y and Z coordinates are offset
; Jog robot to desired starting point before running this program

; Read current robot position as taught starting point
TAUGHT_START = $POS_ACT

; First motion must be PTP to satisfy KUKA controller requirement
; Moving to taught position (already there, but satisfies KSS01443)
PTP TAUGHT_START

; SAFETY DELAY - 7.5 seconds before starting weld process
; This allows operator to verify position and move to safety
WAIT SEC 7.5

; First weld point offset from taught position: X=0.000, Y=0.000 (Z is absolute)

; Welding strategy: ALTERNATING (A->B, B->A, A->B...)
; Travel stabilization delay: 5.0s (wait after travel before Z lowers)
; ;LAYER_CHANGE
; ;Z:2
OFFSET_POS = {X 0.000, Y 0.000, Z 2.000, A 0, B 0, C 0}
TARGET_POS = TAUGHT_START
TARGET_POS.X = TAUGHT_START.X + OFFSET_POS.X
TARGET_POS.Y = TAUGHT_START.Y + OFFSET_POS.Y
TARGET_POS.Z = TAUGHT_START.Z + OFFSET_POS.Z
TARGET_POS.A = TAUGHT_START.A
TARGET_POS.B = TAUGHT_START.B
TARGET_POS.C = TAUGHT_START.C
LIN TARGET_POS C_DIS
$OUT[1] = TRUE
WAIT SEC 0.200
OFFSET_POS = {X -0.869, Y 0.097, Z 2.000, A 0, B 0, C 0}
TARGET_POS = TAUGHT_START
TARGET_POS.X = TAUGHT_START.X + OFFSET_POS.X
TARGET_POS.Y = TAUGHT_START.Y + OFFSET_POS.Y
TARGET_POS.Z = TAUGHT_START.Z + OFFSET_POS.Z
TARGET_POS.A = TAUGHT_START.A
TARGET_POS.B = TAUGHT_START.B
TARGET_POS.C = TAUGHT_START.C
LIN TARGET_POS C_DIS
CONTINUE
OFFSET_POS = {X -1.368, Y 0.103, Z 2.000, A 0, B 0, C 0}
TARGET_POS = TAUGHT_START
TARGET_POS.X = TAUGHT_START.X + OFFSET_POS.X
TARGET_POS.Y = TAUGHT_START.Y + OFFSET_POS.Y
TARGET_POS.Z = TAUGHT_START.Z + OFFSET_POS.Z
TARGET_POS.A = TAUGHT_START.A
TARGET_POS.B = TAUGHT_START.B
TARGET_POS.C = TAUGHT_START.C
LIN TARGET_POS C_DIS
CONTINUE
OFFSET_POS = {X -1.875, Y 0.060, Z 2.000, A 0, B 0, C 0}
TARGET_POS = TAUGHT_START
TARGET_POS.X = TAUGHT_START.X + OFFSET_POS.X
TARGET_POS.Y = TAUGHT_START.Y + OFFSET_POS.Y
TARGET_POS.Z = TAUGHT_START.Z + OFFSET_POS.Z
TARGET_POS.A = TAUGHT_START.A
TARGET_POS.B = TAUGHT_START.B
TARGET_POS.C = TAUGHT_START.C
LIN TARGET_POS C_DIS
CONTINUE
OFFSET_POS = {X -2.232, Y 0.011, Z 2.000, A 0, B 0, C 0}
TARGET_POS = TAUGHT_START
TARGET_POS.X = TAUGHT_START.X + OFFSET_POS.X
TARGET_POS.Y = TAUGHT_START.Y + OFFSET_POS.Y
TARGET_POS.Z = TAUGHT_START.Z + OFFSET_POS.Z
TARGET_POS.A = TAUGHT_START.A
TARGET_POS.B = TAUGHT_START.B
TARGET_POS.C = TAUGHT_START.C
LIN TARGET_POS C_DIS
$OUT[1] = FALSE
WAIT SEC 0.200
WAIT SEC 55.00
OFFSET_POS = {X 27.383, Y -28.374, Z 2.000, A 0, B 0, C 0}
TARGET_POS = TAUGHT_START
TARGET_POS.X = TAUGHT_START.X + OFFSET_POS.X
TARGET_POS.Y = TAUGHT_START.Y + OFFSET_POS.Y
TARGET_POS.Z = TAUGHT_START.Z + OFFSET_POS.Z
TARGET_POS.A = TAUGHT_START.A
TARGET_POS.B = TAUGHT_START.B
TARGET_POS.C = TAUGHT_START.C
LIN TARGET_POS C_DIS
$OUT[1] = TRUE
WAIT SEC 0.200
OFFSET_POS = {X 27.364, Y -28.625, Z 2.000, A 0, B 0, C 0}
TARGET_POS = TAUGHT_START
TARGET_POS.X = TAUGHT_START.X + OFFSET_POS.X
TARGET_POS.Y = TAUGHT_START.Y + OFFSET_POS.Y
TARGET_POS.Z = TAUGHT_START.Z + OFFSET_POS.Z
TARGET_POS.A = TAUGHT_START.A
TARGET_POS.B = TAUGHT_START.B
TARGET_POS.C = TAUGHT_START.C
LIN TARGET_POS C_DIS
CONTINUE
OFFSET_POS = {X 27.256, Y -29.486, Z 2.000, A 0, B 0, C 0}
TARGET_POS = TAUGHT_START
TARGET_POS.X = TAUGHT_START.X + OFFSET_POS.X
TARGET_POS.Y = TAUGHT_START.Y + OFFSET_POS.Y
TARGET_POS.Z = TAUGHT_START.Z + OFFSET_POS.Z
TARGET_POS.A = TAUGHT_START.A
TARGET_POS.B = TAUGHT_START.B
TARGET_POS.C = TAUGHT_START.C
LIN TARGET_POS C_DIS
CONTINUE
OFFSET_POS = {X 27.251, Y -27.213, Z 2.000, A 0, B 0, C 0}
TARGET_POS = TAUGHT_START
TARGET_POS.X = TAUGHT_START.X + OFFSET_POS.X
TARGET_POS.Y = TAUGHT_START.Y + OFFSET_POS.Y
TARGET_POS.Z = TAUGHT_START.Z + OFFSET_POS.Z
TARGET_POS.A = TAUGHT_START.A
TARGET_POS.B = TAUGHT_START.B
TARGET_POS.C = TAUGHT_START.C
LIN TARGET_POS C_DIS
$OUT[1] = FALSE
WAIT SEC 0.200
WAIT SEC 55.00
OFFSET_POS = {X -1.368, Y -56.850, Z 2.000, A 0, B 0, C 0}
TARGET_POS = TAUGHT_START
TARGET_POS.X = TAUGHT_START.X + OFFSET_POS.X
TARGET_POS.Y = TAUGHT_START.Y + OFFSET_POS.Y
TARGET_POS.Z = TAUGHT_START.Z + OFFSET_POS.Z
TARGET_POS.A = TAUGHT_START.A
TARGET_POS.B = TAUGHT_START.B
TARGET_POS.C = TAUGHT_START.C
LIN TARGET_POS C_DIS
$OUT[1] = TRUE
WAIT SEC 0.200
OFFSET_POS = {X -0.869, Y -56.844, Z 2.000, A 0, B 0, C 0}
TARGET_POS = TAUGHT_START
TARGET_POS.X = TAUGHT_START.X + OFFSET_POS.X
TARGET_POS.Y = TAUGHT_START.Y + OFFSET_POS.Y
TARGET_POS.Z = TAUGHT_START.Z + OFFSET_POS.Z
TARGET_POS.A = TAUGHT_START.A
TARGET_POS.B = TAUGHT_START.B
TARGET_POS.C = TAUGHT_START.C
LIN TARGET_POS C_DIS
CONTINUE
OFFSET_POS = {X -0.005, Y -56.747, Z 2.000, A 0, B 0, C 0}
TARGET_POS = TAUGHT_START
TARGET_POS.X = TAUGHT_START.X + OFFSET_POS.X
TARGET_POS.Y = TAUGHT_START.Y + OFFSET_POS.Y
TARGET_POS.Z = TAUGHT_START.Z + OFFSET_POS.Z
TARGET_POS.A = TAUGHT_START.A
TARGET_POS.B = TAUGHT_START.B
TARGET_POS.C = TAUGHT_START.C
LIN TARGET_POS C_DIS
$OUT[1] = FALSE
WAIT SEC 0.200
WAIT SEC 55.00
OFFSET_POS = {X -4.050, Y -56.246, Z 2.000, A 0, B 0, C 0}
TARGET_POS = TAUGHT_START
TARGET_POS.X = TAUGHT_START.X + OFFSET_POS.X
TARGET_POS.Y = TAUGHT_START.Y + OFFSET_POS.Y
TARGET_POS.Z = TAUGHT_START.Z + OFFSET_POS.Z
TARGET_POS.A = TAUGHT_START.A
TARGET_POS.B = TAUGHT_START.B
TARGET_POS.C = TAUGHT_START.C
LIN TARGET_POS C_DIS
$OUT[1] = TRUE
WAIT SEC 0.200
OFFSET_POS = {X -4.135, Y -56.221, Z 2.000, A 0, B 0, C 0}
TARGET_POS = TAUGHT_START
TARGET_POS.X = TAUGHT_START.X + OFFSET_POS.X
TARGET_POS.Y = TAUGHT_START.Y + OFFSET_POS.Y
TARGET_POS.Z = TAUGHT_START.Z + OFFSET_POS.Z
TARGET_POS.A = TAUGHT_START.A
TARGET_POS.B = TAUGHT_START.B
TARGET_POS.C = TAUGHT_START.C
LIN TARGET_POS C_DIS
CONTINUE
OFFSET_POS = {X -4.307, Y -56.171, Z 2.000, A 0, B 0, C 0}
TARGET_POS = TAUGHT_START
TARGET_POS.X = TAUGHT_START.X + OFFSET_POS.X
TARGET_POS.Y = TAUGHT_START.Y + OFFSET_POS.Y
TARGET_POS.Z = TAUGHT_START.Z + OFFSET_POS.Z
TARGET_POS.A = TAUGHT_START.A
TARGET_POS.B = TAUGHT_START.B
TARGET_POS.C = TAUGHT_START.C
LIN TARGET_POS C_DIS
CONTINUE
OFFSET_POS = {X -4.394, Y -56.145, Z 2.000, A 0, B 0, C 0}
TARGET_POS = TAUGHT_START
TARGET_POS.X = TAUGHT_START.X + OFFSET_POS.X
TARGET_POS.Y = TAUGHT_START.Y + OFFSET_POS.Y
TARGET_POS.Z = TAUGHT_START.Z + OFFSET_POS.Z
TARGET_POS.A = TAUGHT_START.A
TARGET_POS.B = TAUGHT_START.B
TARGET_POS.C = TAUGHT_START.C
LIN TARGET_POS C_DIS
CONTINUE
OFFSET_POS = {X -4.481, Y -56.118, Z 2.000, A 0, B 0, C 0}
TARGET_POS = TAUGHT_START
TARGET_POS.X = TAUGHT_START.X + OFFSET_POS.X
TARGET_POS.Y = TAUGHT_START.Y + OFFSET_POS.Y
TARGET_POS.Z = TAUGHT_START.Z + OFFSET_POS.Z
TARGET_POS.A = TAUGHT_START.A
TARGET_POS.B = TAUGHT_START.B
TARGET_POS.C = TAUGHT_START.C
LIN TARGET_POS C_DIS
CONTINUE
OFFSET_POS = {X -4.569, Y -56.092, Z 2.000, A 0, B 0, C 0}
TARGET_POS = TAUGHT_START
TARGET_POS.X = TAUGHT_START.X + OFFSET_POS.X
TARGET_POS.Y = TAUGHT_START.Y + OFFSET_POS.Y
TARGET_POS.Z = TAUGHT_START.Z + OFFSET_POS.Z
TARGET_POS.A = TAUGHT_START.A
TARGET_POS.B = TAUGHT_START.B
TARGET_POS.C = TAUGHT_START.C
LIN TARGET_POS C_DIS
CONTINUE
OFFSET_POS = {X -4.656, Y -56.066, Z 2.000, A 0, B 0, C 0}
TARGET_POS = TAUGHT_START
TARGET_POS.X = TAUGHT_START.X + OFFSET_POS.X
TARGET_POS.Y = TAUGHT_START.Y + OFFSET_POS.Y
TARGET_POS.Z = TAUGHT_START.Z + OFFSET_POS.Z
TARGET_POS.A = TAUGHT_START.A
TARGET_POS.B = TAUGHT_START.B
TARGET_POS.C = TAUGHT_START.C
LIN TARGET_POS C_DIS
CONTINUE
OFFSET_POS = {X -4.743, Y -56.039, Z 2.000, A 0, B 0, C 0}
TARGET_POS = TAUGHT_START
TARGET_POS.X = TAUGHT_START.X + OFFSET_POS.X
TARGET_POS.Y = TAUGHT_START.Y + OFFSET_POS.Y
TARGET_POS.Z = TAUGHT_START.Z + OFFSET_POS.Z
TARGET_POS.A = TAUGHT_START.A
TARGET_POS.B = TAUGHT_START.B
TARGET_POS.C = TAUGHT_START.C
LIN TARGET_POS C_DIS
CONTINUE
OFFSET_POS = {X -5.021, Y -55.934, Z 2.000, A 0, B 0, C 0}
TARGET_POS = TAUGHT_START
TARGET_POS.X = TAUGHT_START.X + OFFSET_POS.X
TARGET_POS.Y = TAUGHT_START.Y + OFFSET_POS.Y
TARGET_POS.Z = TAUGHT_START.Z + OFFSET_POS.Z
TARGET_POS.A = TAUGHT_START.A
TARGET_POS.B = TAUGHT_START.B
TARGET_POS.C = TAUGHT_START.C
LIN TARGET_POS C_DIS
CONTINUE
OFFSET_POS = {X -5.299, Y -55.828, Z 2.000, A 0, B 0, C 0}
TARGET_POS = TAUGHT_START
TARGET_POS.X = TAUGHT_START.X + OFFSET_POS.X
TARGET_POS.Y = TAUGHT_START.Y + OFFSET_POS.Y
TARGET_POS.Z = TAUGHT_START.Z + OFFSET_POS.Z
TARGET_POS.A = TAUGHT_START.A
TARGET_POS.B = TAUGHT_START.B
TARGET_POS.C = TAUGHT_START.C
LIN TARGET_POS C_DIS
CONTINUE
OFFSET_POS = {X -5.577, Y -55.722, Z 2.000, A 0, B 0, C 0}
TARGET_POS = TAUGHT_START
TARGET_POS.X = TAUGHT_START.X + OFFSET_POS.X
TARGET_POS.Y = TAUGHT_START.Y + OFFSET_POS.Y
TARGET_POS.Z = TAUGHT_START.Z + OFFSET_POS.Z
TARGET_POS.A = TAUGHT_START.A
TARGET_POS.B = TAUGHT_START.B
TARGET_POS.C = TAUGHT_START.C
LIN TARGET_POS C_DIS
CONTINUE
OFFSET_POS = {X -5.855, Y -55.616, Z 2.000, A 0, B 0, C 0}
TARGET_POS = TAUGHT_START
TARGET_POS.X = TAUGHT_START.X + OFFSET_POS.X
TARGET_POS.Y = TAUGHT_START.Y + OFFSET_POS.Y
TARGET_POS.Z = TAUGHT_START.Z + OFFSET_POS.Z
TARGET_POS.A = TAUGHT_START.A
TARGET_POS.B = TAUGHT_START.B
TARGET_POS.C = TAUGHT_START.C
LIN TARGET_POS C_DIS
CONTINUE
OFFSET_POS = {X -6.133, Y -55.511, Z 2.000, A 0, B 0, C 0}
TARGET_POS = TAUGHT_START
TARGET_POS.X = TAUGHT_START.X + OFFSET_POS.X
TARGET_POS.Y = TAUGHT_START.Y + OFFSET_POS.Y
TARGET_POS.Z = TAUGHT_START.Z + OFFSET_POS.Z
TARGET_POS.A = TAUGHT_START.A
TARGET_POS.B = TAUGHT_START.B
TARGET_POS.C = TAUGHT_START.C
LIN TARGET_POS C_DIS
CONTINUE
OFFSET_POS = {X -7.676, Y -55.220, Z 2.000, A 0, B 0, C 0}
TARGET_POS = TAUGHT_START
TARGET_POS.X = TAUGHT_START.X + OFFSET_POS.X
TARGET_POS.Y = TAUGHT_START.Y + OFFSET_POS.Y
TARGET_POS.Z = TAUGHT_START.Z + OFFSET_POS.Z
TARGET_POS.A = TAUGHT_START.A
TARGET_POS.B = TAUGHT_START.B
TARGET_POS.C = TAUGHT_START.C
LIN TARGET_POS C_DIS
CONTINUE
OFFSET_POS = {X -8.232, Y -55.052, Z 2.000, A 0, B 0, C 0}
TARGET_POS = TAUGHT_START
TARGET_POS.X = TAUGHT_START.X + OFFSET_POS.X
TARGET_POS.Y = TAUGHT_START.Y + OFFSET_POS.Y
TARGET_POS.Z = TAUGHT_START.Z + OFFSET_POS.Z
TARGET_POS.A = TAUGHT_START.A
TARGET_POS.B = TAUGHT_START.B
TARGET_POS.C = TAUGHT_START.C
LIN TARGET_POS C_DIS
CONTINUE
OFFSET_POS = {X -9.351, Y -54.728, Z 2.000, A 0, B 0, C 0}
TARGET_POS = TAUGHT_START
TARGET_POS.X = TAUGHT_START.X + OFFSET_POS.X
TARGET_POS.Y = TAUGHT_START.Y + OFFSET_POS.Y
TARGET_POS.Z = TAUGHT_START.Z + OFFSET_POS.Z
TARGET_POS.A = TAUGHT_START.A
TARGET_POS.B = TAUGHT_START.B
TARGET_POS.C = TAUGHT_START.C
LIN TARGET_POS C_DIS
CONTINUE
OFFSET_POS = {X -9.864, Y -54.570, Z 2.000, A 0, B 0, C 0}
TARGET_POS = TAUGHT_START
TARGET_POS.X = TAUGHT_START.X + OFFSET_POS.X
TARGET_POS.Y = TAUGHT_START.Y + OFFSET_POS.Y
TARGET_POS.Z = TAUGHT_START.Z + OFFSET_POS.Z
TARGET_POS.A = TAUGHT_START.A
TARGET_POS.B = TAUGHT_START.B
TARGET_POS.C = TAUGHT_START.C
LIN TARGET_POS C_DIS
CONTINUE
OFFSET_POS = {X -10.512, Y -54.359, Z 2.000, A 0, B 0, C 0}
TARGET_POS = TAUGHT_START
TARGET_POS.X = TAUGHT_START.X + OFFSET_POS.X
TARGET_POS.Y = TAUGHT_START.Y + OFFSET_POS.Y
TARGET_POS.Z = TAUGHT_START.Z + OFFSET_POS.Z
TARGET_POS.A = TAUGHT_START.A
TARGET_POS.B = TAUGHT_START.B
TARGET_POS.C = TAUGHT_START.C
LIN TARGET_POS C_DIS
CONTINUE
OFFSET_POS = {X -12.554, Y -53.511, Z 2.000, A 0, B 0, C 0}
TARGET_POS = TAUGHT_START
TARGET_POS.X = TAUGHT_START.X + OFFSET_POS.X
TARGET_POS.Y = TAUGHT_START.Y + OFFSET_POS.Y
TARGET_POS.Z = TAUGHT_START.Z + OFFSET_POS.Z
TARGET_POS.A = TAUGHT_START.A
TARGET_POS.B = TAUGHT_START.B
TARGET_POS.C = TAUGHT_START.C
LIN TARGET_POS C_DIS
CONTINUE
OFFSET_POS = {X -13.206, Y -53.228, Z 2.000, A 0, B 0, C 0}
TARGET_POS = TAUGHT_START
TARGET_POS.X = TAUGHT_START.X + OFFSET_POS.X
TARGET_POS.Y = TAUGHT_START.Y + OFFSET_POS.Y
TARGET_POS.Z = TAUGHT_START.Z + OFFSET_POS.Z
TARGET_POS.A = TAUGHT_START.A
TARGET_POS.B = TAUGHT_START.B
TARGET_POS.C = TAUGHT_START.C
LIN TARGET_POS C_DIS
CONTINUE
OFFSET_POS = {X -15.586, Y -51.912, Z 2.000, A 0, B 0, C 0}
TARGET_POS = TAUGHT_START
TARGET_POS.X = TAUGHT_START.X + OFFSET_POS.X
TARGET_POS.Y = TAUGHT_START.Y + OFFSET_POS.Y
TARGET_POS.Z = TAUGHT_START.Z + OFFSET_POS.Z
TARGET_POS.A = TAUGHT_START.A
TARGET_POS.B = TAUGHT_START.B
TARGET_POS.C = TAUGHT_START.C
LIN TARGET_POS C_DIS
CONTINUE
OFFSET_POS = {X -16.174, Y -51.532, Z 2.000, A 0, B 0, C 0}
TARGET_POS = TAUGHT_START
TARGET_POS.X = TAUGHT_START.X + OFFSET_POS.X
TARGET_POS.Y = TAUGHT_START.Y + OFFSET_POS.Y
TARGET_POS.Z = TAUGHT_START.Z + OFFSET_POS.Z
TARGET_POS.A = TAUGHT_START.A
TARGET_POS.B = TAUGHT_START.B
TARGET_POS.C = TAUGHT_START.C
LIN TARGET_POS C_DIS
CONTINUE
OFFSET_POS = {X -18.089, Y -50.176, Z 2.000, A 0, B 0, C 0}
TARGET_POS = TAUGHT_START
TARGET_POS.X = TAUGHT_START.X + OFFSET_POS.X
TARGET_POS.Y = TAUGHT_START.Y + OFFSET_POS.Y
TARGET_POS.Z = TAUGHT_START.Z + OFFSET_POS.Z
TARGET_POS.A = TAUGHT_START.A
TARGET_POS.B = TAUGHT_START.B
TARGET_POS.C = TAUGHT_START.C
LIN TARGET_POS C_DIS
CONTINUE
OFFSET_POS = {X -18.563, Y -49.789, Z 2.000, A 0, B 0, C 0}
TARGET_POS = TAUGHT_START
TARGET_POS.X = TAUGHT_START.X + OFFSET_POS.X
TARGET_POS.Y = TAUGHT_START.Y + OFFSET_POS.Y
TARGET_POS.Z = TAUGHT_START.Z + OFFSET_POS.Z
TARGET_POS.A = TAUGHT_START.A
TARGET_POS.B = TAUGHT_START.B
TARGET_POS.C = TAUGHT_START.C
LIN TARGET_POS C_DIS
CONTINUE
OFFSET_POS = {X -18.969, Y -49.439, Z 2.000, A 0, B 0, C 0}
TARGET_POS = TAUGHT_START
TARGET_POS.X = TAUGHT_START.X + OFFSET_POS.X
TARGET_POS.Y = TAUGHT_START.Y + OFFSET_POS.Y
TARGET_POS.Z = TAUGHT_START.Z + OFFSET_POS.Z
TARGET_POS.A = TAUGHT_START.A
TARGET_POS.B = TAUGHT_START.B
TARGET_POS.C = TAUGHT_START.C
LIN TARGET_POS C_DIS
CONTINUE
OFFSET_POS = {X -20.308, Y -48.246, Z 2.000, A 0, B 0, C 0}
TARGET_POS = TAUGHT_START
TARGET_POS.X = TAUGHT_START.X + OFFSET_POS.X
TARGET_POS.Y = TAUGHT_START.Y + OFFSET_POS.Y
TARGET_POS.Z = TAUGHT_START.Z + OFFSET_POS.Z
TARGET_POS.A = TAUGHT_START.A
TARGET_POS.B = TAUGHT_START.B
TARGET_POS.C = TAUGHT_START.C
LIN TARGET_POS C_DIS
CONTINUE
OFFSET_POS = {X -21.074, Y -47.457, Z 2.000, A 0, B 0, C 0}
TARGET_POS = TAUGHT_START
TARGET_POS.X = TAUGHT_START.X + OFFSET_POS.X
TARGET_POS.Y = TAUGHT_START.Y + OFFSET_POS.Y
TARGET_POS.Z = TAUGHT_START.Z + OFFSET_POS.Z
TARGET_POS.A = TAUGHT_START.A
TARGET_POS.B = TAUGHT_START.B
TARGET_POS.C = TAUGHT_START.C
LIN TARGET_POS C_DIS
CONTINUE
OFFSET_POS = {X -21.439, Y -47.064, Z 2.000, A 0, B 0, C 0}
TARGET_POS = TAUGHT_START
TARGET_POS.X = TAUGHT_START.X + OFFSET_POS.X
TARGET_POS.Y = TAUGHT_START.Y + OFFSET_POS.Y
TARGET_POS.Z = TAUGHT_START.Z + OFFSET_POS.Z
TARGET_POS.A = TAUGHT_START.A
TARGET_POS.B = TAUGHT_START.B
TARGET_POS.C = TAUGHT_START.C
LIN TARGET_POS C_DIS
CONTINUE
OFFSET_POS = {X -22.388, Y -46.007, Z 2.000, A 0, B 0, C 0}
TARGET_POS = TAUGHT_START
TARGET_POS.X = TAUGHT_START.X + OFFSET_POS.X
TARGET_POS.Y = TAUGHT_START.Y + OFFSET_POS.Y
TARGET_POS.Z = TAUGHT_START.Z + OFFSET_POS.Z
TARGET_POS.A = TAUGHT_START.A
TARGET_POS.B = TAUGHT_START.B
TARGET_POS.C = TAUGHT_START.C
LIN TARGET_POS C_DIS
CONTINUE
OFFSET_POS = {X -23.282, Y -44.836, Z 2.000, A 0, B 0, C 0}
TARGET_POS = TAUGHT_START
TARGET_POS.X = TAUGHT_START.X + OFFSET_POS.X
TARGET_POS.Y = TAUGHT_START.Y + OFFSET_POS.Y
TARGET_POS.Z = TAUGHT_START.Z + OFFSET_POS.Z
TARGET_POS.A = TAUGHT_START.A
TARGET_POS.B = TAUGHT_START.B
TARGET_POS.C = TAUGHT_START.C
LIN TARGET_POS C_DIS
CONTINUE
OFFSET_POS = {X -23.600, Y -44.405, Z 2.000, A 0, B 0, C 0}
TARGET_POS = TAUGHT_START
TARGET_POS.X = TAUGHT_START.X + OFFSET_POS.X
TARGET_POS.Y = TAUGHT_START.Y + OFFSET_POS.Y
TARGET_POS.Z = TAUGHT_START.Z + OFFSET_POS.Z
TARGET_POS.A = TAUGHT_START.A
TARGET_POS.B = TAUGHT_START.B
TARGET_POS.C = TAUGHT_START.C
LIN TARGET_POS C_DIS
CONTINUE
OFFSET_POS = {X -24.150, Y -43.635, Z 2.000, A 0, B 0, C 0}
TARGET_POS = TAUGHT_START
TARGET_POS.X = TAUGHT_START.X + OFFSET_POS.X
TARGET_POS.Y = TAUGHT_START.Y + OFFSET_POS.Y
TARGET_POS.Z = TAUGHT_START.Z + OFFSET_POS.Z
TARGET_POS.A = TAUGHT_START.A
TARGET_POS.B = TAUGHT_START.B
TARGET_POS.C = TAUGHT_START.C
LIN TARGET_POS C_DIS
CONTINUE
OFFSET_POS = {X -25.153, Y -41.966, Z 2.000, A 0, B 0, C 0}
TARGET_POS = TAUGHT_START
TARGET_POS.X = TAUGHT_START.X + OFFSET_POS.X
TARGET_POS.Y = TAUGHT_START.Y + OFFSET_POS.Y
TARGET_POS.Z = TAUGHT_START.Z + OFFSET_POS.Z
TARGET_POS.A = TAUGHT_START.A
TARGET_POS.B = TAUGHT_START.B
TARGET_POS.C = TAUGHT_START.C
LIN TARGET_POS C_DIS
CONTINUE
OFFSET_POS = {X -25.422, Y -41.501, Z 2.000, A 0, B 0, C 0}
TARGET_POS = TAUGHT_START
TARGET_POS.X = TAUGHT_START.X + OFFSET_POS.X
TARGET_POS.Y = TAUGHT_START.Y + OFFSET_POS.Y
TARGET_POS.Z = TAUGHT_START.Z + OFFSET_POS.Z
TARGET_POS.A = TAUGHT_START.A
TARGET_POS.B = TAUGHT_START.B
TARGET_POS.C = TAUGHT_START.C
LIN TARGET_POS C_DIS
CONTINUE
OFFSET_POS = {X -25.687, Y -41.012, Z 2.000, A 0, B 0, C 0}
TARGET_POS = TAUGHT_START
TARGET_POS.X = TAUGHT_START.X + OFFSET_POS.X
TARGET_POS.Y = TAUGHT_START.Y + OFFSET_POS.Y
TARGET_POS.Z = TAUGHT_START.Z + OFFSET_POS.Z
TARGET_POS.A = TAUGHT_START.A
TARGET_POS.B = TAUGHT_START.B
TARGET_POS.C = TAUGHT_START.C
LIN TARGET_POS C_DIS
CONTINUE
OFFSET_POS = {X -26.660, Y -38.888, Z 2.000, A 0, B 0, C 0}
TARGET_POS = TAUGHT_START
TARGET_POS.X = TAUGHT_START.X + OFFSET_POS.X
TARGET_POS.Y = TAUGHT_START.Y + OFFSET_POS.Y
TARGET_POS.Z = TAUGHT_START.Z + OFFSET_POS.Z
TARGET_POS.A = TAUGHT_START.A
TARGET_POS.B = TAUGHT_START.B
TARGET_POS.C = TAUGHT_START.C
LIN TARGET_POS C_DIS
CONTINUE
OFFSET_POS = {X -26.900, Y -38.323, Z 2.000, A 0, B 0, C 0}
TARGET_POS = TAUGHT_START
TARGET_POS.X = TAUGHT_START.X + OFFSET_POS.X
TARGET_POS.Y = TAUGHT_START.Y + OFFSET_POS.Y
TARGET_POS.Z = TAUGHT_START.Z + OFFSET_POS.Z
TARGET_POS.A = TAUGHT_START.A
TARGET_POS.B = TAUGHT_START.B
TARGET_POS.C = TAUGHT_START.C
LIN TARGET_POS C_DIS
CONTINUE
OFFSET_POS = {X -27.798, Y -35.594, Z 2.000, A 0, B 0, C 0}
TARGET_POS = TAUGHT_START
TARGET_POS.X = TAUGHT_START.X + OFFSET_POS.X
TARGET_POS.Y = TAUGHT_START.Y + OFFSET_POS.Y
TARGET_POS.Z = TAUGHT_START.Z + OFFSET_POS.Z
TARGET_POS.A = TAUGHT_START.A
TARGET_POS.B = TAUGHT_START.B
TARGET_POS.C = TAUGHT_START.C
LIN TARGET_POS C_DIS
CONTINUE
OFFSET_POS = {X -28.409, Y -32.771, Z 2.000, A 0, B 0, C 0}
TARGET_POS = TAUGHT_START
TARGET_POS.X = TAUGHT_START.X + OFFSET_POS.X
TARGET_POS.Y = TAUGHT_START.Y + OFFSET_POS.Y
TARGET_POS.Z = TAUGHT_START.Z + OFFSET_POS.Z
TARGET_POS.A = TAUGHT_START.A
TARGET_POS.B = TAUGHT_START.B
TARGET_POS.C = TAUGHT_START.C
LIN TARGET_POS C_DIS
CONTINUE
OFFSET_POS = {X -28.494, Y -31.975, Z 2.000, A 0, B 0, C 0}
TARGET_POS = TAUGHT_START
TARGET_POS.X = TAUGHT_START.X + OFFSET_POS.X
TARGET_POS.Y = TAUGHT_START.Y + OFFSET_POS.Y
TARGET_POS.Z = TAUGHT_START.Z + OFFSET_POS.Z
TARGET_POS.A = TAUGHT_START.A
TARGET_POS.B = TAUGHT_START.B
TARGET_POS.C = TAUGHT_START.C
LIN TARGET_POS C_DIS
CONTINUE
OFFSET_POS = {X -27.869, Y -32.362, Z 2.000, A 0, B 0, C 0}
TARGET_POS = TAUGHT_START
TARGET_POS.X = TAUGHT_START.X + OFFSET_POS.X
TARGET_POS.Y = TAUGHT_START.Y + OFFSET_POS.Y
TARGET_POS.Z = TAUGHT_START.Z + OFFSET_POS.Z
TARGET_POS.A = TAUGHT_START.A
TARGET_POS.B = TAUGHT_START.B
TARGET_POS.C = TAUGHT_START.C
LIN TARGET_POS C_DIS
CONTINUE
OFFSET_POS = {X -27.384, Y -32.521, Z 2.000, A 0, B 0, C 0}
TARGET_POS = TAUGHT_START
TARGET_POS.X = TAUGHT_START.X + OFFSET_POS.X
TARGET_POS.Y = TAUGHT_START.Y + OFFSET_POS.Y
TARGET_POS.Z = TAUGHT_START.Z + OFFSET_POS.Z
TARGET_POS.A = TAUGHT_START.A
TARGET_POS.B = TAUGHT_START.B
TARGET_POS.C = TAUGHT_START.C
LIN TARGET_POS C_DIS
CONTINUE
OFFSET_POS = {X -26.535, Y -32.690, Z 2.000, A 0, B 0, C 0}
TARGET_POS = TAUGHT_START
TARGET_POS.X = TAUGHT_START.X + OFFSET_POS.X
TARGET_POS.Y = TAUGHT_START.Y + OFFSET_POS.Y
TARGET_POS.Z = TAUGHT_START.Z + OFFSET_POS.Z
TARGET_POS.A = TAUGHT_START.A
TARGET_POS.B = TAUGHT_START.B
TARGET_POS.C = TAUGHT_START.C
LIN TARGET_POS C_DIS
CONTINUE
OFFSET_POS = {X -25.944, Y -32.724, Z 2.000, A 0, B 0, C 0}
TARGET_POS = TAUGHT_START
TARGET_POS.X = TAUGHT_START.X + OFFSET_POS.X
TARGET_POS.Y = TAUGHT_START.Y + OFFSET_POS.Y
TARGET_POS.Z = TAUGHT_START.Z + OFFSET_POS.Z
TARGET_POS.A = TAUGHT_START.A
TARGET_POS.B = TAUGHT_START.B
TARGET_POS.C = TAUGHT_START.C
LIN TARGET_POS C_DIS
CONTINUE
OFFSET_POS = {X -24.851, Y -32.521, Z 2.000, A 0, B 0, C 0}
TARGET_POS = TAUGHT_START
TARGET_POS.X = TAUGHT_START.X + OFFSET_POS.X
TARGET_POS.Y = TAUGHT_START.Y + OFFSET_POS.Y
TARGET_POS.Z = TAUGHT_START.Z + OFFSET_POS.Z
TARGET_POS.A = TAUGHT_START.A
TARGET_POS.B = TAUGHT_START.B
TARGET_POS.C = TAUGHT_START.C
LIN TARGET_POS C_DIS
CONTINUE
OFFSET_POS = {X -24.096, Y -32.179, Z 2.000, A 0, B 0, C 0}
TARGET_POS = TAUGHT_START
TARGET_POS.X = TAUGHT_START.X + OFFSET_POS.X
TARGET_POS.Y = TAUGHT_START.Y + OFFSET_POS.Y
TARGET_POS.Z = TAUGHT_START.Z + OFFSET_POS.Z
TARGET_POS.A = TAUGHT_START.A
TARGET_POS.B = TAUGHT_START.B
TARGET_POS.C = TAUGHT_START.C
LIN TARGET_POS C_DIS
CONTINUE
OFFSET_POS = {X -23.942, Y -33.134, Z 2.000, A 0, B 0, C 0}
TARGET_POS = TAUGHT_START
TARGET_POS.X = TAUGHT_START.X + OFFSET_POS.X
TARGET_POS.Y = TAUGHT_START.Y + OFFSET_POS.Y
TARGET_POS.Z = TAUGHT_START.Z + OFFSET_POS.Z
TARGET_POS.A = TAUGHT_START.A
TARGET_POS.B = TAUGHT_START.B
TARGET_POS.C = TAUGHT_START.C
LIN TARGET_POS C_DIS
CONTINUE
OFFSET_POS = {X -23.733, Y -34.227, Z 2.000, A 0, B 0, C 0}
TARGET_POS = TAUGHT_START
TARGET_POS.X = TAUGHT_START.X + OFFSET_POS.X
TARGET_POS.Y = TAUGHT_START.Y + OFFSET_POS.Y
TARGET_POS.Z = TAUGHT_START.Z + OFFSET_POS.Z
TARGET_POS.A = TAUGHT_START.A
TARGET_POS.B = TAUGHT_START.B
TARGET_POS.C = TAUGHT_START.C
LIN TARGET_POS C_DIS
CONTINUE
OFFSET_POS = {X -22.844, Y -36.952, Z 2.000, A 0, B 0, C 0}
TARGET_POS = TAUGHT_START
TARGET_POS.X = TAUGHT_START.X + OFFSET_POS.X
TARGET_POS.Y = TAUGHT_START.Y + OFFSET_POS.Y
TARGET_POS.Z = TAUGHT_START.Z + OFFSET_POS.Z
TARGET_POS.A = TAUGHT_START.A
TARGET_POS.B = TAUGHT_START.B
TARGET_POS.C = TAUGHT_START.C
LIN TARGET_POS C_DIS
CONTINUE
OFFSET_POS = {X -21.790, Y -39.211, Z 2.000, A 0, B 0, C 0}
TARGET_POS = TAUGHT_START
TARGET_POS.X = TAUGHT_START.X + OFFSET_POS.X
TARGET_POS.Y = TAUGHT_START.Y + OFFSET_POS.Y
TARGET_POS.Z = TAUGHT_START.Z + OFFSET_POS.Z
TARGET_POS.A = TAUGHT_START.A
TARGET_POS.B = TAUGHT_START.B
TARGET_POS.C = TAUGHT_START.C
LIN TARGET_POS C_DIS
CONTINUE
OFFSET_POS = {X -21.540, Y -39.691, Z 2.000, A 0, B 0, C 0}
TARGET_POS = TAUGHT_START
TARGET_POS.X = TAUGHT_START.X + OFFSET_POS.X
TARGET_POS.Y = TAUGHT_START.Y + OFFSET_POS.Y
TARGET_POS.Z = TAUGHT_START.Z + OFFSET_POS.Z
TARGET_POS.A = TAUGHT_START.A
TARGET_POS.B = TAUGHT_START.B
TARGET_POS.C = TAUGHT_START.C
LIN TARGET_POS C_DIS
CONTINUE
OFFSET_POS = {X -20.534, Y -41.306, Z 2.000, A 0, B 0, C 0}
TARGET_POS = TAUGHT_START
TARGET_POS.X = TAUGHT_START.X + OFFSET_POS.X
TARGET_POS.Y = TAUGHT_START.Y + OFFSET_POS.Y
TARGET_POS.Z = TAUGHT_START.Z + OFFSET_POS.Z
TARGET_POS.A = TAUGHT_START.A
TARGET_POS.B = TAUGHT_START.B
TARGET_POS.C = TAUGHT_START.C
LIN TARGET_POS C_DIS
CONTINUE
OFFSET_POS = {X -20.014, Y -42.093, Z 2.000, A 0, B 0, C 0}
TARGET_POS = TAUGHT_START
TARGET_POS.X = TAUGHT_START.X + OFFSET_POS.X
TARGET_POS.Y = TAUGHT_START.Y + OFFSET_POS.Y
TARGET_POS.Z = TAUGHT_START.Z + OFFSET_POS.Z
TARGET_POS.A = TAUGHT_START.A
TARGET_POS.B = TAUGHT_START.B
TARGET_POS.C = TAUGHT_START.C
LIN TARGET_POS C_DIS
CONTINUE
OFFSET_POS = {X -19.072, Y -43.262, Z 2.000, A 0, B 0, C 0}
TARGET_POS = TAUGHT_START
TARGET_POS.X = TAUGHT_START.X + OFFSET_POS.X
TARGET_POS.Y = TAUGHT_START.Y + OFFSET_POS.Y
TARGET_POS.Z = TAUGHT_START.Z + OFFSET_POS.Z
TARGET_POS.A = TAUGHT_START.A
TARGET_POS.B = TAUGHT_START.B
TARGET_POS.C = TAUGHT_START.C
LIN TARGET_POS C_DIS
CONTINUE
OFFSET_POS = {X -18.227, Y -44.256, Z 2.000, A 0, B 0, C 0}
TARGET_POS = TAUGHT_START
TARGET_POS.X = TAUGHT_START.X + OFFSET_POS.X
TARGET_POS.Y = TAUGHT_START.Y + OFFSET_POS.Y
TARGET_POS.Z = TAUGHT_START.Z + OFFSET_POS.Z
TARGET_POS.A = TAUGHT_START.A
TARGET_POS.B = TAUGHT_START.B
TARGET_POS.C = TAUGHT_START.C
LIN TARGET_POS C_DIS
CONTINUE
OFFSET_POS = {X -17.420, Y -45.060, Z 2.000, A 0, B 0, C 0}
TARGET_POS = TAUGHT_START
TARGET_POS.X = TAUGHT_START.X + OFFSET_POS.X
TARGET_POS.Y = TAUGHT_START.Y + OFFSET_POS.Y
TARGET_POS.Z = TAUGHT_START.Z + OFFSET_POS.Z
TARGET_POS.A = TAUGHT_START.A
TARGET_POS.B = TAUGHT_START.B
TARGET_POS.C = TAUGHT_START.C
LIN TARGET_POS C_DIS
CONTINUE
OFFSET_POS = {X -16.102, Y -46.276, Z 2.000, A 0, B 0, C 0}
TARGET_POS = TAUGHT_START
TARGET_POS.X = TAUGHT_START.X + OFFSET_POS.X
TARGET_POS.Y = TAUGHT_START.Y + OFFSET_POS.Y
TARGET_POS.Z = TAUGHT_START.Z + OFFSET_POS.Z
TARGET_POS.A = TAUGHT_START.A
TARGET_POS.B = TAUGHT_START.B
TARGET_POS.C = TAUGHT_START.C
LIN TARGET_POS C_DIS
CONTINUE
OFFSET_POS = {X -15.593, Y -46.682, Z 2.000, A 0, B 0, C 0}
TARGET_POS = TAUGHT_START
TARGET_POS.X = TAUGHT_START.X + OFFSET_POS.X
TARGET_POS.Y = TAUGHT_START.Y + OFFSET_POS.Y
TARGET_POS.Z = TAUGHT_START.Z + OFFSET_POS.Z
TARGET_POS.A = TAUGHT_START.A
TARGET_POS.B = TAUGHT_START.B
TARGET_POS.C = TAUGHT_START.C
LIN TARGET_POS C_DIS
CONTINUE
OFFSET_POS = {X -13.607, Y -48.113, Z 2.000, A 0, B 0, C 0}
TARGET_POS = TAUGHT_START
TARGET_POS.X = TAUGHT_START.X + OFFSET_POS.X
TARGET_POS.Y = TAUGHT_START.Y + OFFSET_POS.Y
TARGET_POS.Z = TAUGHT_START.Z + OFFSET_POS.Z
TARGET_POS.A = TAUGHT_START.A
TARGET_POS.B = TAUGHT_START.B
TARGET_POS.C = TAUGHT_START.C
LIN TARGET_POS C_DIS
CONTINUE
OFFSET_POS = {X -11.122, Y -49.482, Z 2.000, A 0, B 0, C 0}
TARGET_POS = TAUGHT_START
TARGET_POS.X = TAUGHT_START.X + OFFSET_POS.X
TARGET_POS.Y = TAUGHT_START.Y + OFFSET_POS.Y
TARGET_POS.Z = TAUGHT_START.Z + OFFSET_POS.Z
TARGET_POS.A = TAUGHT_START.A
TARGET_POS.B = TAUGHT_START.B
TARGET_POS.C = TAUGHT_START.C
LIN TARGET_POS C_DIS
CONTINUE
OFFSET_POS = {X -8.971, Y -50.347, Z 2.000, A 0, B 0, C 0}
TARGET_POS = TAUGHT_START
TARGET_POS.X = TAUGHT_START.X + OFFSET_POS.X
TARGET_POS.Y = TAUGHT_START.Y + OFFSET_POS.Y
TARGET_POS.Z = TAUGHT_START.Z + OFFSET_POS.Z
TARGET_POS.A = TAUGHT_START.A
TARGET_POS.B = TAUGHT_START.B
TARGET_POS.C = TAUGHT_START.C
LIN TARGET_POS C_DIS
CONTINUE
OFFSET_POS = {X -8.348, Y -50.579, Z 2.000, A 0, B 0, C 0}
TARGET_POS = TAUGHT_START
TARGET_POS.X = TAUGHT_START.X + OFFSET_POS.X
TARGET_POS.Y = TAUGHT_START.Y + OFFSET_POS.Y
TARGET_POS.Z = TAUGHT_START.Z + OFFSET_POS.Z
TARGET_POS.A = TAUGHT_START.A
TARGET_POS.B = TAUGHT_START.B
TARGET_POS.C = TAUGHT_START.C
LIN TARGET_POS C_DIS
CONTINUE
OFFSET_POS = {X -7.079, Y -50.919, Z 2.000, A 0, B 0, C 0}
TARGET_POS = TAUGHT_START
TARGET_POS.X = TAUGHT_START.X + OFFSET_POS.X
TARGET_POS.Y = TAUGHT_START.Y + OFFSET_POS.Y
TARGET_POS.Z = TAUGHT_START.Z + OFFSET_POS.Z
TARGET_POS.A = TAUGHT_START.A
TARGET_POS.B = TAUGHT_START.B
TARGET_POS.C = TAUGHT_START.C
LIN TARGET_POS C_DIS
CONTINUE
OFFSET_POS = {X -5.627, Y -51.292, Z 2.000, A 0, B 0, C 0}
TARGET_POS = TAUGHT_START
TARGET_POS.X = TAUGHT_START.X + OFFSET_POS.X
TARGET_POS.Y = TAUGHT_START.Y + OFFSET_POS.Y
TARGET_POS.Z = TAUGHT_START.Z + OFFSET_POS.Z
TARGET_POS.A = TAUGHT_START.A
TARGET_POS.B = TAUGHT_START.B
TARGET_POS.C = TAUGHT_START.C
LIN TARGET_POS C_DIS
CONTINUE
OFFSET_POS = {X -5.362, Y -51.342, Z 2.000, A 0, B 0, C 0}
TARGET_POS = TAUGHT_START
TARGET_POS.X = TAUGHT_START.X + OFFSET_POS.X
TARGET_POS.Y = TAUGHT_START.Y + OFFSET_POS.Y
TARGET_POS.Z = TAUGHT_START.Z + OFFSET_POS.Z
TARGET_POS.A = TAUGHT_START.A
TARGET_POS.B = TAUGHT_START.B
TARGET_POS.C = TAUGHT_START.C
LIN TARGET_POS C_DIS
CONTINUE
OFFSET_POS = {X -4.877, Y -51.337, Z 2.000, A 0, B 0, C 0}
TARGET_POS = TAUGHT_START
TARGET_POS.X = TAUGHT_START.X + OFFSET_POS.X
TARGET_POS.Y = TAUGHT_START.Y + OFFSET_POS.Y
TARGET_POS.Z = TAUGHT_START.Z + OFFSET_POS.Z
TARGET_POS.A = TAUGHT_START.A
TARGET_POS.B = TAUGHT_START.B
TARGET_POS.C = TAUGHT_START.C
LIN TARGET_POS C_DIS
CONTINUE
OFFSET_POS = {X -5.151, Y -51.705, Z 2.000, A 0, B 0, C 0}
TARGET_POS = TAUGHT_START
TARGET_POS.X = TAUGHT_START.X + OFFSET_POS.X
TARGET_POS.Y = TAUGHT_START.Y + OFFSET_POS.Y
TARGET_POS.Z = TAUGHT_START.Z + OFFSET_POS.Z
TARGET_POS.A = TAUGHT_START.A
TARGET_POS.B = TAUGHT_START.B
TARGET_POS.C = TAUGHT_START.C
LIN TARGET_POS C_DIS
CONTINUE
OFFSET_POS = {X -5.273, Y -52.106, Z 2.000, A 0, B 0, C 0}
TARGET_POS = TAUGHT_START
TARGET_POS.X = TAUGHT_START.X + OFFSET_POS.X
TARGET_POS.Y = TAUGHT_START.Y + OFFSET_POS.Y
TARGET_POS.Z = TAUGHT_START.Z + OFFSET_POS.Z
TARGET_POS.A = TAUGHT_START.A
TARGET_POS.B = TAUGHT_START.B
TARGET_POS.C = TAUGHT_START.C
LIN TARGET_POS C_DIS
CONTINUE
OFFSET_POS = {X -5.441, Y -52.955, Z 2.000, A 0, B 0, C 0}
TARGET_POS = TAUGHT_START
TARGET_POS.X = TAUGHT_START.X + OFFSET_POS.X
TARGET_POS.Y = TAUGHT_START.Y + OFFSET_POS.Y
TARGET_POS.Z = TAUGHT_START.Z + OFFSET_POS.Z
TARGET_POS.A = TAUGHT_START.A
TARGET_POS.B = TAUGHT_START.B
TARGET_POS.C = TAUGHT_START.C
LIN TARGET_POS C_DIS
CONTINUE
OFFSET_POS = {X -5.482, Y -53.440, Z 2.000, A 0, B 0, C 0}
TARGET_POS = TAUGHT_START
TARGET_POS.X = TAUGHT_START.X + OFFSET_POS.X
TARGET_POS.Y = TAUGHT_START.Y + OFFSET_POS.Y
TARGET_POS.Z = TAUGHT_START.Z + OFFSET_POS.Z
TARGET_POS.A = TAUGHT_START.A
TARGET_POS.B = TAUGHT_START.B
TARGET_POS.C = TAUGHT_START.C
LIN TARGET_POS C_DIS
CONTINUE
OFFSET_POS = {X -5.273, Y -54.641, Z 2.000, A 0, B 0, C 0}
TARGET_POS = TAUGHT_START
TARGET_POS.X = TAUGHT_START.X + OFFSET_POS.X
TARGET_POS.Y = TAUGHT_START.Y + OFFSET_POS.Y
TARGET_POS.Z = TAUGHT_START.Z + OFFSET_POS.Z
TARGET_POS.A = TAUGHT_START.A
TARGET_POS.B = TAUGHT_START.B
TARGET_POS.C = TAUGHT_START.C
LIN TARGET_POS C_DIS
CONTINUE
OFFSET_POS = {X -5.178, Y -54.776, Z 2.000, A 0, B 0, C 0}
TARGET_POS = TAUGHT_START
TARGET_POS.X = TAUGHT_START.X + OFFSET_POS.X
TARGET_POS.Y = TAUGHT_START.Y + OFFSET_POS.Y
TARGET_POS.Z = TAUGHT_START.Z + OFFSET_POS.Z
TARGET_POS.A = TAUGHT_START.A
TARGET_POS.B = TAUGHT_START.B
TARGET_POS.C = TAUGHT_START.C
LIN TARGET_POS C_DIS
CONTINUE
OFFSET_POS = {X -5.084, Y -54.911, Z 2.000, A 0, B 0, C 0}
TARGET_POS = TAUGHT_START
TARGET_POS.X = TAUGHT_START.X + OFFSET_POS.X
TARGET_POS.Y = TAUGHT_START.Y + OFFSET_POS.Y
TARGET_POS.Z = TAUGHT_START.Z + OFFSET_POS.Z
TARGET_POS.A = TAUGHT_START.A
TARGET_POS.B = TAUGHT_START.B
TARGET_POS.C = TAUGHT_START.C
LIN TARGET_POS C_DIS
CONTINUE
OFFSET_POS = {X -4.990, Y -55.045, Z 2.000, A 0, B 0, C 0}
TARGET_POS = TAUGHT_START
TARGET_POS.X = TAUGHT_START.X + OFFSET_POS.X
TARGET_POS.Y = TAUGHT_START.Y + OFFSET_POS.Y
TARGET_POS.Z = TAUGHT_START.Z + OFFSET_POS.Z
TARGET_POS.A = TAUGHT_START.A
TARGET_POS.B = TAUGHT_START.B
TARGET_POS.C = TAUGHT_START.C
LIN TARGET_POS C_DIS
CONTINUE
OFFSET_POS = {X -4.896, Y -55.180, Z 2.000, A 0, B 0, C 0}
TARGET_POS = TAUGHT_START
TARGET_POS.X = TAUGHT_START.X + OFFSET_POS.X
TARGET_POS.Y = TAUGHT_START.Y + OFFSET_POS.Y
TARGET_POS.Z = TAUGHT_START.Z + OFFSET_POS.Z
TARGET_POS.A = TAUGHT_START.A
TARGET_POS.B = TAUGHT_START.B
TARGET_POS.C = TAUGHT_START.C
LIN TARGET_POS C_DIS
CONTINUE
OFFSET_POS = {X -4.802, Y -55.314, Z 2.000, A 0, B 0, C 0}
TARGET_POS = TAUGHT_START
TARGET_POS.X = TAUGHT_START.X + OFFSET_POS.X
TARGET_POS.Y = TAUGHT_START.Y + OFFSET_POS.Y
TARGET_POS.Z = TAUGHT_START.Z + OFFSET_POS.Z
TARGET_POS.A = TAUGHT_START.A
TARGET_POS.B = TAUGHT_START.B
TARGET_POS.C = TAUGHT_START.C
LIN TARGET_POS C_DIS
CONTINUE
OFFSET_POS = {X -4.675, Y -55.438, Z 2.000, A 0, B 0, C 0}
TARGET_POS = TAUGHT_START
TARGET_POS.X = TAUGHT_START.X + OFFSET_POS.X
TARGET_POS.Y = TAUGHT_START.Y + OFFSET_POS.Y
TARGET_POS.Z = TAUGHT_START.Z + OFFSET_POS.Z
TARGET_POS.A = TAUGHT_START.A
TARGET_POS.B = TAUGHT_START.B
TARGET_POS.C = TAUGHT_START.C
LIN TARGET_POS C_DIS
CONTINUE
OFFSET_POS = {X -4.547, Y -55.561, Z 2.000, A 0, B 0, C 0}
TARGET_POS = TAUGHT_START
TARGET_POS.X = TAUGHT_START.X + OFFSET_POS.X
TARGET_POS.Y = TAUGHT_START.Y + OFFSET_POS.Y
TARGET_POS.Z = TAUGHT_START.Z + OFFSET_POS.Z
TARGET_POS.A = TAUGHT_START.A
TARGET_POS.B = TAUGHT_START.B
TARGET_POS.C = TAUGHT_START.C
LIN TARGET_POS C_DIS
CONTINUE
OFFSET_POS = {X -4.420, Y -55.684, Z 2.000, A 0, B 0, C 0}
TARGET_POS = TAUGHT_START
TARGET_POS.X = TAUGHT_START.X + OFFSET_POS.X
TARGET_POS.Y = TAUGHT_START.Y + OFFSET_POS.Y
TARGET_POS.Z = TAUGHT_START.Z + OFFSET_POS.Z
TARGET_POS.A = TAUGHT_START.A
TARGET_POS.B = TAUGHT_START.B
TARGET_POS.C = TAUGHT_START.C
LIN TARGET_POS C_DIS
CONTINUE
OFFSET_POS = {X -4.293, Y -55.808, Z 2.000, A 0, B 0, C 0}
TARGET_POS = TAUGHT_START
TARGET_POS.X = TAUGHT_START.X + OFFSET_POS.X
TARGET_POS.Y = TAUGHT_START.Y + OFFSET_POS.Y
TARGET_POS.Z = TAUGHT_START.Z + OFFSET_POS.Z
TARGET_POS.A = TAUGHT_START.A
TARGET_POS.B = TAUGHT_START.B
TARGET_POS.C = TAUGHT_START.C
LIN TARGET_POS C_DIS
CONTINUE
OFFSET_POS = {X -4.166, Y -55.931, Z 2.000, A 0, B 0, C 0}
TARGET_POS = TAUGHT_START
TARGET_POS.X = TAUGHT_START.X + OFFSET_POS.X
TARGET_POS.Y = TAUGHT_START.Y + OFFSET_POS.Y
TARGET_POS.Z = TAUGHT_START.Z + OFFSET_POS.Z
TARGET_POS.A = TAUGHT_START.A
TARGET_POS.B = TAUGHT_START.B
TARGET_POS.C = TAUGHT_START.C
LIN TARGET_POS C_DIS
CONTINUE
OFFSET_POS = {X -4.023, Y -56.023, Z 2.000, A 0, B 0, C 0}
TARGET_POS = TAUGHT_START
TARGET_POS.X = TAUGHT_START.X + OFFSET_POS.X
TARGET_POS.Y = TAUGHT_START.Y + OFFSET_POS.Y
TARGET_POS.Z = TAUGHT_START.Z + OFFSET_POS.Z
TARGET_POS.A = TAUGHT_START.A
TARGET_POS.B = TAUGHT_START.B
TARGET_POS.C = TAUGHT_START.C
LIN TARGET_POS C_DIS
CONTINUE
OFFSET_POS = {X -3.880, Y -56.116, Z 2.000, A 0, B 0, C 0}
TARGET_POS = TAUGHT_START
TARGET_POS.X = TAUGHT_START.X + OFFSET_POS.X
TARGET_POS.Y = TAUGHT_START.Y + OFFSET_POS.Y
TARGET_POS.Z = TAUGHT_START.Z + OFFSET_POS.Z
TARGET_POS.A = TAUGHT_START.A
TARGET_POS.B = TAUGHT_START.B
TARGET_POS.C = TAUGHT_START.C
LIN TARGET_POS C_DIS
CONTINUE
OFFSET_POS = {X -3.737, Y -56.208, Z 2.000, A 0, B 0, C 0}
TARGET_POS = TAUGHT_START
TARGET_POS.X = TAUGHT_START.X + OFFSET_POS.X
TARGET_POS.Y = TAUGHT_START.Y + OFFSET_POS.Y
TARGET_POS.Z = TAUGHT_START.Z + OFFSET_POS.Z
TARGET_POS.A = TAUGHT_START.A
TARGET_POS.B = TAUGHT_START.B
TARGET_POS.C = TAUGHT_START.C
LIN TARGET_POS C_DIS
CONTINUE
OFFSET_POS = {X -3.594, Y -56.301, Z 2.000, A 0, B 0, C 0}
TARGET_POS = TAUGHT_START
TARGET_POS.X = TAUGHT_START.X + OFFSET_POS.X
TARGET_POS.Y = TAUGHT_START.Y + OFFSET_POS.Y
TARGET_POS.Z = TAUGHT_START.Z + OFFSET_POS.Z
TARGET_POS.A = TAUGHT_START.A
TARGET_POS.B = TAUGHT_START.B
TARGET_POS.C = TAUGHT_START.C
LIN TARGET_POS C_DIS
$OUT[1] = FALSE
WAIT SEC 0.200
WAIT SEC 55.00
OFFSET_POS = {X 26.799, Y -30.888, Z 2.000, A 0, B 0, C 0}
TARGET_POS = TAUGHT_START
TARGET_POS.X = TAUGHT_START.X + OFFSET_POS.X
TARGET_POS.Y = TAUGHT_START.Y + OFFSET_POS.Y
TARGET_POS.Z = TAUGHT_START.Z + OFFSET_POS.Z
TARGET_POS.A = TAUGHT_START.A
TARGET_POS.B = TAUGHT_START.B
TARGET_POS.C = TAUGHT_START.C
LIN TARGET_POS C_DIS
$OUT[1] = TRUE
WAIT SEC 0.200
OFFSET_POS = {X 26.690, Y -31.071, Z 2.000, A 0, B 0, C 0}
TARGET_POS = TAUGHT_START
TARGET_POS.X = TAUGHT_START.X + OFFSET_POS.X
TARGET_POS.Y = TAUGHT_START.Y + OFFSET_POS.Y
TARGET_POS.Z = TAUGHT_START.Z + OFFSET_POS.Z
TARGET_POS.A = TAUGHT_START.A
TARGET_POS.B = TAUGHT_START.B
TARGET_POS.C = TAUGHT_START.C
LIN TARGET_POS C_DIS
CONTINUE
OFFSET_POS = {X 26.582, Y -31.255, Z 2.000, A 0, B 0, C 0}
TARGET_POS = TAUGHT_START
TARGET_POS.X = TAUGHT_START.X + OFFSET_POS.X
TARGET_POS.Y = TAUGHT_START.Y + OFFSET_POS.Y
TARGET_POS.Z = TAUGHT_START.Z + OFFSET_POS.Z
TARGET_POS.A = TAUGHT_START.A
TARGET_POS.B = TAUGHT_START.B
TARGET_POS.C = TAUGHT_START.C
LIN TARGET_POS C_DIS
CONTINUE
OFFSET_POS = {X 26.512, Y -31.339, Z 2.000, A 0, B 0, C 0}
TARGET_POS = TAUGHT_START
TARGET_POS.X = TAUGHT_START.X + OFFSET_POS.X
TARGET_POS.Y = TAUGHT_START.Y + OFFSET_POS.Y
TARGET_POS.Z = TAUGHT_START.Z + OFFSET_POS.Z
TARGET_POS.A = TAUGHT_START.A
TARGET_POS.B = TAUGHT_START.B
TARGET_POS.C = TAUGHT_START.C
LIN TARGET_POS C_DIS
CONTINUE
OFFSET_POS = {X 26.441, Y -31.423, Z 2.000, A 0, B 0, C 0}
TARGET_POS = TAUGHT_START
TARGET_POS.X = TAUGHT_START.X + OFFSET_POS.X
TARGET_POS.Y = TAUGHT_START.Y + OFFSET_POS.Y
TARGET_POS.Z = TAUGHT_START.Z + OFFSET_POS.Z
TARGET_POS.A = TAUGHT_START.A
TARGET_POS.B = TAUGHT_START.B
TARGET_POS.C = TAUGHT_START.C
LIN TARGET_POS C_DIS
CONTINUE
OFFSET_POS = {X 26.317, Y -31.550, Z 2.000, A 0, B 0, C 0}
TARGET_POS = TAUGHT_START
TARGET_POS.X = TAUGHT_START.X + OFFSET_POS.X
TARGET_POS.Y = TAUGHT_START.Y + OFFSET_POS.Y
TARGET_POS.Z = TAUGHT_START.Z + OFFSET_POS.Z
TARGET_POS.A = TAUGHT_START.A
TARGET_POS.B = TAUGHT_START.B
TARGET_POS.C = TAUGHT_START.C
LIN TARGET_POS C_DIS
CONTINUE
OFFSET_POS = {X 26.194, Y -31.677, Z 2.000, A 0, B 0, C 0}
TARGET_POS = TAUGHT_START
TARGET_POS.X = TAUGHT_START.X + OFFSET_POS.X
TARGET_POS.Y = TAUGHT_START.Y + OFFSET_POS.Y
TARGET_POS.Z = TAUGHT_START.Z + OFFSET_POS.Z
TARGET_POS.A = TAUGHT_START.A
TARGET_POS.B = TAUGHT_START.B
TARGET_POS.C = TAUGHT_START.C
LIN TARGET_POS C_DIS
CONTINUE
OFFSET_POS = {X 26.071, Y -31.804, Z 2.000, A 0, B 0, C 0}
TARGET_POS = TAUGHT_START
TARGET_POS.X = TAUGHT_START.X + OFFSET_POS.X
TARGET_POS.Y = TAUGHT_START.Y + OFFSET_POS.Y
TARGET_POS.Z = TAUGHT_START.Z + OFFSET_POS.Z
TARGET_POS.A = TAUGHT_START.A
TARGET_POS.B = TAUGHT_START.B
TARGET_POS.C = TAUGHT_START.C
LIN TARGET_POS C_DIS
CONTINUE
OFFSET_POS = {X 25.947, Y -31.931, Z 2.000, A 0, B 0, C 0}
TARGET_POS = TAUGHT_START
TARGET_POS.X = TAUGHT_START.X + OFFSET_POS.X
TARGET_POS.Y = TAUGHT_START.Y + OFFSET_POS.Y
TARGET_POS.Z = TAUGHT_START.Z + OFFSET_POS.Z
TARGET_POS.A = TAUGHT_START.A
TARGET_POS.B = TAUGHT_START.B
TARGET_POS.C = TAUGHT_START.C
LIN TARGET_POS C_DIS
CONTINUE
OFFSET_POS = {X 25.824, Y -32.058, Z 2.000, A 0, B 0, C 0}
TARGET_POS = TAUGHT_START
TARGET_POS.X = TAUGHT_START.X + OFFSET_POS.X
TARGET_POS.Y = TAUGHT_START.Y + OFFSET_POS.Y
TARGET_POS.Z = TAUGHT_START.Z + OFFSET_POS.Z
TARGET_POS.A = TAUGHT_START.A
TARGET_POS.B = TAUGHT_START.B
TARGET_POS.C = TAUGHT_START.C
LIN TARGET_POS C_DIS
CONTINUE
OFFSET_POS = {X 25.655, Y -32.172, Z 2.000, A 0, B 0, C 0}
TARGET_POS = TAUGHT_START
TARGET_POS.X = TAUGHT_START.X + OFFSET_POS.X
TARGET_POS.Y = TAUGHT_START.Y + OFFSET_POS.Y
TARGET_POS.Z = TAUGHT_START.Z + OFFSET_POS.Z
TARGET_POS.A = TAUGHT_START.A
TARGET_POS.B = TAUGHT_START.B
TARGET_POS.C = TAUGHT_START.C
LIN TARGET_POS C_DIS
CONTINUE
OFFSET_POS = {X 25.486, Y -32.287, Z 2.000, A 0, B 0, C 0}
TARGET_POS = TAUGHT_START
TARGET_POS.X = TAUGHT_START.X + OFFSET_POS.X
TARGET_POS.Y = TAUGHT_START.Y + OFFSET_POS.Y
TARGET_POS.Z = TAUGHT_START.Z + OFFSET_POS.Z
TARGET_POS.A = TAUGHT_START.A
TARGET_POS.B = TAUGHT_START.B
TARGET_POS.C = TAUGHT_START.C
LIN TARGET_POS C_DIS
CONTINUE
OFFSET_POS = {X 25.317, Y -32.401, Z 2.000, A 0, B 0, C 0}
TARGET_POS = TAUGHT_START
TARGET_POS.X = TAUGHT_START.X + OFFSET_POS.X
TARGET_POS.Y = TAUGHT_START.Y + OFFSET_POS.Y
TARGET_POS.Z = TAUGHT_START.Z + OFFSET_POS.Z
TARGET_POS.A = TAUGHT_START.A
TARGET_POS.B = TAUGHT_START.B
TARGET_POS.C = TAUGHT_START.C
LIN TARGET_POS C_DIS
CONTINUE
OFFSET_POS = {X 25.147, Y -32.515, Z 2.000, A 0, B 0, C 0}
TARGET_POS = TAUGHT_START
TARGET_POS.X = TAUGHT_START.X + OFFSET_POS.X
TARGET_POS.Y = TAUGHT_START.Y + OFFSET_POS.Y
TARGET_POS.Z = TAUGHT_START.Z + OFFSET_POS.Z
TARGET_POS.A = TAUGHT_START.A
TARGET_POS.B = TAUGHT_START.B
TARGET_POS.C = TAUGHT_START.C
LIN TARGET_POS C_DIS
CONTINUE
OFFSET_POS = {X 24.298, Y -32.684, Z 2.000, A 0, B 0, C 0}
TARGET_POS = TAUGHT_START
TARGET_POS.X = TAUGHT_START.X + OFFSET_POS.X
TARGET_POS.Y = TAUGHT_START.Y + OFFSET_POS.Y
TARGET_POS.Z = TAUGHT_START.Z + OFFSET_POS.Z
TARGET_POS.A = TAUGHT_START.A
TARGET_POS.B = TAUGHT_START.B
TARGET_POS.C = TAUGHT_START.C
LIN TARGET_POS C_DIS
CONTINUE
OFFSET_POS = {X 23.704, Y -32.718, Z 2.000, A 0, B 0, C 0}
TARGET_POS = TAUGHT_START
TARGET_POS.X = TAUGHT_START.X + OFFSET_POS.X
TARGET_POS.Y = TAUGHT_START.Y + OFFSET_POS.Y
TARGET_POS.Z = TAUGHT_START.Z + OFFSET_POS.Z
TARGET_POS.A = TAUGHT_START.A
TARGET_POS.B = TAUGHT_START.B
TARGET_POS.C = TAUGHT_START.C
LIN TARGET_POS C_DIS
CONTINUE
OFFSET_POS = {X 23.466, Y -32.684, Z 2.000, A 0, B 0, C 0}
TARGET_POS = TAUGHT_START
TARGET_POS.X = TAUGHT_START.X + OFFSET_POS.X
TARGET_POS.Y = TAUGHT_START.Y + OFFSET_POS.Y
TARGET_POS.Z = TAUGHT_START.Z + OFFSET_POS.Z
TARGET_POS.A = TAUGHT_START.A
TARGET_POS.B = TAUGHT_START.B
TARGET_POS.C = TAUGHT_START.C
LIN TARGET_POS C_DIS
CONTINUE
OFFSET_POS = {X 22.617, Y -32.515, Z 2.000, A 0, B 0, C 0}
TARGET_POS = TAUGHT_START
TARGET_POS.X = TAUGHT_START.X + OFFSET_POS.X
TARGET_POS.Y = TAUGHT_START.Y + OFFSET_POS.Y
TARGET_POS.Z = TAUGHT_START.Z + OFFSET_POS.Z
TARGET_POS.A = TAUGHT_START.A
TARGET_POS.B = TAUGHT_START.B
TARGET_POS.C = TAUGHT_START.C
LIN TARGET_POS C_DIS
CONTINUE
OFFSET_POS = {X 21.854, Y -32.177, Z 2.000, A 0, B 0, C 0}
TARGET_POS = TAUGHT_START
TARGET_POS.X = TAUGHT_START.X + OFFSET_POS.X
TARGET_POS.Y = TAUGHT_START.Y + OFFSET_POS.Y
TARGET_POS.Z = TAUGHT_START.Z + OFFSET_POS.Z
TARGET_POS.A = TAUGHT_START.A
TARGET_POS.B = TAUGHT_START.B
TARGET_POS.C = TAUGHT_START.C
LIN TARGET_POS C_DIS
CONTINUE
OFFSET_POS = {X 21.701, Y -33.133, Z 2.000, A 0, B 0, C 0}
TARGET_POS = TAUGHT_START
TARGET_POS.X = TAUGHT_START.X + OFFSET_POS.X
TARGET_POS.Y = TAUGHT_START.Y + OFFSET_POS.Y
TARGET_POS.Z = TAUGHT_START.Z + OFFSET_POS.Z
TARGET_POS.A = TAUGHT_START.A
TARGET_POS.B = TAUGHT_START.B
TARGET_POS.C = TAUGHT_START.C
LIN TARGET_POS C_DIS
CONTINUE
OFFSET_POS = {X 21.460, Y -34.309, Z 2.000, A 0, B 0, C 0}
TARGET_POS = TAUGHT_START
TARGET_POS.X = TAUGHT_START.X + OFFSET_POS.X
TARGET_POS.Y = TAUGHT_START.Y + OFFSET_POS.Y
TARGET_POS.Z = TAUGHT_START.Z + OFFSET_POS.Z
TARGET_POS.A = TAUGHT_START.A
TARGET_POS.B = TAUGHT_START.B
TARGET_POS.C = TAUGHT_START.C
LIN TARGET_POS C_DIS
CONTINUE
OFFSET_POS = {X 21.023, Y -35.710, Z 2.000, A 0, B 0, C 0}
TARGET_POS = TAUGHT_START
TARGET_POS.X = TAUGHT_START.X + OFFSET_POS.X
TARGET_POS.Y = TAUGHT_START.Y + OFFSET_POS.Y
TARGET_POS.Z = TAUGHT_START.Z + OFFSET_POS.Z
TARGET_POS.A = TAUGHT_START.A
TARGET_POS.B = TAUGHT_START.B
TARGET_POS.C = TAUGHT_START.C
LIN TARGET_POS C_DIS
CONTINUE
OFFSET_POS = {X 20.593, Y -36.973, Z 2.000, A 0, B 0, C 0}
TARGET_POS = TAUGHT_START
TARGET_POS.X = TAUGHT_START.X + OFFSET_POS.X
TARGET_POS.Y = TAUGHT_START.Y + OFFSET_POS.Y
TARGET_POS.Z = TAUGHT_START.Z + OFFSET_POS.Z
TARGET_POS.A = TAUGHT_START.A
TARGET_POS.B = TAUGHT_START.B
TARGET_POS.C = TAUGHT_START.C
LIN TARGET_POS C_DIS
CONTINUE
OFFSET_POS = {X 20.137, Y -37.985, Z 2.000, A 0, B 0, C 0}
TARGET_POS = TAUGHT_START
TARGET_POS.X = TAUGHT_START.X + OFFSET_POS.X
TARGET_POS.Y = TAUGHT_START.Y + OFFSET_POS.Y
TARGET_POS.Z = TAUGHT_START.Z + OFFSET_POS.Z
TARGET_POS.A = TAUGHT_START.A
TARGET_POS.B = TAUGHT_START.B
TARGET_POS.C = TAUGHT_START.C
LIN TARGET_POS C_DIS
CONTINUE
OFFSET_POS = {X 19.376, Y -39.560, Z 2.000, A 0, B 0, C 0}
TARGET_POS = TAUGHT_START
TARGET_POS.X = TAUGHT_START.X + OFFSET_POS.X
TARGET_POS.Y = TAUGHT_START.Y + OFFSET_POS.Y
TARGET_POS.Z = TAUGHT_START.Z + OFFSET_POS.Z
TARGET_POS.A = TAUGHT_START.A
TARGET_POS.B = TAUGHT_START.B
TARGET_POS.C = TAUGHT_START.C
LIN TARGET_POS C_DIS
CONTINUE
OFFSET_POS = {X 19.024, Y -40.159, Z 2.000, A 0, B 0, C 0}
TARGET_POS = TAUGHT_START
TARGET_POS.X = TAUGHT_START.X + OFFSET_POS.X
TARGET_POS.Y = TAUGHT_START.Y + OFFSET_POS.Y
TARGET_POS.Z = TAUGHT_START.Z + OFFSET_POS.Z
TARGET_POS.A = TAUGHT_START.A
TARGET_POS.B = TAUGHT_START.B
TARGET_POS.C = TAUGHT_START.C
LIN TARGET_POS C_DIS
CONTINUE
OFFSET_POS = {X 17.748, Y -42.147, Z 2.000, A 0, B 0, C 0}
TARGET_POS = TAUGHT_START
TARGET_POS.X = TAUGHT_START.X + OFFSET_POS.X
TARGET_POS.Y = TAUGHT_START.Y + OFFSET_POS.Y
TARGET_POS.Z = TAUGHT_START.Z + OFFSET_POS.Z
TARGET_POS.A = TAUGHT_START.A
TARGET_POS.B = TAUGHT_START.B
TARGET_POS.C = TAUGHT_START.C
LIN TARGET_POS C_DIS
CONTINUE
OFFSET_POS = {X 15.940, Y -44.332, Z 2.000, A 0, B 0, C 0}
TARGET_POS = TAUGHT_START
TARGET_POS.X = TAUGHT_START.X + OFFSET_POS.X
TARGET_POS.Y = TAUGHT_START.Y + OFFSET_POS.Y
TARGET_POS.Z = TAUGHT_START.Z + OFFSET_POS.Z
TARGET_POS.A = TAUGHT_START.A
TARGET_POS.B = TAUGHT_START.B
TARGET_POS.C = TAUGHT_START.C
LIN TARGET_POS C_DIS
CONTINUE
OFFSET_POS = {X 14.194, Y -45.987, Z 2.000, A 0, B 0, C 0}
TARGET_POS = TAUGHT_START
TARGET_POS.X = TAUGHT_START.X + OFFSET_POS.X
TARGET_POS.Y = TAUGHT_START.Y + OFFSET_POS.Y
TARGET_POS.Z = TAUGHT_START.Z + OFFSET_POS.Z
TARGET_POS.A = TAUGHT_START.A
TARGET_POS.B = TAUGHT_START.B
TARGET_POS.C = TAUGHT_START.C
LIN TARGET_POS C_DIS
CONTINUE
OFFSET_POS = {X 13.660, Y -46.447, Z 2.000, A 0, B 0, C 0}
TARGET_POS = TAUGHT_START
TARGET_POS.X = TAUGHT_START.X + OFFSET_POS.X
TARGET_POS.Y = TAUGHT_START.Y + OFFSET_POS.Y
TARGET_POS.Z = TAUGHT_START.Z + OFFSET_POS.Z
TARGET_POS.A = TAUGHT_START.A
TARGET_POS.B = TAUGHT_START.B
TARGET_POS.C = TAUGHT_START.C
LIN TARGET_POS C_DIS
CONTINUE
OFFSET_POS = {X 12.262, Y -47.482, Z 2.000, A 0, B 0, C 0}
TARGET_POS = TAUGHT_START
TARGET_POS.X = TAUGHT_START.X + OFFSET_POS.X
TARGET_POS.Y = TAUGHT_START.Y + OFFSET_POS.Y
TARGET_POS.Z = TAUGHT_START.Z + OFFSET_POS.Z
TARGET_POS.A = TAUGHT_START.A
TARGET_POS.B = TAUGHT_START.B
TARGET_POS.C = TAUGHT_START.C
LIN TARGET_POS C_DIS
CONTINUE
OFFSET_POS = {X 11.278, Y -48.156, Z 2.000, A 0, B 0, C 0}
TARGET_POS = TAUGHT_START
TARGET_POS.X = TAUGHT_START.X + OFFSET_POS.X
TARGET_POS.Y = TAUGHT_START.Y + OFFSET_POS.Y
TARGET_POS.Z = TAUGHT_START.Z + OFFSET_POS.Z
TARGET_POS.A = TAUGHT_START.A
TARGET_POS.B = TAUGHT_START.B
TARGET_POS.C = TAUGHT_START.C
LIN TARGET_POS C_DIS
CONTINUE
OFFSET_POS = {X 10.190, Y -48.774, Z 2.000, A 0, B 0, C 0}
TARGET_POS = TAUGHT_START
TARGET_POS.X = TAUGHT_START.X + OFFSET_POS.X
TARGET_POS.Y = TAUGHT_START.Y + OFFSET_POS.Y
TARGET_POS.Z = TAUGHT_START.Z + OFFSET_POS.Z
TARGET_POS.A = TAUGHT_START.A
TARGET_POS.B = TAUGHT_START.B
TARGET_POS.C = TAUGHT_START.C
LIN TARGET_POS C_DIS
CONTINUE
OFFSET_POS = {X 8.817, Y -49.507, Z 2.000, A 0, B 0, C 0}
TARGET_POS = TAUGHT_START
TARGET_POS.X = TAUGHT_START.X + OFFSET_POS.X
TARGET_POS.Y = TAUGHT_START.Y + OFFSET_POS.Y
TARGET_POS.Z = TAUGHT_START.Z + OFFSET_POS.Z
TARGET_POS.A = TAUGHT_START.A
TARGET_POS.B = TAUGHT_START.B
TARGET_POS.C = TAUGHT_START.C
LIN TARGET_POS C_DIS
CONTINUE
OFFSET_POS = {X 7.998, Y -49.849, Z 2.000, A 0, B 0, C 0}
TARGET_POS = TAUGHT_START
TARGET_POS.X = TAUGHT_START.X + OFFSET_POS.X
TARGET_POS.Y = TAUGHT_START.Y + OFFSET_POS.Y
TARGET_POS.Z = TAUGHT_START.Z + OFFSET_POS.Z
TARGET_POS.A = TAUGHT_START.A
TARGET_POS.B = TAUGHT_START.B
TARGET_POS.C = TAUGHT_START.C
LIN TARGET_POS C_DIS
CONTINUE
OFFSET_POS = {X 6.224, Y -50.535, Z 2.000, A 0, B 0, C 0}
TARGET_POS = TAUGHT_START
TARGET_POS.X = TAUGHT_START.X + OFFSET_POS.X
TARGET_POS.Y = TAUGHT_START.Y + OFFSET_POS.Y
TARGET_POS.Z = TAUGHT_START.Z + OFFSET_POS.Z
TARGET_POS.A = TAUGHT_START.A
TARGET_POS.B = TAUGHT_START.B
TARGET_POS.C = TAUGHT_START.C
LIN TARGET_POS C_DIS
CONTINUE
OFFSET_POS = {X 5.707, Y -50.697, Z 2.000, A 0, B 0, C 0}
TARGET_POS = TAUGHT_START
TARGET_POS.X = TAUGHT_START.X + OFFSET_POS.X
TARGET_POS.Y = TAUGHT_START.Y + OFFSET_POS.Y
TARGET_POS.Z = TAUGHT_START.Z + OFFSET_POS.Z
TARGET_POS.A = TAUGHT_START.A
TARGET_POS.B = TAUGHT_START.B
TARGET_POS.C = TAUGHT_START.C
LIN TARGET_POS C_DIS
CONTINUE
OFFSET_POS = {X 4.418, Y -51.025, Z 2.000, A 0, B 0, C 0}
TARGET_POS = TAUGHT_START
TARGET_POS.X = TAUGHT_START.X + OFFSET_POS.X
TARGET_POS.Y = TAUGHT_START.Y + OFFSET_POS.Y
TARGET_POS.Z = TAUGHT_START.Z + OFFSET_POS.Z
TARGET_POS.A = TAUGHT_START.A
TARGET_POS.B = TAUGHT_START.B
TARGET_POS.C = TAUGHT_START.C
LIN TARGET_POS C_DIS
CONTINUE
OFFSET_POS = {X 3.266, Y -51.317, Z 2.000, A 0, B 0, C 0}
TARGET_POS = TAUGHT_START
TARGET_POS.X = TAUGHT_START.X + OFFSET_POS.X
TARGET_POS.Y = TAUGHT_START.Y + OFFSET_POS.Y
TARGET_POS.Z = TAUGHT_START.Z + OFFSET_POS.Z
TARGET_POS.A = TAUGHT_START.A
TARGET_POS.B = TAUGHT_START.B
TARGET_POS.C = TAUGHT_START.C
LIN TARGET_POS C_DIS
CONTINUE
OFFSET_POS = {X 2.647, Y -51.340, Z 2.000, A 0, B 0, C 0}
TARGET_POS = TAUGHT_START
TARGET_POS.X = TAUGHT_START.X + OFFSET_POS.X
TARGET_POS.Y = TAUGHT_START.Y + OFFSET_POS.Y
TARGET_POS.Z = TAUGHT_START.Z + OFFSET_POS.Z
TARGET_POS.A = TAUGHT_START.A
TARGET_POS.B = TAUGHT_START.B
TARGET_POS.C = TAUGHT_START.C
LIN TARGET_POS C_DIS
CONTINUE
OFFSET_POS = {X 2.913, Y -51.706, Z 2.000, A 0, B 0, C 0}
TARGET_POS = TAUGHT_START
TARGET_POS.X = TAUGHT_START.X + OFFSET_POS.X
TARGET_POS.Y = TAUGHT_START.Y + OFFSET_POS.Y
TARGET_POS.Z = TAUGHT_START.Z + OFFSET_POS.Z
TARGET_POS.A = TAUGHT_START.A
TARGET_POS.B = TAUGHT_START.B
TARGET_POS.C = TAUGHT_START.C
LIN TARGET_POS C_DIS
CONTINUE
OFFSET_POS = {X 3.034, Y -52.106, Z 2.000, A 0, B 0, C 0}
TARGET_POS = TAUGHT_START
TARGET_POS.X = TAUGHT_START.X + OFFSET_POS.X
TARGET_POS.Y = TAUGHT_START.Y + OFFSET_POS.Y
TARGET_POS.Z = TAUGHT_START.Z + OFFSET_POS.Z
TARGET_POS.A = TAUGHT_START.A
TARGET_POS.B = TAUGHT_START.B
TARGET_POS.C = TAUGHT_START.C
LIN TARGET_POS C_DIS
CONTINUE
OFFSET_POS = {X 3.236, Y -53.183, Z 2.000, A 0, B 0, C 0}
TARGET_POS = TAUGHT_START
TARGET_POS.X = TAUGHT_START.X + OFFSET_POS.X
TARGET_POS.Y = TAUGHT_START.Y + OFFSET_POS.Y
TARGET_POS.Z = TAUGHT_START.Z + OFFSET_POS.Z
TARGET_POS.A = TAUGHT_START.A
TARGET_POS.B = TAUGHT_START.B
TARGET_POS.C = TAUGHT_START.C
LIN TARGET_POS C_DIS
CONTINUE
OFFSET_POS = {X 3.203, Y -53.792, Z 2.000, A 0, B 0, C 0}
TARGET_POS = TAUGHT_START
TARGET_POS.X = TAUGHT_START.X + OFFSET_POS.X
TARGET_POS.Y = TAUGHT_START.Y + OFFSET_POS.Y
TARGET_POS.Z = TAUGHT_START.Z + OFFSET_POS.Z
TARGET_POS.A = TAUGHT_START.A
TARGET_POS.B = TAUGHT_START.B
TARGET_POS.C = TAUGHT_START.C
LIN TARGET_POS C_DIS
CONTINUE
OFFSET_POS = {X 3.034, Y -54.641, Z 2.000, A 0, B 0, C 0}
TARGET_POS = TAUGHT_START
TARGET_POS.X = TAUGHT_START.X + OFFSET_POS.X
TARGET_POS.Y = TAUGHT_START.Y + OFFSET_POS.Y
TARGET_POS.Z = TAUGHT_START.Z + OFFSET_POS.Z
TARGET_POS.A = TAUGHT_START.A
TARGET_POS.B = TAUGHT_START.B
TARGET_POS.C = TAUGHT_START.C
LIN TARGET_POS C_DIS
CONTINUE
OFFSET_POS = {X 2.919, Y -54.810, Z 2.000, A 0, B 0, C 0}
TARGET_POS = TAUGHT_START
TARGET_POS.X = TAUGHT_START.X + OFFSET_POS.X
TARGET_POS.Y = TAUGHT_START.Y + OFFSET_POS.Y
TARGET_POS.Z = TAUGHT_START.Z + OFFSET_POS.Z
TARGET_POS.A = TAUGHT_START.A
TARGET_POS.B = TAUGHT_START.B
TARGET_POS.C = TAUGHT_START.C
LIN TARGET_POS C_DIS
CONTINUE
OFFSET_POS = {X 2.804, Y -54.980, Z 2.000, A 0, B 0, C 0}
TARGET_POS = TAUGHT_START
TARGET_POS.X = TAUGHT_START.X + OFFSET_POS.X
TARGET_POS.Y = TAUGHT_START.Y + OFFSET_POS.Y
TARGET_POS.Z = TAUGHT_START.Z + OFFSET_POS.Z
TARGET_POS.A = TAUGHT_START.A
TARGET_POS.B = TAUGHT_START.B
TARGET_POS.C = TAUGHT_START.C
LIN TARGET_POS C_DIS
CONTINUE
OFFSET_POS = {X 2.689, Y -55.150, Z 2.000, A 0, B 0, C 0}
TARGET_POS = TAUGHT_START
TARGET_POS.X = TAUGHT_START.X + OFFSET_POS.X
TARGET_POS.Y = TAUGHT_START.Y + OFFSET_POS.Y
TARGET_POS.Z = TAUGHT_START.Z + OFFSET_POS.Z
TARGET_POS.A = TAUGHT_START.A
TARGET_POS.B = TAUGHT_START.B
TARGET_POS.C = TAUGHT_START.C
LIN TARGET_POS C_DIS
CONTINUE
OFFSET_POS = {X 2.573, Y -55.319, Z 2.000, A 0, B 0, C 0}
TARGET_POS = TAUGHT_START
TARGET_POS.X = TAUGHT_START.X + OFFSET_POS.X
TARGET_POS.Y = TAUGHT_START.Y + OFFSET_POS.Y
TARGET_POS.Z = TAUGHT_START.Z + OFFSET_POS.Z
TARGET_POS.A = TAUGHT_START.A
TARGET_POS.B = TAUGHT_START.B
TARGET_POS.C = TAUGHT_START.C
LIN TARGET_POS C_DIS
CONTINUE
OFFSET_POS = {X 2.446, Y -55.442, Z 2.000, A 0, B 0, C 0}
TARGET_POS = TAUGHT_START
TARGET_POS.X = TAUGHT_START.X + OFFSET_POS.X
TARGET_POS.Y = TAUGHT_START.Y + OFFSET_POS.Y
TARGET_POS.Z = TAUGHT_START.Z + OFFSET_POS.Z
TARGET_POS.A = TAUGHT_START.A
TARGET_POS.B = TAUGHT_START.B
TARGET_POS.C = TAUGHT_START.C
LIN TARGET_POS C_DIS
CONTINUE
OFFSET_POS = {X 2.318, Y -55.565, Z 2.000, A 0, B 0, C 0}
TARGET_POS = TAUGHT_START
TARGET_POS.X = TAUGHT_START.X + OFFSET_POS.X
TARGET_POS.Y = TAUGHT_START.Y + OFFSET_POS.Y
TARGET_POS.Z = TAUGHT_START.Z + OFFSET_POS.Z
TARGET_POS.A = TAUGHT_START.A
TARGET_POS.B = TAUGHT_START.B
TARGET_POS.C = TAUGHT_START.C
LIN TARGET_POS C_DIS
CONTINUE
OFFSET_POS = {X 2.191, Y -55.688, Z 2.000, A 0, B 0, C 0}
TARGET_POS = TAUGHT_START
TARGET_POS.X = TAUGHT_START.X + OFFSET_POS.X
TARGET_POS.Y = TAUGHT_START.Y + OFFSET_POS.Y
TARGET_POS.Z = TAUGHT_START.Z + OFFSET_POS.Z
TARGET_POS.A = TAUGHT_START.A
TARGET_POS.B = TAUGHT_START.B
TARGET_POS.C = TAUGHT_START.C
LIN TARGET_POS C_DIS
CONTINUE
OFFSET_POS = {X 2.063, Y -55.811, Z 2.000, A 0, B 0, C 0}
TARGET_POS = TAUGHT_START
TARGET_POS.X = TAUGHT_START.X + OFFSET_POS.X
TARGET_POS.Y = TAUGHT_START.Y + OFFSET_POS.Y
TARGET_POS.Z = TAUGHT_START.Z + OFFSET_POS.Z
TARGET_POS.A = TAUGHT_START.A
TARGET_POS.B = TAUGHT_START.B
TARGET_POS.C = TAUGHT_START.C
LIN TARGET_POS C_DIS
CONTINUE
OFFSET_POS = {X 1.936, Y -55.934, Z 2.000, A 0, B 0, C 0}
TARGET_POS = TAUGHT_START
TARGET_POS.X = TAUGHT_START.X + OFFSET_POS.X
TARGET_POS.Y = TAUGHT_START.Y + OFFSET_POS.Y
TARGET_POS.Z = TAUGHT_START.Z + OFFSET_POS.Z
TARGET_POS.A = TAUGHT_START.A
TARGET_POS.B = TAUGHT_START.B
TARGET_POS.C = TAUGHT_START.C
LIN TARGET_POS C_DIS
CONTINUE
OFFSET_POS = {X 1.746, Y -56.045, Z 2.000, A 0, B 0, C 0}
TARGET_POS = TAUGHT_START
TARGET_POS.X = TAUGHT_START.X + OFFSET_POS.X
TARGET_POS.Y = TAUGHT_START.Y + OFFSET_POS.Y
TARGET_POS.Z = TAUGHT_START.Z + OFFSET_POS.Z
TARGET_POS.A = TAUGHT_START.A
TARGET_POS.B = TAUGHT_START.B
TARGET_POS.C = TAUGHT_START.C
LIN TARGET_POS C_DIS
CONTINUE
OFFSET_POS = {X 1.557, Y -56.156, Z 2.000, A 0, B 0, C 0}
TARGET_POS = TAUGHT_START
TARGET_POS.X = TAUGHT_START.X + OFFSET_POS.X
TARGET_POS.Y = TAUGHT_START.Y + OFFSET_POS.Y
TARGET_POS.Z = TAUGHT_START.Z + OFFSET_POS.Z
TARGET_POS.A = TAUGHT_START.A
TARGET_POS.B = TAUGHT_START.B
TARGET_POS.C = TAUGHT_START.C
LIN TARGET_POS C_DIS
CONTINUE
OFFSET_POS = {X 1.367, Y -56.266, Z 2.000, A 0, B 0, C 0}
TARGET_POS = TAUGHT_START
TARGET_POS.X = TAUGHT_START.X + OFFSET_POS.X
TARGET_POS.Y = TAUGHT_START.Y + OFFSET_POS.Y
TARGET_POS.Z = TAUGHT_START.Z + OFFSET_POS.Z
TARGET_POS.A = TAUGHT_START.A
TARGET_POS.B = TAUGHT_START.B
TARGET_POS.C = TAUGHT_START.C
LIN TARGET_POS C_DIS
CONTINUE
OFFSET_POS = {X 1.178, Y -56.377, Z 2.000, A 0, B 0, C 0}
TARGET_POS = TAUGHT_START
TARGET_POS.X = TAUGHT_START.X + OFFSET_POS.X
TARGET_POS.Y = TAUGHT_START.Y + OFFSET_POS.Y
TARGET_POS.Z = TAUGHT_START.Z + OFFSET_POS.Z
TARGET_POS.A = TAUGHT_START.A
TARGET_POS.B = TAUGHT_START.B
TARGET_POS.C = TAUGHT_START.C
LIN TARGET_POS C_DIS
CONTINUE
OFFSET_POS = {X 0.988, Y -56.487, Z 2.000, A 0, B 0, C 0}
TARGET_POS = TAUGHT_START
TARGET_POS.X = TAUGHT_START.X + OFFSET_POS.X
TARGET_POS.Y = TAUGHT_START.Y + OFFSET_POS.Y
TARGET_POS.Z = TAUGHT_START.Z + OFFSET_POS.Z
TARGET_POS.A = TAUGHT_START.A
TARGET_POS.B = TAUGHT_START.B
TARGET_POS.C = TAUGHT_START.C
LIN TARGET_POS C_DIS
CONTINUE
OFFSET_POS = {X 1.130, Y -56.484, Z 2.000, A 0, B 0, C 0}
TARGET_POS = TAUGHT_START
TARGET_POS.X = TAUGHT_START.X + OFFSET_POS.X
TARGET_POS.Y = TAUGHT_START.Y + OFFSET_POS.Y
TARGET_POS.Z = TAUGHT_START.Z + OFFSET_POS.Z
TARGET_POS.A = TAUGHT_START.A
TARGET_POS.B = TAUGHT_START.B
TARGET_POS.C = TAUGHT_START.C
LIN TARGET_POS C_DIS
CONTINUE
OFFSET_POS = {X 1.262, Y -56.438, Z 2.000, A 0, B 0, C 0}
TARGET_POS = TAUGHT_START
TARGET_POS.X = TAUGHT_START.X + OFFSET_POS.X
TARGET_POS.Y = TAUGHT_START.Y + OFFSET_POS.Y
TARGET_POS.Z = TAUGHT_START.Z + OFFSET_POS.Z
TARGET_POS.A = TAUGHT_START.A
TARGET_POS.B = TAUGHT_START.B
TARGET_POS.C = TAUGHT_START.C
LIN TARGET_POS C_DIS
CONTINUE
OFFSET_POS = {X 1.395, Y -56.393, Z 2.000, A 0, B 0, C 0}
TARGET_POS = TAUGHT_START
TARGET_POS.X = TAUGHT_START.X + OFFSET_POS.X
TARGET_POS.Y = TAUGHT_START.Y + OFFSET_POS.Y
TARGET_POS.Z = TAUGHT_START.Z + OFFSET_POS.Z
TARGET_POS.A = TAUGHT_START.A
TARGET_POS.B = TAUGHT_START.B
TARGET_POS.C = TAUGHT_START.C
LIN TARGET_POS C_DIS
CONTINUE
OFFSET_POS = {X 1.564, Y -56.333, Z 2.000, A 0, B 0, C 0}
TARGET_POS = TAUGHT_START
TARGET_POS.X = TAUGHT_START.X + OFFSET_POS.X
TARGET_POS.Y = TAUGHT_START.Y + OFFSET_POS.Y
TARGET_POS.Z = TAUGHT_START.Z + OFFSET_POS.Z
TARGET_POS.A = TAUGHT_START.A
TARGET_POS.B = TAUGHT_START.B
TARGET_POS.C = TAUGHT_START.C
LIN TARGET_POS C_DIS
CONTINUE
OFFSET_POS = {X 1.733, Y -56.273, Z 2.000, A 0, B 0, C 0}
TARGET_POS = TAUGHT_START
TARGET_POS.X = TAUGHT_START.X + OFFSET_POS.X
TARGET_POS.Y = TAUGHT_START.Y + OFFSET_POS.Y
TARGET_POS.Z = TAUGHT_START.Z + OFFSET_POS.Z
TARGET_POS.A = TAUGHT_START.A
TARGET_POS.B = TAUGHT_START.B
TARGET_POS.C = TAUGHT_START.C
LIN TARGET_POS C_DIS
CONTINUE
OFFSET_POS = {X 1.903, Y -56.213, Z 2.000, A 0, B 0, C 0}
TARGET_POS = TAUGHT_START
TARGET_POS.X = TAUGHT_START.X + OFFSET_POS.X
TARGET_POS.Y = TAUGHT_START.Y + OFFSET_POS.Y
TARGET_POS.Z = TAUGHT_START.Z + OFFSET_POS.Z
TARGET_POS.A = TAUGHT_START.A
TARGET_POS.B = TAUGHT_START.B
TARGET_POS.C = TAUGHT_START.C
LIN TARGET_POS C_DIS
CONTINUE
OFFSET_POS = {X 2.072, Y -56.153, Z 2.000, A 0, B 0, C 0}
TARGET_POS = TAUGHT_START
TARGET_POS.X = TAUGHT_START.X + OFFSET_POS.X
TARGET_POS.Y = TAUGHT_START.Y + OFFSET_POS.Y
TARGET_POS.Z = TAUGHT_START.Z + OFFSET_POS.Z
TARGET_POS.A = TAUGHT_START.A
TARGET_POS.B = TAUGHT_START.B
TARGET_POS.C = TAUGHT_START.C
LIN TARGET_POS C_DIS
CONTINUE
OFFSET_POS = {X 2.239, Y -56.093, Z 2.000, A 0, B 0, C 0}
TARGET_POS = TAUGHT_START
TARGET_POS.X = TAUGHT_START.X + OFFSET_POS.X
TARGET_POS.Y = TAUGHT_START.Y + OFFSET_POS.Y
TARGET_POS.Z = TAUGHT_START.Z + OFFSET_POS.Z
TARGET_POS.A = TAUGHT_START.A
TARGET_POS.B = TAUGHT_START.B
TARGET_POS.C = TAUGHT_START.C
LIN TARGET_POS C_DIS
CONTINUE
OFFSET_POS = {X 2.405, Y -56.033, Z 2.000, A 0, B 0, C 0}
TARGET_POS = TAUGHT_START
TARGET_POS.X = TAUGHT_START.X + OFFSET_POS.X
TARGET_POS.Y = TAUGHT_START.Y + OFFSET_POS.Y
TARGET_POS.Z = TAUGHT_START.Z + OFFSET_POS.Z
TARGET_POS.A = TAUGHT_START.A
TARGET_POS.B = TAUGHT_START.B
TARGET_POS.C = TAUGHT_START.C
LIN TARGET_POS C_DIS
CONTINUE
OFFSET_POS = {X 2.572, Y -55.972, Z 2.000, A 0, B 0, C 0}
TARGET_POS = TAUGHT_START
TARGET_POS.X = TAUGHT_START.X + OFFSET_POS.X
TARGET_POS.Y = TAUGHT_START.Y + OFFSET_POS.Y
TARGET_POS.Z = TAUGHT_START.Z + OFFSET_POS.Z
TARGET_POS.A = TAUGHT_START.A
TARGET_POS.B = TAUGHT_START.B
TARGET_POS.C = TAUGHT_START.C
LIN TARGET_POS C_DIS
CONTINUE
OFFSET_POS = {X 2.739, Y -55.912, Z 2.000, A 0, B 0, C 0}
TARGET_POS = TAUGHT_START
TARGET_POS.X = TAUGHT_START.X + OFFSET_POS.X
TARGET_POS.Y = TAUGHT_START.Y + OFFSET_POS.Y
TARGET_POS.Z = TAUGHT_START.Z + OFFSET_POS.Z
TARGET_POS.A = TAUGHT_START.A
TARGET_POS.B = TAUGHT_START.B
TARGET_POS.C = TAUGHT_START.C
LIN TARGET_POS C_DIS
CONTINUE
OFFSET_POS = {X 2.905, Y -55.852, Z 2.000, A 0, B 0, C 0}
TARGET_POS = TAUGHT_START
TARGET_POS.X = TAUGHT_START.X + OFFSET_POS.X
TARGET_POS.Y = TAUGHT_START.Y + OFFSET_POS.Y
TARGET_POS.Z = TAUGHT_START.Z + OFFSET_POS.Z
TARGET_POS.A = TAUGHT_START.A
TARGET_POS.B = TAUGHT_START.B
TARGET_POS.C = TAUGHT_START.C
LIN TARGET_POS C_DIS
CONTINUE
OFFSET_POS = {X 3.151, Y -55.776, Z 2.000, A 0, B 0, C 0}
TARGET_POS = TAUGHT_START
TARGET_POS.X = TAUGHT_START.X + OFFSET_POS.X
TARGET_POS.Y = TAUGHT_START.Y + OFFSET_POS.Y
TARGET_POS.Z = TAUGHT_START.Z + OFFSET_POS.Z
TARGET_POS.A = TAUGHT_START.A
TARGET_POS.B = TAUGHT_START.B
TARGET_POS.C = TAUGHT_START.C
LIN TARGET_POS C_DIS
CONTINUE
OFFSET_POS = {X 3.396, Y -55.700, Z 2.000, A 0, B 0, C 0}
TARGET_POS = TAUGHT_START
TARGET_POS.X = TAUGHT_START.X + OFFSET_POS.X
TARGET_POS.Y = TAUGHT_START.Y + OFFSET_POS.Y
TARGET_POS.Z = TAUGHT_START.Z + OFFSET_POS.Z
TARGET_POS.A = TAUGHT_START.A
TARGET_POS.B = TAUGHT_START.B
TARGET_POS.C = TAUGHT_START.C
LIN TARGET_POS C_DIS
CONTINUE
OFFSET_POS = {X 3.642, Y -55.625, Z 2.000, A 0, B 0, C 0}
TARGET_POS = TAUGHT_START
TARGET_POS.X = TAUGHT_START.X + OFFSET_POS.X
TARGET_POS.Y = TAUGHT_START.Y + OFFSET_POS.Y
TARGET_POS.Z = TAUGHT_START.Z + OFFSET_POS.Z
TARGET_POS.A = TAUGHT_START.A
TARGET_POS.B = TAUGHT_START.B
TARGET_POS.C = TAUGHT_START.C
LIN TARGET_POS C_DIS
CONTINUE
OFFSET_POS = {X 3.887, Y -55.549, Z 2.000, A 0, B 0, C 0}
TARGET_POS = TAUGHT_START
TARGET_POS.X = TAUGHT_START.X + OFFSET_POS.X
TARGET_POS.Y = TAUGHT_START.Y + OFFSET_POS.Y
TARGET_POS.Z = TAUGHT_START.Z + OFFSET_POS.Z
TARGET_POS.A = TAUGHT_START.A
TARGET_POS.B = TAUGHT_START.B
TARGET_POS.C = TAUGHT_START.C
LIN TARGET_POS C_DIS
CONTINUE
OFFSET_POS = {X 4.003, Y -55.534, Z 2.000, A 0, B 0, C 0}
TARGET_POS = TAUGHT_START
TARGET_POS.X = TAUGHT_START.X + OFFSET_POS.X
TARGET_POS.Y = TAUGHT_START.Y + OFFSET_POS.Y
TARGET_POS.Z = TAUGHT_START.Z + OFFSET_POS.Z
TARGET_POS.A = TAUGHT_START.A
TARGET_POS.B = TAUGHT_START.B
TARGET_POS.C = TAUGHT_START.C
LIN TARGET_POS C_DIS
CONTINUE
OFFSET_POS = {X 5.880, Y -55.075, Z 2.000, A 0, B 0, C 0}
TARGET_POS = TAUGHT_START
TARGET_POS.X = TAUGHT_START.X + OFFSET_POS.X
TARGET_POS.Y = TAUGHT_START.Y + OFFSET_POS.Y
TARGET_POS.Z = TAUGHT_START.Z + OFFSET_POS.Z
TARGET_POS.A = TAUGHT_START.A
TARGET_POS.B = TAUGHT_START.B
TARGET_POS.C = TAUGHT_START.C
LIN TARGET_POS C_DIS
CONTINUE
OFFSET_POS = {X 6.750, Y -54.860, Z 2.000, A 0, B 0, C 0}
TARGET_POS = TAUGHT_START
TARGET_POS.X = TAUGHT_START.X + OFFSET_POS.X
TARGET_POS.Y = TAUGHT_START.Y + OFFSET_POS.Y
TARGET_POS.Z = TAUGHT_START.Z + OFFSET_POS.Z
TARGET_POS.A = TAUGHT_START.A
TARGET_POS.B = TAUGHT_START.B
TARGET_POS.C = TAUGHT_START.C
LIN TARGET_POS C_DIS
CONTINUE
OFFSET_POS = {X 7.228, Y -54.707, Z 2.000, A 0, B 0, C 0}
TARGET_POS = TAUGHT_START
TARGET_POS.X = TAUGHT_START.X + OFFSET_POS.X
TARGET_POS.Y = TAUGHT_START.Y + OFFSET_POS.Y
TARGET_POS.Z = TAUGHT_START.Z + OFFSET_POS.Z
TARGET_POS.A = TAUGHT_START.A
TARGET_POS.B = TAUGHT_START.B
TARGET_POS.C = TAUGHT_START.C
LIN TARGET_POS C_DIS
CONTINUE
OFFSET_POS = {X 7.734, Y -54.529, Z 2.000, A 0, B 0, C 0}
TARGET_POS = TAUGHT_START
TARGET_POS.X = TAUGHT_START.X + OFFSET_POS.X
TARGET_POS.Y = TAUGHT_START.Y + OFFSET_POS.Y
TARGET_POS.Z = TAUGHT_START.Z + OFFSET_POS.Z
TARGET_POS.A = TAUGHT_START.A
TARGET_POS.B = TAUGHT_START.B
TARGET_POS.C = TAUGHT_START.C
LIN TARGET_POS C_DIS
CONTINUE
OFFSET_POS = {X 9.611, Y -53.836, Z 2.000, A 0, B 0, C 0}
TARGET_POS = TAUGHT_START
TARGET_POS.X = TAUGHT_START.X + OFFSET_POS.X
TARGET_POS.Y = TAUGHT_START.Y + OFFSET_POS.Y
TARGET_POS.Z = TAUGHT_START.Z + OFFSET_POS.Z
TARGET_POS.A = TAUGHT_START.A
TARGET_POS.B = TAUGHT_START.B
TARGET_POS.C = TAUGHT_START.C
LIN TARGET_POS C_DIS
CONTINUE
OFFSET_POS = {X 10.421, Y -53.461, Z 2.000, A 0, B 0, C 0}
TARGET_POS = TAUGHT_START
TARGET_POS.X = TAUGHT_START.X + OFFSET_POS.X
TARGET_POS.Y = TAUGHT_START.Y + OFFSET_POS.Y
TARGET_POS.Z = TAUGHT_START.Z + OFFSET_POS.Z
TARGET_POS.A = TAUGHT_START.A
TARGET_POS.B = TAUGHT_START.B
TARGET_POS.C = TAUGHT_START.C
LIN TARGET_POS C_DIS
CONTINUE
OFFSET_POS = {X 10.904, Y -53.228, Z 2.000, A 0, B 0, C 0}
TARGET_POS = TAUGHT_START
TARGET_POS.X = TAUGHT_START.X + OFFSET_POS.X
TARGET_POS.Y = TAUGHT_START.Y + OFFSET_POS.Y
TARGET_POS.Z = TAUGHT_START.Z + OFFSET_POS.Z
TARGET_POS.A = TAUGHT_START.A
TARGET_POS.B = TAUGHT_START.B
TARGET_POS.C = TAUGHT_START.C
LIN TARGET_POS C_DIS
CONTINUE
OFFSET_POS = {X 12.268, Y -52.544, Z 2.000, A 0, B 0, C 0}
TARGET_POS = TAUGHT_START
TARGET_POS.X = TAUGHT_START.X + OFFSET_POS.X
TARGET_POS.Y = TAUGHT_START.Y + OFFSET_POS.Y
TARGET_POS.Z = TAUGHT_START.Z + OFFSET_POS.Z
TARGET_POS.A = TAUGHT_START.A
TARGET_POS.B = TAUGHT_START.B
TARGET_POS.C = TAUGHT_START.C
LIN TARGET_POS C_DIS
CONTINUE
OFFSET_POS = {X 13.438, Y -51.834, Z 2.000, A 0, B 0, C 0}
TARGET_POS = TAUGHT_START
TARGET_POS.X = TAUGHT_START.X + OFFSET_POS.X
TARGET_POS.Y = TAUGHT_START.Y + OFFSET_POS.Y
TARGET_POS.Z = TAUGHT_START.Z + OFFSET_POS.Z
TARGET_POS.A = TAUGHT_START.A
TARGET_POS.B = TAUGHT_START.B
TARGET_POS.C = TAUGHT_START.C
LIN TARGET_POS C_DIS
CONTINUE
OFFSET_POS = {X 13.892, Y -51.549, Z 2.000, A 0, B 0, C 0}
TARGET_POS = TAUGHT_START
TARGET_POS.X = TAUGHT_START.X + OFFSET_POS.X
TARGET_POS.Y = TAUGHT_START.Y + OFFSET_POS.Y
TARGET_POS.Z = TAUGHT_START.Z + OFFSET_POS.Z
TARGET_POS.A = TAUGHT_START.A
TARGET_POS.B = TAUGHT_START.B
TARGET_POS.C = TAUGHT_START.C
LIN TARGET_POS C_DIS
CONTINUE
OFFSET_POS = {X 14.855, Y -50.914, Z 2.000, A 0, B 0, C 0}
TARGET_POS = TAUGHT_START
TARGET_POS.X = TAUGHT_START.X + OFFSET_POS.X
TARGET_POS.Y = TAUGHT_START.Y + OFFSET_POS.Y
TARGET_POS.Z = TAUGHT_START.Z + OFFSET_POS.Z
TARGET_POS.A = TAUGHT_START.A
TARGET_POS.B = TAUGHT_START.B
TARGET_POS.C = TAUGHT_START.C
LIN TARGET_POS C_DIS
CONTINUE
OFFSET_POS = {X 16.233, Y -49.852, Z 2.000, A 0, B 0, C 0}
TARGET_POS = TAUGHT_START
TARGET_POS.X = TAUGHT_START.X + OFFSET_POS.X
TARGET_POS.Y = TAUGHT_START.Y + OFFSET_POS.Y
TARGET_POS.Z = TAUGHT_START.Z + OFFSET_POS.Z
TARGET_POS.A = TAUGHT_START.A
TARGET_POS.B = TAUGHT_START.B
TARGET_POS.C = TAUGHT_START.C
LIN TARGET_POS C_DIS
CONTINUE
OFFSET_POS = {X 16.652, Y -49.518, Z 2.000, A 0, B 0, C 0}
TARGET_POS = TAUGHT_START
TARGET_POS.X = TAUGHT_START.X + OFFSET_POS.X
TARGET_POS.Y = TAUGHT_START.Y + OFFSET_POS.Y
TARGET_POS.Z = TAUGHT_START.Z + OFFSET_POS.Z
TARGET_POS.A = TAUGHT_START.A
TARGET_POS.B = TAUGHT_START.B
TARGET_POS.C = TAUGHT_START.C
LIN TARGET_POS C_DIS
CONTINUE
OFFSET_POS = {X 17.162, Y -49.091, Z 2.000, A 0, B 0, C 0}
TARGET_POS = TAUGHT_START
TARGET_POS.X = TAUGHT_START.X + OFFSET_POS.X
TARGET_POS.Y = TAUGHT_START.Y + OFFSET_POS.Y
TARGET_POS.Z = TAUGHT_START.Z + OFFSET_POS.Z
TARGET_POS.A = TAUGHT_START.A
TARGET_POS.B = TAUGHT_START.B
TARGET_POS.C = TAUGHT_START.C
LIN TARGET_POS C_DIS
CONTINUE
OFFSET_POS = {X 18.817, Y -47.493, Z 2.000, A 0, B 0, C 0}
TARGET_POS = TAUGHT_START
TARGET_POS.X = TAUGHT_START.X + OFFSET_POS.X
TARGET_POS.Y = TAUGHT_START.Y + OFFSET_POS.Y
TARGET_POS.Z = TAUGHT_START.Z + OFFSET_POS.Z
TARGET_POS.A = TAUGHT_START.A
TARGET_POS.B = TAUGHT_START.B
TARGET_POS.C = TAUGHT_START.C
LIN TARGET_POS C_DIS
CONTINUE
OFFSET_POS = {X 19.297, Y -46.994, Z 2.000, A 0, B 0, C 0}
TARGET_POS = TAUGHT_START
TARGET_POS.X = TAUGHT_START.X + OFFSET_POS.X
TARGET_POS.Y = TAUGHT_START.Y + OFFSET_POS.Y
TARGET_POS.Z = TAUGHT_START.Z + OFFSET_POS.Z
TARGET_POS.A = TAUGHT_START.A
TARGET_POS.B = TAUGHT_START.B
TARGET_POS.C = TAUGHT_START.C
LIN TARGET_POS C_DIS
CONTINUE
OFFSET_POS = {X 21.061, Y -44.866, Z 2.000, A 0, B 0, C 0}
TARGET_POS = TAUGHT_START
TARGET_POS.X = TAUGHT_START.X + OFFSET_POS.X
TARGET_POS.Y = TAUGHT_START.Y + OFFSET_POS.Y
TARGET_POS.Z = TAUGHT_START.Z + OFFSET_POS.Z
TARGET_POS.A = TAUGHT_START.A
TARGET_POS.B = TAUGHT_START.B
TARGET_POS.C = TAUGHT_START.C
LIN TARGET_POS C_DIS
CONTINUE
OFFSET_POS = {X 21.435, Y -44.315, Z 2.000, A 0, B 0, C 0}
TARGET_POS = TAUGHT_START
TARGET_POS.X = TAUGHT_START.X + OFFSET_POS.X
TARGET_POS.Y = TAUGHT_START.Y + OFFSET_POS.Y
TARGET_POS.Z = TAUGHT_START.Z + OFFSET_POS.Z
TARGET_POS.A = TAUGHT_START.A
TARGET_POS.B = TAUGHT_START.B
TARGET_POS.C = TAUGHT_START.C
LIN TARGET_POS C_DIS
CONTINUE
OFFSET_POS = {X 22.694, Y -42.396, Z 2.000, A 0, B 0, C 0}
TARGET_POS = TAUGHT_START
TARGET_POS.X = TAUGHT_START.X + OFFSET_POS.X
TARGET_POS.Y = TAUGHT_START.Y + OFFSET_POS.Y
TARGET_POS.Z = TAUGHT_START.Z + OFFSET_POS.Z
TARGET_POS.A = TAUGHT_START.A
TARGET_POS.B = TAUGHT_START.B
TARGET_POS.C = TAUGHT_START.C
LIN TARGET_POS C_DIS
CONTINUE
OFFSET_POS = {X 22.979, Y -41.870, Z 2.000, A 0, B 0, C 0}
TARGET_POS = TAUGHT_START
TARGET_POS.X = TAUGHT_START.X + OFFSET_POS.X
TARGET_POS.Y = TAUGHT_START.Y + OFFSET_POS.Y
TARGET_POS.Z = TAUGHT_START.Z + OFFSET_POS.Z
TARGET_POS.A = TAUGHT_START.A
TARGET_POS.B = TAUGHT_START.B
TARGET_POS.C = TAUGHT_START.C
LIN TARGET_POS C_DIS
CONTINUE
OFFSET_POS = {X 23.229, Y -41.395, Z 2.000, A 0, B 0, C 0}
TARGET_POS = TAUGHT_START
TARGET_POS.X = TAUGHT_START.X + OFFSET_POS.X
TARGET_POS.Y = TAUGHT_START.Y + OFFSET_POS.Y
TARGET_POS.Z = TAUGHT_START.Z + OFFSET_POS.Z
TARGET_POS.A = TAUGHT_START.A
TARGET_POS.B = TAUGHT_START.B
TARGET_POS.C = TAUGHT_START.C
LIN TARGET_POS C_DIS
CONTINUE
OFFSET_POS = {X 24.039, Y -39.799, Z 2.000, A 0, B 0, C 0}
TARGET_POS = TAUGHT_START
TARGET_POS.X = TAUGHT_START.X + OFFSET_POS.X
TARGET_POS.Y = TAUGHT_START.Y + OFFSET_POS.Y
TARGET_POS.Z = TAUGHT_START.Z + OFFSET_POS.Z
TARGET_POS.A = TAUGHT_START.A
TARGET_POS.B = TAUGHT_START.B
TARGET_POS.C = TAUGHT_START.C
LIN TARGET_POS C_DIS
CONTINUE
OFFSET_POS = {X 24.458, Y -38.778, Z 2.000, A 0, B 0, C 0}
TARGET_POS = TAUGHT_START
TARGET_POS.X = TAUGHT_START.X + OFFSET_POS.X
TARGET_POS.Y = TAUGHT_START.Y + OFFSET_POS.Y
TARGET_POS.Z = TAUGHT_START.Z + OFFSET_POS.Z
TARGET_POS.A = TAUGHT_START.A
TARGET_POS.B = TAUGHT_START.B
TARGET_POS.C = TAUGHT_START.C
LIN TARGET_POS C_DIS
CONTINUE
OFFSET_POS = {X 24.654, Y -38.279, Z 2.000, A 0, B 0, C 0}
TARGET_POS = TAUGHT_START
TARGET_POS.X = TAUGHT_START.X + OFFSET_POS.X
TARGET_POS.Y = TAUGHT_START.Y + OFFSET_POS.Y
TARGET_POS.Z = TAUGHT_START.Z + OFFSET_POS.Z
TARGET_POS.A = TAUGHT_START.A
TARGET_POS.B = TAUGHT_START.B
TARGET_POS.C = TAUGHT_START.C
LIN TARGET_POS C_DIS
CONTINUE
OFFSET_POS = {X 25.115, Y -37.048, Z 2.000, A 0, B 0, C 0}
TARGET_POS = TAUGHT_START
TARGET_POS.X = TAUGHT_START.X + OFFSET_POS.X
TARGET_POS.Y = TAUGHT_START.Y + OFFSET_POS.Y
TARGET_POS.Z = TAUGHT_START.Z + OFFSET_POS.Z
TARGET_POS.A = TAUGHT_START.A
TARGET_POS.B = TAUGHT_START.B
TARGET_POS.C = TAUGHT_START.C
LIN TARGET_POS C_DIS
CONTINUE
OFFSET_POS = {X 25.573, Y -35.444, Z 2.000, A 0, B 0, C 0}
TARGET_POS = TAUGHT_START
TARGET_POS.X = TAUGHT_START.X + OFFSET_POS.X
TARGET_POS.Y = TAUGHT_START.Y + OFFSET_POS.Y
TARGET_POS.Z = TAUGHT_START.Z + OFFSET_POS.Z
TARGET_POS.A = TAUGHT_START.A
TARGET_POS.B = TAUGHT_START.B
TARGET_POS.C = TAUGHT_START.C
LIN TARGET_POS C_DIS
CONTINUE
OFFSET_POS = {X 25.907, Y -34.218, Z 2.000, A 0, B 0, C 0}
TARGET_POS = TAUGHT_START
TARGET_POS.X = TAUGHT_START.X + OFFSET_POS.X
TARGET_POS.Y = TAUGHT_START.Y + OFFSET_POS.Y
TARGET_POS.Z = TAUGHT_START.Z + OFFSET_POS.Z
TARGET_POS.A = TAUGHT_START.A
TARGET_POS.B = TAUGHT_START.B
TARGET_POS.C = TAUGHT_START.C
LIN TARGET_POS C_DIS
CONTINUE
OFFSET_POS = {X 26.042, Y -33.378, Z 2.000, A 0, B 0, C 0}
TARGET_POS = TAUGHT_START
TARGET_POS.X = TAUGHT_START.X + OFFSET_POS.X
TARGET_POS.Y = TAUGHT_START.Y + OFFSET_POS.Y
TARGET_POS.Z = TAUGHT_START.Z + OFFSET_POS.Z
TARGET_POS.A = TAUGHT_START.A
TARGET_POS.B = TAUGHT_START.B
TARGET_POS.C = TAUGHT_START.C
LIN TARGET_POS C_DIS
CONTINUE
OFFSET_POS = {X 26.124, Y -33.135, Z 2.000, A 0, B 0, C 0}
TARGET_POS = TAUGHT_START
TARGET_POS.X = TAUGHT_START.X + OFFSET_POS.X
TARGET_POS.Y = TAUGHT_START.Y + OFFSET_POS.Y
TARGET_POS.Z = TAUGHT_START.Z + OFFSET_POS.Z
TARGET_POS.A = TAUGHT_START.A
TARGET_POS.B = TAUGHT_START.B
TARGET_POS.C = TAUGHT_START.C
LIN TARGET_POS C_DIS
CONTINUE
OFFSET_POS = {X 26.205, Y -32.893, Z 2.000, A 0, B 0, C 0}
TARGET_POS = TAUGHT_START
TARGET_POS.X = TAUGHT_START.X + OFFSET_POS.X
TARGET_POS.Y = TAUGHT_START.Y + OFFSET_POS.Y
TARGET_POS.Z = TAUGHT_START.Z + OFFSET_POS.Z
TARGET_POS.A = TAUGHT_START.A
TARGET_POS.B = TAUGHT_START.B
TARGET_POS.C = TAUGHT_START.C
LIN TARGET_POS C_DIS
CONTINUE
OFFSET_POS = {X 26.286, Y -32.650, Z 2.000, A 0, B 0, C 0}
TARGET_POS = TAUGHT_START
TARGET_POS.X = TAUGHT_START.X + OFFSET_POS.X
TARGET_POS.Y = TAUGHT_START.Y + OFFSET_POS.Y
TARGET_POS.Z = TAUGHT_START.Z + OFFSET_POS.Z
TARGET_POS.A = TAUGHT_START.A
TARGET_POS.B = TAUGHT_START.B
TARGET_POS.C = TAUGHT_START.C
LIN TARGET_POS C_DIS
CONTINUE
OFFSET_POS = {X 26.368, Y -32.407, Z 2.000, A 0, B 0, C 0}
TARGET_POS = TAUGHT_START
TARGET_POS.X = TAUGHT_START.X + OFFSET_POS.X
TARGET_POS.Y = TAUGHT_START.Y + OFFSET_POS.Y
TARGET_POS.Z = TAUGHT_START.Z + OFFSET_POS.Z
TARGET_POS.A = TAUGHT_START.A
TARGET_POS.B = TAUGHT_START.B
TARGET_POS.C = TAUGHT_START.C
LIN TARGET_POS C_DIS
CONTINUE
OFFSET_POS = {X 26.432, Y -32.242, Z 2.000, A 0, B 0, C 0}
TARGET_POS = TAUGHT_START
TARGET_POS.X = TAUGHT_START.X + OFFSET_POS.X
TARGET_POS.Y = TAUGHT_START.Y + OFFSET_POS.Y
TARGET_POS.Z = TAUGHT_START.Z + OFFSET_POS.Z
TARGET_POS.A = TAUGHT_START.A
TARGET_POS.B = TAUGHT_START.B
TARGET_POS.C = TAUGHT_START.C
LIN TARGET_POS C_DIS
CONTINUE
OFFSET_POS = {X 26.496, Y -32.077, Z 2.000, A 0, B 0, C 0}
TARGET_POS = TAUGHT_START
TARGET_POS.X = TAUGHT_START.X + OFFSET_POS.X
TARGET_POS.Y = TAUGHT_START.Y + OFFSET_POS.Y
TARGET_POS.Z = TAUGHT_START.Z + OFFSET_POS.Z
TARGET_POS.A = TAUGHT_START.A
TARGET_POS.B = TAUGHT_START.B
TARGET_POS.C = TAUGHT_START.C
LIN TARGET_POS C_DIS
CONTINUE
OFFSET_POS = {X 26.560, Y -31.912, Z 2.000, A 0, B 0, C 0}
TARGET_POS = TAUGHT_START
TARGET_POS.X = TAUGHT_START.X + OFFSET_POS.X
TARGET_POS.Y = TAUGHT_START.Y + OFFSET_POS.Y
TARGET_POS.Z = TAUGHT_START.Z + OFFSET_POS.Z
TARGET_POS.A = TAUGHT_START.A
TARGET_POS.B = TAUGHT_START.B
TARGET_POS.C = TAUGHT_START.C
LIN TARGET_POS C_DIS
CONTINUE
OFFSET_POS = {X 26.624, Y -31.747, Z 2.000, A 0, B 0, C 0}
TARGET_POS = TAUGHT_START
TARGET_POS.X = TAUGHT_START.X + OFFSET_POS.X
TARGET_POS.Y = TAUGHT_START.Y + OFFSET_POS.Y
TARGET_POS.Z = TAUGHT_START.Z + OFFSET_POS.Z
TARGET_POS.A = TAUGHT_START.A
TARGET_POS.B = TAUGHT_START.B
TARGET_POS.C = TAUGHT_START.C
LIN TARGET_POS C_DIS
CONTINUE
OFFSET_POS = {X 26.688, Y -31.582, Z 2.000, A 0, B 0, C 0}
TARGET_POS = TAUGHT_START
TARGET_POS.X = TAUGHT_START.X + OFFSET_POS.X
TARGET_POS.Y = TAUGHT_START.Y + OFFSET_POS.Y
TARGET_POS.Z = TAUGHT_START.Z + OFFSET_POS.Z
TARGET_POS.A = TAUGHT_START.A
TARGET_POS.B = TAUGHT_START.B
TARGET_POS.C = TAUGHT_START.C
LIN TARGET_POS C_DIS
CONTINUE
OFFSET_POS = {X 26.740, Y -31.406, Z 2.000, A 0, B 0, C 0}
TARGET_POS = TAUGHT_START
TARGET_POS.X = TAUGHT_START.X + OFFSET_POS.X
TARGET_POS.Y = TAUGHT_START.Y + OFFSET_POS.Y
TARGET_POS.Z = TAUGHT_START.Z + OFFSET_POS.Z
TARGET_POS.A = TAUGHT_START.A
TARGET_POS.B = TAUGHT_START.B
TARGET_POS.C = TAUGHT_START.C
LIN TARGET_POS C_DIS
CONTINUE
OFFSET_POS = {X 26.776, Y -31.287, Z 2.000, A 0, B 0, C 0}
TARGET_POS = TAUGHT_START
TARGET_POS.X = TAUGHT_START.X + OFFSET_POS.X
TARGET_POS.Y = TAUGHT_START.Y + OFFSET_POS.Y
TARGET_POS.Z = TAUGHT_START.Z + OFFSET_POS.Z
TARGET_POS.A = TAUGHT_START.A
TARGET_POS.B = TAUGHT_START.B
TARGET_POS.C = TAUGHT_START.C
LIN TARGET_POS C_DIS
$OUT[1] = FALSE
WAIT SEC 0.200
WAIT SEC 55.00
OFFSET_POS = {X 1.560, Y -0.413, Z 2.000, A 0, B 0, C 0}
TARGET_POS = TAUGHT_START
TARGET_POS.X = TAUGHT_START.X + OFFSET_POS.X
TARGET_POS.Y = TAUGHT_START.Y + OFFSET_POS.Y
TARGET_POS.Z = TAUGHT_START.Z + OFFSET_POS.Z
TARGET_POS.A = TAUGHT_START.A
TARGET_POS.B = TAUGHT_START.B
TARGET_POS.C = TAUGHT_START.C
LIN TARGET_POS C_DIS
$OUT[1] = TRUE
WAIT SEC 0.200
OFFSET_POS = {X 1.697, Y -0.461, Z 2.000, A 0, B 0, C 0}
TARGET_POS = TAUGHT_START
TARGET_POS.X = TAUGHT_START.X + OFFSET_POS.X
TARGET_POS.Y = TAUGHT_START.Y + OFFSET_POS.Y
TARGET_POS.Z = TAUGHT_START.Z + OFFSET_POS.Z
TARGET_POS.A = TAUGHT_START.A
TARGET_POS.B = TAUGHT_START.B
TARGET_POS.C = TAUGHT_START.C
LIN TARGET_POS C_DIS
CONTINUE
OFFSET_POS = {X 1.885, Y -0.527, Z 2.000, A 0, B 0, C 0}
TARGET_POS = TAUGHT_START
TARGET_POS.X = TAUGHT_START.X + OFFSET_POS.X
TARGET_POS.Y = TAUGHT_START.Y + OFFSET_POS.Y
TARGET_POS.Z = TAUGHT_START.Z + OFFSET_POS.Z
TARGET_POS.A = TAUGHT_START.A
TARGET_POS.B = TAUGHT_START.B
TARGET_POS.C = TAUGHT_START.C
LIN TARGET_POS C_DIS
CONTINUE
OFFSET_POS = {X 2.072, Y -0.593, Z 2.000, A 0, B 0, C 0}
TARGET_POS = TAUGHT_START
TARGET_POS.X = TAUGHT_START.X + OFFSET_POS.X
TARGET_POS.Y = TAUGHT_START.Y + OFFSET_POS.Y
TARGET_POS.Z = TAUGHT_START.Z + OFFSET_POS.Z
TARGET_POS.A = TAUGHT_START.A
TARGET_POS.B = TAUGHT_START.B
TARGET_POS.C = TAUGHT_START.C
LIN TARGET_POS C_DIS
CONTINUE
OFFSET_POS = {X 2.239, Y -0.653, Z 2.000, A 0, B 0, C 0}
TARGET_POS = TAUGHT_START
TARGET_POS.X = TAUGHT_START.X + OFFSET_POS.X
TARGET_POS.Y = TAUGHT_START.Y + OFFSET_POS.Y
TARGET_POS.Z = TAUGHT_START.Z + OFFSET_POS.Z
TARGET_POS.A = TAUGHT_START.A
TARGET_POS.B = TAUGHT_START.B
TARGET_POS.C = TAUGHT_START.C
LIN TARGET_POS C_DIS
CONTINUE
OFFSET_POS = {X 2.406, Y -0.714, Z 2.000, A 0, B 0, C 0}
TARGET_POS = TAUGHT_START
TARGET_POS.X = TAUGHT_START.X + OFFSET_POS.X
TARGET_POS.Y = TAUGHT_START.Y + OFFSET_POS.Y
TARGET_POS.Z = TAUGHT_START.Z + OFFSET_POS.Z
TARGET_POS.A = TAUGHT_START.A
TARGET_POS.B = TAUGHT_START.B
TARGET_POS.C = TAUGHT_START.C
LIN TARGET_POS C_DIS
CONTINUE
OFFSET_POS = {X 2.572, Y -0.774, Z 2.000, A 0, B 0, C 0}
TARGET_POS = TAUGHT_START
TARGET_POS.X = TAUGHT_START.X + OFFSET_POS.X
TARGET_POS.Y = TAUGHT_START.Y + OFFSET_POS.Y
TARGET_POS.Z = TAUGHT_START.Z + OFFSET_POS.Z
TARGET_POS.A = TAUGHT_START.A
TARGET_POS.B = TAUGHT_START.B
TARGET_POS.C = TAUGHT_START.C
LIN TARGET_POS C_DIS
CONTINUE
OFFSET_POS = {X 2.739, Y -0.834, Z 2.000, A 0, B 0, C 0}
TARGET_POS = TAUGHT_START
TARGET_POS.X = TAUGHT_START.X + OFFSET_POS.X
TARGET_POS.Y = TAUGHT_START.Y + OFFSET_POS.Y
TARGET_POS.Z = TAUGHT_START.Z + OFFSET_POS.Z
TARGET_POS.A = TAUGHT_START.A
TARGET_POS.B = TAUGHT_START.B
TARGET_POS.C = TAUGHT_START.C
LIN TARGET_POS C_DIS
CONTINUE
OFFSET_POS = {X 2.905, Y -0.894, Z 2.000, A 0, B 0, C 0}
TARGET_POS = TAUGHT_START
TARGET_POS.X = TAUGHT_START.X + OFFSET_POS.X
TARGET_POS.Y = TAUGHT_START.Y + OFFSET_POS.Y
TARGET_POS.Z = TAUGHT_START.Z + OFFSET_POS.Z
TARGET_POS.A = TAUGHT_START.A
TARGET_POS.B = TAUGHT_START.B
TARGET_POS.C = TAUGHT_START.C
LIN TARGET_POS C_DIS
CONTINUE
OFFSET_POS = {X 3.151, Y -0.970, Z 2.000, A 0, B 0, C 0}
TARGET_POS = TAUGHT_START
TARGET_POS.X = TAUGHT_START.X + OFFSET_POS.X
TARGET_POS.Y = TAUGHT_START.Y + OFFSET_POS.Y
TARGET_POS.Z = TAUGHT_START.Z + OFFSET_POS.Z
TARGET_POS.A = TAUGHT_START.A
TARGET_POS.B = TAUGHT_START.B
TARGET_POS.C = TAUGHT_START.C
LIN TARGET_POS C_DIS
CONTINUE
OFFSET_POS = {X 3.396, Y -1.046, Z 2.000, A 0, B 0, C 0}
TARGET_POS = TAUGHT_START
TARGET_POS.X = TAUGHT_START.X + OFFSET_POS.X
TARGET_POS.Y = TAUGHT_START.Y + OFFSET_POS.Y
TARGET_POS.Z = TAUGHT_START.Z + OFFSET_POS.Z
TARGET_POS.A = TAUGHT_START.A
TARGET_POS.B = TAUGHT_START.B
TARGET_POS.C = TAUGHT_START.C
LIN TARGET_POS C_DIS
CONTINUE
OFFSET_POS = {X 3.642, Y -1.122, Z 2.000, A 0, B 0, C 0}
TARGET_POS = TAUGHT_START
TARGET_POS.X = TAUGHT_START.X + OFFSET_POS.X
TARGET_POS.Y = TAUGHT_START.Y + OFFSET_POS.Y
TARGET_POS.Z = TAUGHT_START.Z + OFFSET_POS.Z
TARGET_POS.A = TAUGHT_START.A
TARGET_POS.B = TAUGHT_START.B
TARGET_POS.C = TAUGHT_START.C
LIN TARGET_POS C_DIS
CONTINUE
OFFSET_POS = {X 3.887, Y -1.198, Z 2.000, A 0, B 0, C 0}
TARGET_POS = TAUGHT_START
TARGET_POS.X = TAUGHT_START.X + OFFSET_POS.X
TARGET_POS.Y = TAUGHT_START.Y + OFFSET_POS.Y
TARGET_POS.Z = TAUGHT_START.Z + OFFSET_POS.Z
TARGET_POS.A = TAUGHT_START.A
TARGET_POS.B = TAUGHT_START.B
TARGET_POS.C = TAUGHT_START.C
LIN TARGET_POS C_DIS
CONTINUE
OFFSET_POS = {X 4.815, Y -1.412, Z 2.000, A 0, B 0, C 0}
TARGET_POS = TAUGHT_START
TARGET_POS.X = TAUGHT_START.X + OFFSET_POS.X
TARGET_POS.Y = TAUGHT_START.Y + OFFSET_POS.Y
TARGET_POS.Z = TAUGHT_START.Z + OFFSET_POS.Z
TARGET_POS.A = TAUGHT_START.A
TARGET_POS.B = TAUGHT_START.B
TARGET_POS.C = TAUGHT_START.C
LIN TARGET_POS C_DIS
CONTINUE
OFFSET_POS = {X 5.880, Y -1.672, Z 2.000, A 0, B 0, C 0}
TARGET_POS = TAUGHT_START
TARGET_POS.X = TAUGHT_START.X + OFFSET_POS.X
TARGET_POS.Y = TAUGHT_START.Y + OFFSET_POS.Y
TARGET_POS.Z = TAUGHT_START.Z + OFFSET_POS.Z
TARGET_POS.A = TAUGHT_START.A
TARGET_POS.B = TAUGHT_START.B
TARGET_POS.C = TAUGHT_START.C
LIN TARGET_POS C_DIS
CONTINUE
OFFSET_POS = {X 6.750, Y -1.887, Z 2.000, A 0, B 0, C 0}
TARGET_POS = TAUGHT_START
TARGET_POS.X = TAUGHT_START.X + OFFSET_POS.X
TARGET_POS.Y = TAUGHT_START.Y + OFFSET_POS.Y
TARGET_POS.Z = TAUGHT_START.Z + OFFSET_POS.Z
TARGET_POS.A = TAUGHT_START.A
TARGET_POS.B = TAUGHT_START.B
TARGET_POS.C = TAUGHT_START.C
LIN TARGET_POS C_DIS
CONTINUE
OFFSET_POS = {X 7.228, Y -2.040, Z 2.000, A 0, B 0, C 0}
TARGET_POS = TAUGHT_START
TARGET_POS.X = TAUGHT_START.X + OFFSET_POS.X
TARGET_POS.Y = TAUGHT_START.Y + OFFSET_POS.Y
TARGET_POS.Z = TAUGHT_START.Z + OFFSET_POS.Z
TARGET_POS.A = TAUGHT_START.A
TARGET_POS.B = TAUGHT_START.B
TARGET_POS.C = TAUGHT_START.C
LIN TARGET_POS C_DIS
CONTINUE
OFFSET_POS = {X 7.734, Y -2.218, Z 2.000, A 0, B 0, C 0}
TARGET_POS = TAUGHT_START
TARGET_POS.X = TAUGHT_START.X + OFFSET_POS.X
TARGET_POS.Y = TAUGHT_START.Y + OFFSET_POS.Y
TARGET_POS.Z = TAUGHT_START.Z + OFFSET_POS.Z
TARGET_POS.A = TAUGHT_START.A
TARGET_POS.B = TAUGHT_START.B
TARGET_POS.C = TAUGHT_START.C
LIN TARGET_POS C_DIS
CONTINUE
OFFSET_POS = {X 9.519, Y -2.877, Z 2.000, A 0, B 0, C 0}
TARGET_POS = TAUGHT_START
TARGET_POS.X = TAUGHT_START.X + OFFSET_POS.X
TARGET_POS.Y = TAUGHT_START.Y + OFFSET_POS.Y
TARGET_POS.Z = TAUGHT_START.Z + OFFSET_POS.Z
TARGET_POS.A = TAUGHT_START.A
TARGET_POS.B = TAUGHT_START.B
TARGET_POS.C = TAUGHT_START.C
LIN TARGET_POS C_DIS
CONTINUE
OFFSET_POS = {X 10.421, Y -3.286, Z 2.000, A 0, B 0, C 0}
TARGET_POS = TAUGHT_START
TARGET_POS.X = TAUGHT_START.X + OFFSET_POS.X
TARGET_POS.Y = TAUGHT_START.Y + OFFSET_POS.Y
TARGET_POS.Z = TAUGHT_START.Z + OFFSET_POS.Z
TARGET_POS.A = TAUGHT_START.A
TARGET_POS.B = TAUGHT_START.B
TARGET_POS.C = TAUGHT_START.C
LIN TARGET_POS C_DIS
CONTINUE
OFFSET_POS = {X 10.904, Y -3.519, Z 2.000, A 0, B 0, C 0}
TARGET_POS = TAUGHT_START
TARGET_POS.X = TAUGHT_START.X + OFFSET_POS.X
TARGET_POS.Y = TAUGHT_START.Y + OFFSET_POS.Y
TARGET_POS.Z = TAUGHT_START.Z + OFFSET_POS.Z
TARGET_POS.A = TAUGHT_START.A
TARGET_POS.B = TAUGHT_START.B
TARGET_POS.C = TAUGHT_START.C
LIN TARGET_POS C_DIS
CONTINUE
OFFSET_POS = {X 12.268, Y -4.204, Z 2.000, A 0, B 0, C 0}
TARGET_POS = TAUGHT_START
TARGET_POS.X = TAUGHT_START.X + OFFSET_POS.X
TARGET_POS.Y = TAUGHT_START.Y + OFFSET_POS.Y
TARGET_POS.Z = TAUGHT_START.Z + OFFSET_POS.Z
TARGET_POS.A = TAUGHT_START.A
TARGET_POS.B = TAUGHT_START.B
TARGET_POS.C = TAUGHT_START.C
LIN TARGET_POS C_DIS
CONTINUE
OFFSET_POS = {X 13.438, Y -4.913, Z 2.000, A 0, B 0, C 0}
TARGET_POS = TAUGHT_START
TARGET_POS.X = TAUGHT_START.X + OFFSET_POS.X
TARGET_POS.Y = TAUGHT_START.Y + OFFSET_POS.Y
TARGET_POS.Z = TAUGHT_START.Z + OFFSET_POS.Z
TARGET_POS.A = TAUGHT_START.A
TARGET_POS.B = TAUGHT_START.B
TARGET_POS.C = TAUGHT_START.C
LIN TARGET_POS C_DIS
CONTINUE
OFFSET_POS = {X 13.892, Y -5.198, Z 2.000, A 0, B 0, C 0}
TARGET_POS = TAUGHT_START
TARGET_POS.X = TAUGHT_START.X + OFFSET_POS.X
TARGET_POS.Y = TAUGHT_START.Y + OFFSET_POS.Y
TARGET_POS.Z = TAUGHT_START.Z + OFFSET_POS.Z
TARGET_POS.A = TAUGHT_START.A
TARGET_POS.B = TAUGHT_START.B
TARGET_POS.C = TAUGHT_START.C
LIN TARGET_POS C_DIS
CONTINUE
OFFSET_POS = {X 14.773, Y -5.771, Z 2.000, A 0, B 0, C 0}
TARGET_POS = TAUGHT_START
TARGET_POS.X = TAUGHT_START.X + OFFSET_POS.X
TARGET_POS.Y = TAUGHT_START.Y + OFFSET_POS.Y
TARGET_POS.Z = TAUGHT_START.Z + OFFSET_POS.Z
TARGET_POS.A = TAUGHT_START.A
TARGET_POS.B = TAUGHT_START.B
TARGET_POS.C = TAUGHT_START.C
LIN TARGET_POS C_DIS
CONTINUE
OFFSET_POS = {X 16.233, Y -6.895, Z 2.000, A 0, B 0, C 0}
TARGET_POS = TAUGHT_START
TARGET_POS.X = TAUGHT_START.X + OFFSET_POS.X
TARGET_POS.Y = TAUGHT_START.Y + OFFSET_POS.Y
TARGET_POS.Z = TAUGHT_START.Z + OFFSET_POS.Z
TARGET_POS.A = TAUGHT_START.A
TARGET_POS.B = TAUGHT_START.B
TARGET_POS.C = TAUGHT_START.C
LIN TARGET_POS C_DIS
CONTINUE
OFFSET_POS = {X 16.652, Y -7.229, Z 2.000, A 0, B 0, C 0}
TARGET_POS = TAUGHT_START
TARGET_POS.X = TAUGHT_START.X + OFFSET_POS.X
TARGET_POS.Y = TAUGHT_START.Y + OFFSET_POS.Y
TARGET_POS.Z = TAUGHT_START.Z + OFFSET_POS.Z
TARGET_POS.A = TAUGHT_START.A
TARGET_POS.B = TAUGHT_START.B
TARGET_POS.C = TAUGHT_START.C
LIN TARGET_POS C_DIS
CONTINUE
OFFSET_POS = {X 17.075, Y -7.573, Z 2.000, A 0, B 0, C 0}
TARGET_POS = TAUGHT_START
TARGET_POS.X = TAUGHT_START.X + OFFSET_POS.X
TARGET_POS.Y = TAUGHT_START.Y + OFFSET_POS.Y
TARGET_POS.Z = TAUGHT_START.Z + OFFSET_POS.Z
TARGET_POS.A = TAUGHT_START.A
TARGET_POS.B = TAUGHT_START.B
TARGET_POS.C = TAUGHT_START.C
LIN TARGET_POS C_DIS
CONTINUE
OFFSET_POS = {X 18.765, Y -9.203, Z 2.000, A 0, B 0, C 0}
TARGET_POS = TAUGHT_START
TARGET_POS.X = TAUGHT_START.X + OFFSET_POS.X
TARGET_POS.Y = TAUGHT_START.Y + OFFSET_POS.Y
TARGET_POS.Z = TAUGHT_START.Z + OFFSET_POS.Z
TARGET_POS.A = TAUGHT_START.A
TARGET_POS.B = TAUGHT_START.B
TARGET_POS.C = TAUGHT_START.C
LIN TARGET_POS C_DIS
CONTINUE
OFFSET_POS = {X 19.192, Y -9.626, Z 2.000, A 0, B 0, C 0}
TARGET_POS = TAUGHT_START
TARGET_POS.X = TAUGHT_START.X + OFFSET_POS.X
TARGET_POS.Y = TAUGHT_START.Y + OFFSET_POS.Y
TARGET_POS.Z = TAUGHT_START.Z + OFFSET_POS.Z
TARGET_POS.A = TAUGHT_START.A
TARGET_POS.B = TAUGHT_START.B
TARGET_POS.C = TAUGHT_START.C
LIN TARGET_POS C_DIS
CONTINUE
OFFSET_POS = {X 20.996, Y -11.802, Z 2.000, A 0, B 0, C 0}
TARGET_POS = TAUGHT_START
TARGET_POS.X = TAUGHT_START.X + OFFSET_POS.X
TARGET_POS.Y = TAUGHT_START.Y + OFFSET_POS.Y
TARGET_POS.Z = TAUGHT_START.Z + OFFSET_POS.Z
TARGET_POS.A = TAUGHT_START.A
TARGET_POS.B = TAUGHT_START.B
TARGET_POS.C = TAUGHT_START.C
LIN TARGET_POS C_DIS
CONTINUE
OFFSET_POS = {X 21.391, Y -12.366, Z 2.000, A 0, B 0, C 0}
TARGET_POS = TAUGHT_START
TARGET_POS.X = TAUGHT_START.X + OFFSET_POS.X
TARGET_POS.Y = TAUGHT_START.Y + OFFSET_POS.Y
TARGET_POS.Z = TAUGHT_START.Z + OFFSET_POS.Z
TARGET_POS.A = TAUGHT_START.A
TARGET_POS.B = TAUGHT_START.B
TARGET_POS.C = TAUGHT_START.C
LIN TARGET_POS C_DIS
CONTINUE
OFFSET_POS = {X 22.627, Y -14.249, Z 2.000, A 0, B 0, C 0}
TARGET_POS = TAUGHT_START
TARGET_POS.X = TAUGHT_START.X + OFFSET_POS.X
TARGET_POS.Y = TAUGHT_START.Y + OFFSET_POS.Y
TARGET_POS.Z = TAUGHT_START.Z + OFFSET_POS.Z
TARGET_POS.A = TAUGHT_START.A
TARGET_POS.B = TAUGHT_START.B
TARGET_POS.C = TAUGHT_START.C
LIN TARGET_POS C_DIS
CONTINUE
OFFSET_POS = {X 22.979, Y -14.877, Z 2.000, A 0, B 0, C 0}
TARGET_POS = TAUGHT_START
TARGET_POS.X = TAUGHT_START.X + OFFSET_POS.X
TARGET_POS.Y = TAUGHT_START.Y + OFFSET_POS.Y
TARGET_POS.Z = TAUGHT_START.Z + OFFSET_POS.Z
TARGET_POS.A = TAUGHT_START.A
TARGET_POS.B = TAUGHT_START.B
TARGET_POS.C = TAUGHT_START.C
LIN TARGET_POS C_DIS
CONTINUE
OFFSET_POS = {X 23.229, Y -15.352, Z 2.000, A 0, B 0, C 0}
TARGET_POS = TAUGHT_START
TARGET_POS.X = TAUGHT_START.X + OFFSET_POS.X
TARGET_POS.Y = TAUGHT_START.Y + OFFSET_POS.Y
TARGET_POS.Z = TAUGHT_START.Z + OFFSET_POS.Z
TARGET_POS.A = TAUGHT_START.A
TARGET_POS.B = TAUGHT_START.B
TARGET_POS.C = TAUGHT_START.C
LIN TARGET_POS C_DIS
CONTINUE
OFFSET_POS = {X 23.991, Y -16.854, Z 2.000, A 0, B 0, C 0}
TARGET_POS = TAUGHT_START
TARGET_POS.X = TAUGHT_START.X + OFFSET_POS.X
TARGET_POS.Y = TAUGHT_START.Y + OFFSET_POS.Y
TARGET_POS.Z = TAUGHT_START.Z + OFFSET_POS.Z
TARGET_POS.A = TAUGHT_START.A
TARGET_POS.B = TAUGHT_START.B
TARGET_POS.C = TAUGHT_START.C
LIN TARGET_POS C_DIS
CONTINUE
OFFSET_POS = {X 24.458, Y -17.969, Z 2.000, A 0, B 0, C 0}
TARGET_POS = TAUGHT_START
TARGET_POS.X = TAUGHT_START.X + OFFSET_POS.X
TARGET_POS.Y = TAUGHT_START.Y + OFFSET_POS.Y
TARGET_POS.Z = TAUGHT_START.Z + OFFSET_POS.Z
TARGET_POS.A = TAUGHT_START.A
TARGET_POS.B = TAUGHT_START.B
TARGET_POS.C = TAUGHT_START.C
LIN TARGET_POS C_DIS
CONTINUE
OFFSET_POS = {X 24.654, Y -18.468, Z 2.000, A 0, B 0, C 0}
TARGET_POS = TAUGHT_START
TARGET_POS.X = TAUGHT_START.X + OFFSET_POS.X
TARGET_POS.Y = TAUGHT_START.Y + OFFSET_POS.Y
TARGET_POS.Z = TAUGHT_START.Z + OFFSET_POS.Z
TARGET_POS.A = TAUGHT_START.A
TARGET_POS.B = TAUGHT_START.B
TARGET_POS.C = TAUGHT_START.C
LIN TARGET_POS C_DIS
CONTINUE
OFFSET_POS = {X 25.115, Y -19.699, Z 2.000, A 0, B 0, C 0}
TARGET_POS = TAUGHT_START
TARGET_POS.X = TAUGHT_START.X + OFFSET_POS.X
TARGET_POS.Y = TAUGHT_START.Y + OFFSET_POS.Y
TARGET_POS.Z = TAUGHT_START.Z + OFFSET_POS.Z
TARGET_POS.A = TAUGHT_START.A
TARGET_POS.B = TAUGHT_START.B
TARGET_POS.C = TAUGHT_START.C
LIN TARGET_POS C_DIS
CONTINUE
OFFSET_POS = {X 25.573, Y -21.303, Z 2.000, A 0, B 0, C 0}
TARGET_POS = TAUGHT_START
TARGET_POS.X = TAUGHT_START.X + OFFSET_POS.X
TARGET_POS.Y = TAUGHT_START.Y + OFFSET_POS.Y
TARGET_POS.Z = TAUGHT_START.Z + OFFSET_POS.Z
TARGET_POS.A = TAUGHT_START.A
TARGET_POS.B = TAUGHT_START.B
TARGET_POS.C = TAUGHT_START.C
LIN TARGET_POS C_DIS
CONTINUE
OFFSET_POS = {X 25.867, Y -22.381, Z 2.000, A 0, B 0, C 0}
TARGET_POS = TAUGHT_START
TARGET_POS.X = TAUGHT_START.X + OFFSET_POS.X
TARGET_POS.Y = TAUGHT_START.Y + OFFSET_POS.Y
TARGET_POS.Z = TAUGHT_START.Z + OFFSET_POS.Z
TARGET_POS.A = TAUGHT_START.A
TARGET_POS.B = TAUGHT_START.B
TARGET_POS.C = TAUGHT_START.C
LIN TARGET_POS C_DIS
CONTINUE
OFFSET_POS = {X 26.042, Y -23.369, Z 2.000, A 0, B 0, C 0}
TARGET_POS = TAUGHT_START
TARGET_POS.X = TAUGHT_START.X + OFFSET_POS.X
TARGET_POS.Y = TAUGHT_START.Y + OFFSET_POS.Y
TARGET_POS.Z = TAUGHT_START.Z + OFFSET_POS.Z
TARGET_POS.A = TAUGHT_START.A
TARGET_POS.B = TAUGHT_START.B
TARGET_POS.C = TAUGHT_START.C
LIN TARGET_POS C_DIS
CONTINUE
OFFSET_POS = {X 26.125, Y -23.612, Z 2.000, A 0, B 0, C 0}
TARGET_POS = TAUGHT_START
TARGET_POS.X = TAUGHT_START.X + OFFSET_POS.X
TARGET_POS.Y = TAUGHT_START.Y + OFFSET_POS.Y
TARGET_POS.Z = TAUGHT_START.Z + OFFSET_POS.Z
TARGET_POS.A = TAUGHT_START.A
TARGET_POS.B = TAUGHT_START.B
TARGET_POS.C = TAUGHT_START.C
LIN TARGET_POS C_DIS
CONTINUE
OFFSET_POS = {X 26.209, Y -23.854, Z 2.000, A 0, B 0, C 0}
TARGET_POS = TAUGHT_START
TARGET_POS.X = TAUGHT_START.X + OFFSET_POS.X
TARGET_POS.Y = TAUGHT_START.Y + OFFSET_POS.Y
TARGET_POS.Z = TAUGHT_START.Z + OFFSET_POS.Z
TARGET_POS.A = TAUGHT_START.A
TARGET_POS.B = TAUGHT_START.B
TARGET_POS.C = TAUGHT_START.C
LIN TARGET_POS C_DIS
CONTINUE
OFFSET_POS = {X 26.292, Y -24.096, Z 2.000, A 0, B 0, C 0}
TARGET_POS = TAUGHT_START
TARGET_POS.X = TAUGHT_START.X + OFFSET_POS.X
TARGET_POS.Y = TAUGHT_START.Y + OFFSET_POS.Y
TARGET_POS.Z = TAUGHT_START.Z + OFFSET_POS.Z
TARGET_POS.A = TAUGHT_START.A
TARGET_POS.B = TAUGHT_START.B
TARGET_POS.C = TAUGHT_START.C
LIN TARGET_POS C_DIS
CONTINUE
OFFSET_POS = {X 26.375, Y -24.339, Z 2.000, A 0, B 0, C 0}
TARGET_POS = TAUGHT_START
TARGET_POS.X = TAUGHT_START.X + OFFSET_POS.X
TARGET_POS.Y = TAUGHT_START.Y + OFFSET_POS.Y
TARGET_POS.Z = TAUGHT_START.Z + OFFSET_POS.Z
TARGET_POS.A = TAUGHT_START.A
TARGET_POS.B = TAUGHT_START.B
TARGET_POS.C = TAUGHT_START.C
LIN TARGET_POS C_DIS
CONTINUE
OFFSET_POS = {X 26.439, Y -24.504, Z 2.000, A 0, B 0, C 0}
TARGET_POS = TAUGHT_START
TARGET_POS.X = TAUGHT_START.X + OFFSET_POS.X
TARGET_POS.Y = TAUGHT_START.Y + OFFSET_POS.Y
TARGET_POS.Z = TAUGHT_START.Z + OFFSET_POS.Z
TARGET_POS.A = TAUGHT_START.A
TARGET_POS.B = TAUGHT_START.B
TARGET_POS.C = TAUGHT_START.C
LIN TARGET_POS C_DIS
CONTINUE
OFFSET_POS = {X 26.503, Y -24.669, Z 2.000, A 0, B 0, C 0}
TARGET_POS = TAUGHT_START
TARGET_POS.X = TAUGHT_START.X + OFFSET_POS.X
TARGET_POS.Y = TAUGHT_START.Y + OFFSET_POS.Y
TARGET_POS.Z = TAUGHT_START.Z + OFFSET_POS.Z
TARGET_POS.A = TAUGHT_START.A
TARGET_POS.B = TAUGHT_START.B
TARGET_POS.C = TAUGHT_START.C
LIN TARGET_POS C_DIS
CONTINUE
OFFSET_POS = {X 26.566, Y -24.834, Z 2.000, A 0, B 0, C 0}
TARGET_POS = TAUGHT_START
TARGET_POS.X = TAUGHT_START.X + OFFSET_POS.X
TARGET_POS.Y = TAUGHT_START.Y + OFFSET_POS.Y
TARGET_POS.Z = TAUGHT_START.Z + OFFSET_POS.Z
TARGET_POS.A = TAUGHT_START.A
TARGET_POS.B = TAUGHT_START.B
TARGET_POS.C = TAUGHT_START.C
LIN TARGET_POS C_DIS
CONTINUE
OFFSET_POS = {X 26.630, Y -24.999, Z 2.000, A 0, B 0, C 0}
TARGET_POS = TAUGHT_START
TARGET_POS.X = TAUGHT_START.X + OFFSET_POS.X
TARGET_POS.Y = TAUGHT_START.Y + OFFSET_POS.Y
TARGET_POS.Z = TAUGHT_START.Z + OFFSET_POS.Z
TARGET_POS.A = TAUGHT_START.A
TARGET_POS.B = TAUGHT_START.B
TARGET_POS.C = TAUGHT_START.C
LIN TARGET_POS C_DIS
CONTINUE
OFFSET_POS = {X 26.694, Y -25.164, Z 2.000, A 0, B 0, C 0}
TARGET_POS = TAUGHT_START
TARGET_POS.X = TAUGHT_START.X + OFFSET_POS.X
TARGET_POS.Y = TAUGHT_START.Y + OFFSET_POS.Y
TARGET_POS.Z = TAUGHT_START.Z + OFFSET_POS.Z
TARGET_POS.A = TAUGHT_START.A
TARGET_POS.B = TAUGHT_START.B
TARGET_POS.C = TAUGHT_START.C
LIN TARGET_POS C_DIS
CONTINUE
OFFSET_POS = {X 26.747, Y -25.340, Z 2.000, A 0, B 0, C 0}
TARGET_POS = TAUGHT_START
TARGET_POS.X = TAUGHT_START.X + OFFSET_POS.X
TARGET_POS.Y = TAUGHT_START.Y + OFFSET_POS.Y
TARGET_POS.Z = TAUGHT_START.Z + OFFSET_POS.Z
TARGET_POS.A = TAUGHT_START.A
TARGET_POS.B = TAUGHT_START.B
TARGET_POS.C = TAUGHT_START.C
LIN TARGET_POS C_DIS
CONTINUE
OFFSET_POS = {X 26.799, Y -25.516, Z 2.000, A 0, B 0, C 0}
TARGET_POS = TAUGHT_START
TARGET_POS.X = TAUGHT_START.X + OFFSET_POS.X
TARGET_POS.Y = TAUGHT_START.Y + OFFSET_POS.Y
TARGET_POS.Z = TAUGHT_START.Z + OFFSET_POS.Z
TARGET_POS.A = TAUGHT_START.A
TARGET_POS.B = TAUGHT_START.B
TARGET_POS.C = TAUGHT_START.C
LIN TARGET_POS C_DIS
CONTINUE
OFFSET_POS = {X 26.851, Y -25.691, Z 2.000, A 0, B 0, C 0}
TARGET_POS = TAUGHT_START
TARGET_POS.X = TAUGHT_START.X + OFFSET_POS.X
TARGET_POS.Y = TAUGHT_START.Y + OFFSET_POS.Y
TARGET_POS.Z = TAUGHT_START.Z + OFFSET_POS.Z
TARGET_POS.A = TAUGHT_START.A
TARGET_POS.B = TAUGHT_START.B
TARGET_POS.C = TAUGHT_START.C
LIN TARGET_POS C_DIS
CONTINUE
OFFSET_POS = {X 26.904, Y -25.867, Z 2.000, A 0, B 0, C 0}
TARGET_POS = TAUGHT_START
TARGET_POS.X = TAUGHT_START.X + OFFSET_POS.X
TARGET_POS.Y = TAUGHT_START.Y + OFFSET_POS.Y
TARGET_POS.Z = TAUGHT_START.Z + OFFSET_POS.Z
TARGET_POS.A = TAUGHT_START.A
TARGET_POS.B = TAUGHT_START.B
TARGET_POS.C = TAUGHT_START.C
LIN TARGET_POS C_DIS
CONTINUE
OFFSET_POS = {X 26.914, Y -26.064, Z 2.000, A 0, B 0, C 0}
TARGET_POS = TAUGHT_START
TARGET_POS.X = TAUGHT_START.X + OFFSET_POS.X
TARGET_POS.Y = TAUGHT_START.Y + OFFSET_POS.Y
TARGET_POS.Z = TAUGHT_START.Z + OFFSET_POS.Z
TARGET_POS.A = TAUGHT_START.A
TARGET_POS.B = TAUGHT_START.B
TARGET_POS.C = TAUGHT_START.C
LIN TARGET_POS C_DIS
CONTINUE
OFFSET_POS = {X 26.802, Y -25.875, Z 2.000, A 0, B 0, C 0}
TARGET_POS = TAUGHT_START
TARGET_POS.X = TAUGHT_START.X + OFFSET_POS.X
TARGET_POS.Y = TAUGHT_START.Y + OFFSET_POS.Y
TARGET_POS.Z = TAUGHT_START.Z + OFFSET_POS.Z
TARGET_POS.A = TAUGHT_START.A
TARGET_POS.B = TAUGHT_START.B
TARGET_POS.C = TAUGHT_START.C
LIN TARGET_POS C_DIS
CONTINUE
OFFSET_POS = {X 26.690, Y -25.686, Z 2.000, A 0, B 0, C 0}
TARGET_POS = TAUGHT_START
TARGET_POS.X = TAUGHT_START.X + OFFSET_POS.X
TARGET_POS.Y = TAUGHT_START.Y + OFFSET_POS.Y
TARGET_POS.Z = TAUGHT_START.Z + OFFSET_POS.Z
TARGET_POS.A = TAUGHT_START.A
TARGET_POS.B = TAUGHT_START.B
TARGET_POS.C = TAUGHT_START.C
LIN TARGET_POS C_DIS
CONTINUE
OFFSET_POS = {X 26.578, Y -25.497, Z 2.000, A 0, B 0, C 0}
TARGET_POS = TAUGHT_START
TARGET_POS.X = TAUGHT_START.X + OFFSET_POS.X
TARGET_POS.Y = TAUGHT_START.Y + OFFSET_POS.Y
TARGET_POS.Z = TAUGHT_START.Z + OFFSET_POS.Z
TARGET_POS.A = TAUGHT_START.A
TARGET_POS.B = TAUGHT_START.B
TARGET_POS.C = TAUGHT_START.C
LIN TARGET_POS C_DIS
CONTINUE
OFFSET_POS = {X 26.452, Y -25.363, Z 2.000, A 0, B 0, C 0}
TARGET_POS = TAUGHT_START
TARGET_POS.X = TAUGHT_START.X + OFFSET_POS.X
TARGET_POS.Y = TAUGHT_START.Y + OFFSET_POS.Y
TARGET_POS.Z = TAUGHT_START.Z + OFFSET_POS.Z
TARGET_POS.A = TAUGHT_START.A
TARGET_POS.B = TAUGHT_START.B
TARGET_POS.C = TAUGHT_START.C
LIN TARGET_POS C_DIS
CONTINUE
OFFSET_POS = {X 26.325, Y -25.230, Z 2.000, A 0, B 0, C 0}
TARGET_POS = TAUGHT_START
TARGET_POS.X = TAUGHT_START.X + OFFSET_POS.X
TARGET_POS.Y = TAUGHT_START.Y + OFFSET_POS.Y
TARGET_POS.Z = TAUGHT_START.Z + OFFSET_POS.Z
TARGET_POS.A = TAUGHT_START.A
TARGET_POS.B = TAUGHT_START.B
TARGET_POS.C = TAUGHT_START.C
LIN TARGET_POS C_DIS
CONTINUE
OFFSET_POS = {X 26.199, Y -25.096, Z 2.000, A 0, B 0, C 0}
TARGET_POS = TAUGHT_START
TARGET_POS.X = TAUGHT_START.X + OFFSET_POS.X
TARGET_POS.Y = TAUGHT_START.Y + OFFSET_POS.Y
TARGET_POS.Z = TAUGHT_START.Z + OFFSET_POS.Z
TARGET_POS.A = TAUGHT_START.A
TARGET_POS.B = TAUGHT_START.B
TARGET_POS.C = TAUGHT_START.C
LIN TARGET_POS C_DIS
CONTINUE
OFFSET_POS = {X 26.072, Y -24.962, Z 2.000, A 0, B 0, C 0}
TARGET_POS = TAUGHT_START
TARGET_POS.X = TAUGHT_START.X + OFFSET_POS.X
TARGET_POS.Y = TAUGHT_START.Y + OFFSET_POS.Y
TARGET_POS.Z = TAUGHT_START.Z + OFFSET_POS.Z
TARGET_POS.A = TAUGHT_START.A
TARGET_POS.B = TAUGHT_START.B
TARGET_POS.C = TAUGHT_START.C
LIN TARGET_POS C_DIS
CONTINUE
OFFSET_POS = {X 25.946, Y -24.829, Z 2.000, A 0, B 0, C 0}
TARGET_POS = TAUGHT_START
TARGET_POS.X = TAUGHT_START.X + OFFSET_POS.X
TARGET_POS.Y = TAUGHT_START.Y + OFFSET_POS.Y
TARGET_POS.Z = TAUGHT_START.Z + OFFSET_POS.Z
TARGET_POS.A = TAUGHT_START.A
TARGET_POS.B = TAUGHT_START.B
TARGET_POS.C = TAUGHT_START.C
LIN TARGET_POS C_DIS
CONTINUE
OFFSET_POS = {X 25.820, Y -24.695, Z 2.000, A 0, B 0, C 0}
TARGET_POS = TAUGHT_START
TARGET_POS.X = TAUGHT_START.X + OFFSET_POS.X
TARGET_POS.Y = TAUGHT_START.Y + OFFSET_POS.Y
TARGET_POS.Z = TAUGHT_START.Z + OFFSET_POS.Z
TARGET_POS.A = TAUGHT_START.A
TARGET_POS.B = TAUGHT_START.B
TARGET_POS.C = TAUGHT_START.C
LIN TARGET_POS C_DIS
CONTINUE
OFFSET_POS = {X 25.652, Y -24.579, Z 2.000, A 0, B 0, C 0}
TARGET_POS = TAUGHT_START
TARGET_POS.X = TAUGHT_START.X + OFFSET_POS.X
TARGET_POS.Y = TAUGHT_START.Y + OFFSET_POS.Y
TARGET_POS.Z = TAUGHT_START.Z + OFFSET_POS.Z
TARGET_POS.A = TAUGHT_START.A
TARGET_POS.B = TAUGHT_START.B
TARGET_POS.C = TAUGHT_START.C
LIN TARGET_POS C_DIS
CONTINUE
OFFSET_POS = {X 25.484, Y -24.463, Z 2.000, A 0, B 0, C 0}
TARGET_POS = TAUGHT_START
TARGET_POS.X = TAUGHT_START.X + OFFSET_POS.X
TARGET_POS.Y = TAUGHT_START.Y + OFFSET_POS.Y
TARGET_POS.Z = TAUGHT_START.Z + OFFSET_POS.Z
TARGET_POS.A = TAUGHT_START.A
TARGET_POS.B = TAUGHT_START.B
TARGET_POS.C = TAUGHT_START.C
LIN TARGET_POS C_DIS
CONTINUE
OFFSET_POS = {X 25.316, Y -24.348, Z 2.000, A 0, B 0, C 0}
TARGET_POS = TAUGHT_START
TARGET_POS.X = TAUGHT_START.X + OFFSET_POS.X
TARGET_POS.Y = TAUGHT_START.Y + OFFSET_POS.Y
TARGET_POS.Z = TAUGHT_START.Z + OFFSET_POS.Z
TARGET_POS.A = TAUGHT_START.A
TARGET_POS.B = TAUGHT_START.B
TARGET_POS.C = TAUGHT_START.C
LIN TARGET_POS C_DIS
CONTINUE
OFFSET_POS = {X 25.147, Y -24.232, Z 2.000, A 0, B 0, C 0}
TARGET_POS = TAUGHT_START
TARGET_POS.X = TAUGHT_START.X + OFFSET_POS.X
TARGET_POS.Y = TAUGHT_START.Y + OFFSET_POS.Y
TARGET_POS.Z = TAUGHT_START.Z + OFFSET_POS.Z
TARGET_POS.A = TAUGHT_START.A
TARGET_POS.B = TAUGHT_START.B
TARGET_POS.C = TAUGHT_START.C
LIN TARGET_POS C_DIS
CONTINUE
OFFSET_POS = {X 24.298, Y -24.063, Z 2.000, A 0, B 0, C 0}
TARGET_POS = TAUGHT_START
TARGET_POS.X = TAUGHT_START.X + OFFSET_POS.X
TARGET_POS.Y = TAUGHT_START.Y + OFFSET_POS.Y
TARGET_POS.Z = TAUGHT_START.Z + OFFSET_POS.Z
TARGET_POS.A = TAUGHT_START.A
TARGET_POS.B = TAUGHT_START.B
TARGET_POS.C = TAUGHT_START.C
LIN TARGET_POS C_DIS
CONTINUE
OFFSET_POS = {X 23.704, Y -24.029, Z 2.000, A 0, B 0, C 0}
TARGET_POS = TAUGHT_START
TARGET_POS.X = TAUGHT_START.X + OFFSET_POS.X
TARGET_POS.Y = TAUGHT_START.Y + OFFSET_POS.Y
TARGET_POS.Z = TAUGHT_START.Z + OFFSET_POS.Z
TARGET_POS.A = TAUGHT_START.A
TARGET_POS.B = TAUGHT_START.B
TARGET_POS.C = TAUGHT_START.C
LIN TARGET_POS C_DIS
CONTINUE
OFFSET_POS = {X 22.617, Y -24.232, Z 2.000, A 0, B 0, C 0}
TARGET_POS = TAUGHT_START
TARGET_POS.X = TAUGHT_START.X + OFFSET_POS.X
TARGET_POS.Y = TAUGHT_START.Y + OFFSET_POS.Y
TARGET_POS.Z = TAUGHT_START.Z + OFFSET_POS.Z
TARGET_POS.A = TAUGHT_START.A
TARGET_POS.B = TAUGHT_START.B
TARGET_POS.C = TAUGHT_START.C
LIN TARGET_POS C_DIS
CONTINUE
OFFSET_POS = {X 21.871, Y -24.585, Z 2.000, A 0, B 0, C 0}
TARGET_POS = TAUGHT_START
TARGET_POS.X = TAUGHT_START.X + OFFSET_POS.X
TARGET_POS.Y = TAUGHT_START.Y + OFFSET_POS.Y
TARGET_POS.Z = TAUGHT_START.Z + OFFSET_POS.Z
TARGET_POS.A = TAUGHT_START.A
TARGET_POS.B = TAUGHT_START.B
TARGET_POS.C = TAUGHT_START.C
LIN TARGET_POS C_DIS
CONTINUE
OFFSET_POS = {X 21.841, Y -24.572, Z 2.000, A 0, B 0, C 0}
TARGET_POS = TAUGHT_START
TARGET_POS.X = TAUGHT_START.X + OFFSET_POS.X
TARGET_POS.Y = TAUGHT_START.Y + OFFSET_POS.Y
TARGET_POS.Z = TAUGHT_START.Z + OFFSET_POS.Z
TARGET_POS.A = TAUGHT_START.A
TARGET_POS.B = TAUGHT_START.B
TARGET_POS.C = TAUGHT_START.C
LIN TARGET_POS C_DIS
CONTINUE
OFFSET_POS = {X 21.701, Y -23.614, Z 2.000, A 0, B 0, C 0}
TARGET_POS = TAUGHT_START
TARGET_POS.X = TAUGHT_START.X + OFFSET_POS.X
TARGET_POS.Y = TAUGHT_START.Y + OFFSET_POS.Y
TARGET_POS.Z = TAUGHT_START.Z + OFFSET_POS.Z
TARGET_POS.A = TAUGHT_START.A
TARGET_POS.B = TAUGHT_START.B
TARGET_POS.C = TAUGHT_START.C
LIN TARGET_POS C_DIS
CONTINUE
OFFSET_POS = {X 21.502, Y -22.571, Z 2.000, A 0, B 0, C 0}
TARGET_POS = TAUGHT_START
TARGET_POS.X = TAUGHT_START.X + OFFSET_POS.X
TARGET_POS.Y = TAUGHT_START.Y + OFFSET_POS.Y
TARGET_POS.Z = TAUGHT_START.Z + OFFSET_POS.Z
TARGET_POS.A = TAUGHT_START.A
TARGET_POS.B = TAUGHT_START.B
TARGET_POS.C = TAUGHT_START.C
LIN TARGET_POS C_DIS
CONTINUE
OFFSET_POS = {X 21.023, Y -21.037, Z 2.000, A 0, B 0, C 0}
TARGET_POS = TAUGHT_START
TARGET_POS.X = TAUGHT_START.X + OFFSET_POS.X
TARGET_POS.Y = TAUGHT_START.Y + OFFSET_POS.Y
TARGET_POS.Z = TAUGHT_START.Z + OFFSET_POS.Z
