; generated by PrusaSlicer 2.9.4 on 2026-03-19 at 09:07:10 UTC

; 

; external perimeters extrusion width = 4.50mm
; perimeters extrusion width = 4.50mm
; infill extrusion width = 4.50mm
; solid infill extrusion width = 4.50mm
; top infill extrusion width = 4.50mm
; first layer extrusion width = 4.50mm

M104 S200 ; set temperature
;TYPE:Custom
G28 ; home all axes
G1 Z5 F5000 ; lift nozzle
M109 S200 ; set temperature and wait for it to be reached
G21 ; set units to millimeters
G90 ; use absolute coordinates
M82 ; use absolute distances for extrusion
G92 E0
; Filament gcode
M107
;LAYER_CHANGE
;Z:2
;HEIGHT:2
G1 E-2 F2400
G92 E0
G1 Z2 F7800
G92 E0
G1 X331.771 Y83.448
G1 E2 F2400
;TYPE:External perimeter
;WIDTH:3.8292
G1 F1800
G1 X330.902 Y83.545 E2.30282
G1 X330.403 Y83.551 E2.47565
G1 X329.896 Y83.508 E2.65187
G1 X329.539 Y83.459 E2.77667
G1 E.77667 F2400
G92 E0
G1 X329.175 Y84.871 F7800
G1 X353.92 Y68.793
G1 X360.653 Y55.074
G1 X360.608 Y54.819
G1 X359.154 Y55.074
G1 E2 F2400
G1 F1800
G1 X359.022 Y56.235 E2.40467
G1 X359.027 Y53.962 E3.19186
G1 X359.135 Y54.823 E3.49238
G1 X359.154 Y55.074 E3.57956
G1 E1.57956 F2400
G92 E0
G1 X360.608 Y54.819 F7800
G1 X343.736 Y31.454
G1 X329.856 Y25.103
G1 X329.1 Y25.297
G1 X329.462 Y26.702
G1 E2 F2400
G1 F1800
G1 X330.403 Y26.598 E2.32787
G1 X330.902 Y26.604 E2.5007
G1 X331.766 Y26.701 E2.8018
G1 E.8018 F2400
G92 E0
G1 X331.867 Y25.242 F7800
G1 X329.856 Y25.103
G1 X327.926 Y25.599
G1 X328.303 Y27.063
G1 E2 F2400
;WIDTH:4.13511
G1 F1800
G1 X328.177 Y27.147 E2.05716
;WIDTH:4.17687
G1 X328.034 Y27.24 E2.12228
;WIDTH:4.21864
G1 X327.891 Y27.332 E2.18791
;WIDTH:4.26041
G1 X327.748 Y27.425 E2.25448
;WIDTH:4.30217
G1 X327.605 Y27.517 E2.32156
;WIDTH:4.34467
G1 X327.478 Y27.64 E2.39207
;WIDTH:4.38716
G1 X327.351 Y27.764 E2.46363
;WIDTH:4.42966
G1 X327.224 Y27.887 E2.53567
;WIDTH:4.47216
G1 X327.096 Y28.01 E2.60877
;WIDTH:4.51465
G1 X326.969 Y28.134 E2.68263
;WIDTH:4.55604
G1 X326.875 Y28.268 E2.75143
;WIDTH:4.59742
G1 X326.781 Y28.403 E2.82127
;WIDTH:4.63881
G1 X326.687 Y28.537 E2.89145
;WIDTH:4.68019
G1 X326.593 Y28.672 E2.96268
;WIDTH:4.72158
G1 X326.498 Y28.807 E3.03485
G1 X326.289 Y30.008 E3.56784
G1 X326.33 Y30.493 E3.78065
G1 X326.498 Y31.342 E4.15905
G1 X326.62 Y31.743 E4.34231
G1 X326.894 Y32.111 E4.54291
G1 X326.409 Y32.106 E4.75497
G1 X326.144 Y32.156 E4.87288
G1 X324.692 Y32.529 E5.52833
G1 X323.423 Y32.869 E6.10273
;WIDTH:4.72604
G1 X322.8 Y33.101 E6.39369
G1 X320.649 Y33.966 E7.40839
;WIDTH:4.712
G1 X318.164 Y35.335 E8.64607
;WIDTH:4.72327
G1 X316.178 Y36.766 E9.71673
G1 X315.669 Y37.172 E10.00151
;WIDTH:4.73003
G1 X314.351 Y38.388 E10.7871
G1 X313.544 Y39.192 E11.28614
;WIDTH:4.73211
G1 X312.699 Y40.186 E11.85795
G1 X311.757 Y41.355 E12.51596
;WIDTH:4.72951
G1 X311.237 Y42.142 E12.92914
G1 X310.231 Y43.757 E13.76257
;WIDTH:4.72223
G1 X309.981 Y44.237 E13.99923
G1 X308.927 Y46.496 E15.08929
;WIDTH:4.71749
G1 X308.038 Y49.221 E16.34131
G1 X307.829 Y50.314 E16.82738
;WIDTH:4.70659
G1 X307.675 Y51.269 E17.24884
G1 X306.92 Y50.927 E17.60996
G1 X305.827 Y50.724 E18.09431
G1 X305.236 Y50.758 E18.35223
G1 X304.387 Y50.927 E18.72939
G1 X303.902 Y51.086 E18.95177
G1 X303.277 Y51.473 E19.27205
G1 X303.362 Y50.677 E19.62083
G1 X303.973 Y47.854 E20.87927
;WIDTH:4.71069
G1 X304.871 Y45.125 E22.13219
G1 X305.111 Y44.56 E22.3999
;WIDTH:4.72223
G1 X306.084 Y42.436 E23.42151
G1 X306.349 Y41.947 E23.66472
;WIDTH:4.70702
G1 X306.618 Y41.482 E23.8988
;WIDTH:4.72951
G1 X307.621 Y39.813 E24.75172
G1 X308.171 Y39.043 E25.1662
;WIDTH:4.69949
G1 X308.489 Y38.612 E25.39918
;WIDTH:4.73211
G1 X309.383 Y37.441 E26.04489
G1 X310.332 Y36.384 E26.66749
;WIDTH:4.69895
G1 X310.697 Y35.991 E26.90076
;WIDTH:4.73003
G1 X311.463 Y35.202 E27.3825
G1 X312.802 Y34.009 E28.16814
;WIDTH:4.70595
G1 X313.208 Y33.659 E28.40165
;WIDTH:4.72327
G1 X313.682 Y33.272 E28.6693
G1 X315.597 Y31.916 E29.69563
;WIDTH:4.712
G1 X316.185 Y31.536 E30.00104
;WIDTH:4.71616
G1 X318.565 Y30.22 E31.1886
G1 X319.217 Y29.937 E31.49897
;WIDTH:4.72604
G1 X321.259 Y29.089 E32.4667
G1 X321.907 Y28.878 E32.76497
;WIDTH:4.70309
G1 X322.42 Y28.72 E32.99865
;WIDTH:4.72158
G1 X323.539 Y28.396 E33.50799
G1 X324.095 Y28.228 E33.76194
G1 X325.638 Y27.937 E34.44846
G1 X325.916 Y27.832 E34.57839
;WIDTH:4.68019
G1 X326.194 Y27.726 E34.70722
;WIDTH:4.63881
G1 X326.472 Y27.62 E34.83479
;WIDTH:4.59742
G1 X326.75 Y27.514 E34.96111
;WIDTH:4.55604
G1 X327.028 Y27.409 E35.08603
;WIDTH:4.51465
G1 X327.115 Y27.382 E35.12394
;WIDTH:4.47216
G1 X327.202 Y27.356 E35.16133
;WIDTH:4.42966
G1 X327.29 Y27.33 E35.19872
;WIDTH:4.38716
G1 X327.377 Y27.303 E35.23544
;WIDTH:4.34467
G1 X327.464 Y27.277 E35.27165
;WIDTH:4.30217
G1 X327.636 Y27.227 E35.34231
;WIDTH:4.26041
G1 X327.721 Y27.202 E35.37689
G1 X326.039 Y30.831 F7800
G1 E33.37689 F2400
G92 E0
G1 X323.655 Y27.73 F7800
G1 X338.572 Y28.409
G1 X358.693 Y49.083
G1 X360.102 Y51.947
G1 X360.104 Y51.947
G1 X360.197 Y52.477
G1 X358.678 Y52.743
G1 E2 F2400
;WIDTH:4.17939
G1 F1800
G1 X358.57 Y52.56 E2.08117
;WIDTH:4.21572
G1 X358.461 Y52.377 E2.16332
;WIDTH:4.25205
G1 X358.353 Y52.193 E2.2464
;WIDTH:4.27902
G1 X358.283 Y52.109 E2.28928
;WIDTH:4.30599
G1 X358.212 Y52.025 E2.33271
;WIDTH:4.34686
G1 X358.088 Y51.898 E2.40354
;WIDTH:4.38772
G1 X357.965 Y51.771 E2.47483
;WIDTH:4.42859
G1 X357.842 Y51.644 E2.54685
;WIDTH:4.46945
G1 X357.718 Y51.517 E2.6199
;WIDTH:4.51032
G1 X357.595 Y51.39 E2.6934
;WIDTH:4.5564
G1 X357.426 Y51.276 E2.7791
;WIDTH:4.60247
G1 X357.257 Y51.161 E2.86599
;WIDTH:4.64855
G1 X357.088 Y51.047 E2.9536
;WIDTH:4.69463
G1 X356.918 Y50.933 E3.04253
G1 X356.069 Y50.764 E3.41863
G1 X355.475 Y50.73 E3.67713
G1 X355.237 Y50.764 E3.78158
G1 X354.388 Y50.933 E4.15768
G1 X353.625 Y51.271 E4.52025
G1 X353.472 Y50.315 E4.94089
;WIDTH:4.69676
G1 X353.231 Y49.139 E5.46271
;WIDTH:4.73193
G1 X352.794 Y47.738 E6.10591
G1 X352.364 Y46.475 E6.69065
;WIDTH:4.73089
G1 X351.908 Y45.463 E7.17701
G1 X351.147 Y43.888 E7.94346
;WIDTH:4.72518
G1 X350.795 Y43.289 E8.24748
G1 X349.519 Y41.301 E9.28117
;WIDTH:4.71336
G1 X347.711 Y39.116 E10.51876
;WIDTH:4.72425
G1 X345.965 Y37.461 E11.57124
G1 X345.431 Y37.001 E11.87959
;WIDTH:4.73049
G1 X344.033 Y35.966 E12.64168
G1 X343.049 Y35.292 E13.16423
;WIDTH:4.73205
G1 X341.961 Y34.674 E13.71264
G1 X340.588 Y33.941 E14.39479
;WIDTH:4.72893
G1 X339.769 Y33.599 E14.7835
G1 X337.995 Y32.913 E15.61652
;WIDTH:4.72113
G1 X337.478 Y32.751 E15.85337
G1 X336.189 Y32.423 E16.43484
;WIDTH:4.71588
G1 X335.037 Y32.131 E16.95375
G1 X334.418 Y32.108 E17.22422
G1 X334.684 Y31.742 E17.42178
G1 X334.805 Y31.342 E17.60425
G1 X335.007 Y30.265 E18.08271
G1 X334.974 Y29.656 E18.34901
G1 X334.805 Y28.807 E18.72699
G1 X334.69 Y28.638 E18.81625
;WIDTH:4.66857
G1 X334.575 Y28.468 E18.90488
;WIDTH:4.62126
G1 X334.46 Y28.298 E18.99252
;WIDTH:4.57394
G1 X334.344 Y28.129 E19.07906
;WIDTH:4.52663
G1 X334.217 Y28.006 E19.15285
;WIDTH:4.48451
G1 X334.089 Y27.883 E19.22618
;WIDTH:4.4424
G1 X333.962 Y27.76 E19.29845
;WIDTH:4.40028
G1 X333.834 Y27.637 E19.37025
;WIDTH:4.35816
G1 X333.707 Y27.514 E19.44101
;WIDTH:4.31605
G1 X333.517 Y27.403 E19.52813
;WIDTH:4.27081
G1 X333.328 Y27.292 E19.6139
;WIDTH:4.22557
G1 X333.138 Y27.182 E19.6988
;WIDTH:4.18033
G1 X332.949 Y27.071 E19.78255
;WIDTH:4.13509
G1 X332.759 Y26.961 E19.86542
;WIDTH:4.08985
G1 X332.901 Y26.964 E19.91838
;WIDTH:4.12056
G1 X333.033 Y27.01 E19.97094
;WIDTH:4.15127
G1 X333.166 Y27.055 E20.02417
;WIDTH:4.19246
G1 X333.335 Y27.115 E20.09291
;WIDTH:4.23366
G1 X333.504 Y27.175 E20.16241
;WIDTH:4.27485
G1 X333.674 Y27.235 E20.23303
;WIDTH:4.31605
G1 X333.843 Y27.295 E20.30403
;WIDTH:4.35816
G1 X334.01 Y27.355 E20.37505
;WIDTH:4.40028
G1 X334.176 Y27.415 E20.44645
;WIDTH:4.4424
G1 X334.343 Y27.476 E20.51913
;WIDTH:4.48451
G1 X334.51 Y27.536 E20.59243
;WIDTH:4.52663
G1 X334.676 Y27.596 E20.6661
;WIDTH:4.57394
G1 X334.922 Y27.672 E20.7748
;WIDTH:4.62126
G1 X335.167 Y27.748 E20.88433
;WIDTH:4.66857
G1 X335.413 Y27.823 E20.99538
;WIDTH:4.71588
G1 X335.658 Y27.899 E21.10738
G1 X335.774 Y27.914 E21.15845
G1 X337.651 Y28.373 E22.00217
;WIDTH:4.72113
G1 X338.521 Y28.588 E22.39395
G1 X338.999 Y28.741 E22.61336
;WIDTH:4.70814
G1 X339.505 Y28.919 E22.84715
;WIDTH:4.72893
G1 X341.382 Y29.612 E23.72345
G1 X342.192 Y29.987 E24.11438
;WIDTH:4.7001
G1 X342.675 Y30.22 E24.34767
;WIDTH:4.73205
G1 X344.039 Y30.904 E25.01645
G1 X345.209 Y31.614 E25.61628
;WIDTH:4.69846
G1 X345.663 Y31.899 E25.84938
;WIDTH:4.73049
G1 X346.626 Y32.534 E26.35476
G1 X348.004 Y33.596 E27.11699
;WIDTH:4.70494
G1 X348.423 Y33.93 E27.35036
;WIDTH:4.72425
G1 X348.933 Y34.357 E27.64136
G1 X350.588 Y35.955 E28.64784
;WIDTH:4.71336
G1 X351.068 Y36.454 E28.94998
;WIDTH:4.71478
G1 X352.832 Y38.582 E30.15657
G1 X353.206 Y39.133 E30.44727
;WIDTH:4.72518
G1 X354.465 Y41.052 E31.45158
G1 X354.75 Y41.578 E31.71336
;WIDTH:4.70399
G1 X355 Y42.053 E31.94708
;WIDTH:4.73089
G1 X355.81 Y43.649 E32.7313
G1 X356.229 Y44.67 E33.21487
;WIDTH:4.69803
G1 X356.425 Y45.169 E33.44798
;WIDTH:4.73193
G1 X356.886 Y46.4 E34.02408
G1 X357.344 Y48.004 E34.75517
;WIDTH:4.69676
G1 X357.678 Y49.23 E35.30752
;WIDTH:4.69463
G1 X357.813 Y50.07 E35.67716
G1 X357.895 Y50.313 E35.78859
;WIDTH:4.64855
G1 X357.976 Y50.555 E35.89827
;WIDTH:4.60247
G1 X358.057 Y50.798 E36.00715
;WIDTH:4.5564
G1 X358.139 Y51.041 E36.11496
;WIDTH:4.51032
G1 X358.203 Y51.206 E36.18853
;WIDTH:4.46945
G1 X358.267 Y51.371 E36.26136
;WIDTH:4.42859
G1 X358.331 Y51.536 E36.33346
;WIDTH:4.38772
G1 X358.395 Y51.701 E36.40482
;WIDTH:4.34686
G1 X358.459 Y51.866 E36.47544
;WIDTH:4.30599
G1 X358.511 Y52.042 E36.54791
;WIDTH:4.26526
G1 X358.547 Y52.161 E36.59649
G1 X354.925 Y50.464 F7800
G1 E34.59649 F2400
G92 E0
G1 X358.084 Y48.224 F7800
G1 X358.693 Y61.066
G1 X335.962 Y83.534
G1 X335.968 Y83.556
G1 X333.356 Y84.637
G1 X332.757 Y83.189
G1 E2 F2400
;WIDTH:4.11938
G1 F1800
G1 X332.944 Y83.097 E2.07834
;WIDTH:4.15009
G1 X333.132 Y83.005 E2.15767
;WIDTH:4.19129
G1 X333.275 Y82.912 E2.22304
;WIDTH:4.23249
G1 X333.419 Y82.82 E2.28924
;WIDTH:4.27368
G1 X333.563 Y82.727 E2.35637
;WIDTH:4.31488
G1 X333.706 Y82.635 E2.42367
;WIDTH:4.35699
G1 X333.834 Y82.512 E2.49469
;WIDTH:4.39911
G1 X333.961 Y82.389 E2.56618
;WIDTH:4.44123
G1 X334.089 Y82.266 E2.63873
;WIDTH:4.48334
G1 X334.216 Y82.143 E2.71174
;WIDTH:4.52546
G1 X334.344 Y82.02 E2.78581
;WIDTH:4.57306
G1 X334.459 Y81.85 E2.87244
;WIDTH:4.62067
G1 X334.575 Y81.681 E2.95995
;WIDTH:4.66828
G1 X334.69 Y81.511 E3.04857
;WIDTH:4.71588
G1 X334.805 Y81.342 E3.13783
G1 X334.974 Y80.493 E3.51581
G1 X335.007 Y79.884 E3.78211
G1 X334.974 Y79.656 E3.8827
G1 X334.805 Y78.807 E4.26068
G1 X334.684 Y78.407 E4.44315
G1 X334.408 Y78.036 E4.64505
G1 X334.897 Y78.04 E4.85857
G1 X335.162 Y77.99 E4.97632
G1 X336.609 Y77.618 E5.62868
;WIDTH:4.72113
G1 X337.478 Y77.398 E6.02057
G1 X337.995 Y77.236 E6.25742
;WIDTH:4.72893
G1 X339.769 Y76.55 E7.09044
G1 X340.714 Y76.14 E7.54159
;WIDTH:4.73205
G1 X341.961 Y75.475 E8.16099
G1 X343.169 Y74.788 E8.77007
;WIDTH:4.73049
G1 X344.033 Y74.183 E9.23219
G1 X345.48 Y73.111 E10.02118
;WIDTH:4.72425
G1 X345.965 Y72.687 E10.30301
G1 X347.711 Y71.033 E11.35519
;WIDTH:4.71478
G1 X349.519 Y68.848 E12.59319
;WIDTH:4.72518
G1 X350.795 Y66.86 E13.62688
G1 X351.175 Y66.204 E13.95862
;WIDTH:4.73089
G1 X351.908 Y64.686 E14.69724
G1 X352.408 Y63.544 E15.24349
;WIDTH:4.73193
G1 X352.794 Y62.411 E15.76808
G1 X353.273 Y60.877 E16.4724
;WIDTH:4.69676
G1 X353.472 Y59.834 E16.93396
;WIDTH:4.69463
G1 X353.612 Y58.876 E17.35461
;WIDTH:4.66818
G1 X353.642 Y58.863 E17.36873
;WIDTH:4.69463
G1 X354.388 Y59.216 E17.7273
G1 X355.475 Y59.419 E18.20774
G1 X356.069 Y59.385 E18.46624
G1 X356.918 Y59.216 E18.84234
G1 X357.087 Y59.1 E18.9314
;WIDTH:4.64632
G1 X357.255 Y58.985 E19.01885
;WIDTH:4.59801
G1 X357.423 Y58.869 E19.10554
;WIDTH:4.5497
G1 X357.591 Y58.753 E19.19123
;WIDTH:4.50139
G1 X357.717 Y58.619 E19.26752
;WIDTH:4.45835
G1 X357.843 Y58.486 E19.34271
;WIDTH:4.41531
G1 X357.97 Y58.352 E19.41767
;WIDTH:4.37226
G1 X358.096 Y58.218 E19.49154
;WIDTH:4.32922
G1 X358.223 Y58.085 E19.56459
;WIDTH:4.28617
G1 X358.349 Y57.951 E19.63685
;WIDTH:4.24313
G1 X358.461 Y57.762 E19.7222
;WIDTH:4.2068
G1 X358.573 Y57.573 E19.80673
;WIDTH:4.17047
G1 X358.685 Y57.384 E19.89045
;WIDTH:4.13414
G1 X358.675 Y57.581 E19.96489
;WIDTH:4.17488
G1 X358.622 Y57.757 E20.03502
;WIDTH:4.21561
G1 X358.57 Y57.932 E20.10543
;WIDTH:4.25634
G1 X358.518 Y58.108 E20.17697
;WIDTH:4.29707
G1 X358.465 Y58.284 E20.24939
;WIDTH:4.33794
G1 X358.401 Y58.449 E20.31985
;WIDTH:4.3788
G1 X358.337 Y58.614 E20.39105
;WIDTH:4.41967
G1 X358.274 Y58.779 E20.46284
;WIDTH:4.46053
G1 X358.21 Y58.944 E20.53551
;WIDTH:4.50139
G1 X358.146 Y59.109 E20.60892
;WIDTH:4.5497
G1 X358.063 Y59.352 E20.71669
;WIDTH:4.59801
G1 X357.98 Y59.594 E20.82533
;WIDTH:4.64632
G1 X357.896 Y59.836 E20.93537
;WIDTH:4.69463
G1 X357.813 Y60.079 E21.04694
G1 X357.638 Y61.067 E21.48288
G1 X357.344 Y62.145 E21.96835
;WIDTH:4.73193
G1 X356.886 Y63.749 E22.69944
G1 X356.425 Y64.98 E23.27554
;WIDTH:4.69803
G1 X356.229 Y65.479 E23.50865
;WIDTH:4.73089
G1 X355.762 Y66.594 E24.03833
G1 X355 Y68.096 E24.77631
;WIDTH:4.70399
G1 X354.75 Y68.571 E25.01003
;WIDTH:4.72518
G1 X354.398 Y69.199 E25.32506
G1 X353.162 Y71.082 E26.31068
;WIDTH:4.71478
G1 X352.767 Y71.646 E26.61126
G1 X350.963 Y73.822 E27.84512
;WIDTH:4.71336
G1 X350.536 Y74.245 E28.10741
;WIDTH:4.72425
G1 X348.846 Y75.875 E29.13463
G1 X348.423 Y76.219 E29.37316
;WIDTH:4.70494
G1 X348.004 Y76.553 E29.60653
;WIDTH:4.73049
G1 X346.544 Y77.677 E30.4138
G1 X345.663 Y78.25 E30.87425
;WIDTH:4.69846
G1 X345.209 Y78.535 E31.10735
;WIDTH:4.73205
G1 X344.039 Y79.244 E31.70695
G1 X342.675 Y79.929 E32.37592
;WIDTH:4.7001
G1 X342.192 Y80.162 E32.60921
;WIDTH:4.72893
G1 X341.29 Y80.571 E33.04297
G1 X339.505 Y81.23 E33.87632
;WIDTH:4.70814
G1 X338.999 Y81.408 E34.11011
;WIDTH:4.72113
G1 X338.521 Y81.561 E34.32952
G1 X337.651 Y81.776 E34.7213
;WIDTH:4.71588
G1 X336.586 Y82.036 E35.19998
G1 X335.658 Y82.25 E35.61581
G1 X335.413 Y82.326 E35.72781
;WIDTH:4.66828
G1 X335.167 Y82.402 E35.83898
;WIDTH:4.62067
G1 X334.922 Y82.478 E35.9485
;WIDTH:4.57306
G1 X334.676 Y82.554 E36.05718
;WIDTH:4.52546
G1 X334.51 Y82.614 E36.13083
;WIDTH:4.48334
G1 X334.343 Y82.674 E36.20411
;WIDTH:4.44123
G1 X334.177 Y82.734 E36.27624
;WIDTH:4.39911
G1 X334.01 Y82.795 E36.34813
;WIDTH:4.35699
G1 X333.843 Y82.855 E36.41912
;WIDTH:4.31488
G1 X333.656 Y82.921 E36.49761
;WIDTH:4.26964
G1 X333.468 Y82.987 E36.57555
;WIDTH:4.2244
G1 X333.331 Y83.035 E36.63167
G1 X335.335 Y79.573 F7800
G1 E34.63167 F2400
G92 E0
G1 X337.342 Y82.627 F7800
G1 X329.855 Y85.046
G1 X327.882 Y84.538
G1 X328.259 Y83.071
G1 E2 F2400
;WIDTH:4.15246
G1 F1800
G1 X328.153 Y83.062 E2.04034
;WIDTH:4.19423
G1 X327.981 Y83.011 E2.10914
;WIDTH:4.236
G1 X327.809 Y82.961 E2.1786
;WIDTH:4.27776
G1 X327.637 Y82.91 E2.24893
;WIDTH:4.31953
G1 X327.465 Y82.859 E2.32002
;WIDTH:4.36203
G1 X327.292 Y82.8 E2.39324
;WIDTH:4.40452
G1 X327.119 Y82.741 E2.46725
;WIDTH:4.44702
G1 X326.946 Y82.682 E2.54205
;WIDTH:4.48951
G1 X326.774 Y82.622 E2.61739
;WIDTH:4.53201
G1 X326.601 Y82.563 E2.69378
;WIDTH:4.5794
G1 X326.36 Y82.475 E2.80224
;WIDTH:4.62679
G1 X326.119 Y82.387 E2.91194
;WIDTH:4.67418
G1 X325.878 Y82.3 E3.02273
;WIDTH:4.72158
G1 X325.638 Y82.212 E3.13449
G1 X324.095 Y81.921 E3.82101
G1 X323.539 Y81.753 E4.07496
G1 X322.42 Y81.428 E4.58442
;WIDTH:4.70309
G1 X321.907 Y81.271 E4.81797
;WIDTH:4.72604
G1 X321.173 Y81.025 E5.15678
G1 X319.136 Y80.178 E6.12232
;WIDTH:4.71616
G1 X318.467 Y79.875 E6.44302
G1 X315.996 Y78.509 E7.67592
;WIDTH:4.712
G1 X315.544 Y78.196 E7.91576
;WIDTH:4.72327
G1 X313.682 Y76.877 E8.91382
G1 X313.208 Y76.49 E9.18147
;WIDTH:4.70595
G1 X312.802 Y76.14 E9.41498
;WIDTH:4.73003
G1 X311.387 Y74.879 E10.24529
G1 X310.697 Y74.158 E10.68248
;WIDTH:4.69895
G1 X310.332 Y73.765 E10.91575
;WIDTH:4.73211
G1 X309.383 Y72.708 E11.53835
G1 X308.489 Y71.537 E12.18406
;WIDTH:4.69949
G1 X308.171 Y71.106 E12.41704
;WIDTH:4.72951
G1 X307.569 Y70.251 E12.87507
G1 X306.618 Y68.667 E13.68435
;WIDTH:4.70702
G1 X306.349 Y68.202 E13.91843
;WIDTH:4.72223
G1 X306.084 Y67.713 E14.16164
