DEF F_S_CLEANED()
;FOLD INI
  ;FOLD BASISTECH INI
    BAS (#INITMOV,0)
  ;ENDFOLD (BASISTECH INI)
  ;FOLD USER INI
    ;WAAM-optimized initialization with weaving capability
  ;ENDFOLD (USER INI)
;ENDFOLD (INI)

BASE_DATA[10] = {FRAME: X 270.73, Y -630.81, Z 710.35, A 179.93, B -0.22, C -1.44}
TOOL_DATA[6] = {FRAME: X -14.67, Y -33.93, Z 286.30, A 0, B 0, C 0}
$BASE = BASE_DATA[10]
$TOOL = TOOL_DATA[6]

BAS (#VEL_PTP,100)
BAS (#ACC_PTP,100)
BAS (#VEL_CP,0.0050)
BAS (#ACC_CP,0.05)

$VEL.CP = 0.0050
$ACC.CP = 0.05
$VEL.ORI1 = 90
$VEL.ORI2 = 90
$ACC.ORI1 = 500
$ACC.ORI2 = 500
$ORI_TYPE = #VAR
$ADVANCE = 1
$APO.CDIS = 0.25

; Taught position mode - skipping HOME move
; Robot should already be at desired starting position
$OUT[1] = FALSE

;===========
; BEGIN WAAM PROCESS
;===========

; TAUGHT START POSITION MODE ENABLED
; Robot will read current position at startup as substrate origin
; X, Y and Z coordinates are offset
; Jog robot to desired starting point before running this program

; Read current robot position as taught starting point
TAUGHT_START = $POS_ACT

; First motion must be PTP to satisfy KUKA controller requirement
; Moving to taught position (already there, but satisfies KSS01443)
PTP TAUGHT_START

; SAFETY DELAY - 7.5 seconds before starting weld process
; This allows operator to verify position and move to safety
WAIT SEC 7.5

; First weld point offset from taught position: X=0.000, Y=0.000 (Z is absolute)

; Welding strategy: ALTERNATING (A->B, B->A, A->B...)
; Travel stabilization delay: 5.0s (wait after travel before Z lowers)
; ;LAYER_CHANGE
; ;Z:2
OFFSET_POS = {X 0.000, Y 0.000, Z 2.000, A 0, B 0, C 0}
TARGET_POS = TAUGHT_START
TARGET_POS.X = TAUGHT_START.X + OFFSET_POS.X
TARGET_POS.Y = TAUGHT_START.Y + OFFSET_POS.Y
TARGET_POS.Z = TAUGHT_START.Z + OFFSET_POS.Z
TARGET_POS.A = TAUGHT_START.A
TARGET_POS.B = TAUGHT_START.B
TARGET_POS.C = TAUGHT_START.C
LIN TARGET_POS C_DIS
$OUT[1] = TRUE
WAIT SEC 0.200
OFFSET_POS = {X -0.076, Y -0.185, Z 2.000, A 0, B 0, C 0}
TARGET_POS = TAUGHT_START
TARGET_POS.X = TAUGHT_START.X + OFFSET_POS.X
TARGET_POS.Y = TAUGHT_START.Y + OFFSET_POS.Y
TARGET_POS.Z = TAUGHT_START.Z + OFFSET_POS.Z
TARGET_POS.A = TAUGHT_START.A
TARGET_POS.B = TAUGHT_START.B
TARGET_POS.C = TAUGHT_START.C
LIN TARGET_POS C_DIS
CONTINUE
OFFSET_POS = {X -0.119, Y -0.548, Z 2.000, A 0, B 0, C 0}
TARGET_POS = TAUGHT_START
TARGET_POS.X = TAUGHT_START.X + OFFSET_POS.X
TARGET_POS.Y = TAUGHT_START.Y + OFFSET_POS.Y
TARGET_POS.Z = TAUGHT_START.Z + OFFSET_POS.Z
TARGET_POS.A = TAUGHT_START.A
TARGET_POS.B = TAUGHT_START.B
TARGET_POS.C = TAUGHT_START.C
LIN TARGET_POS C_DIS
CONTINUE
OFFSET_POS = {X -0.065, Y -0.950, Z 2.000, A 0, B 0, C 0}
TARGET_POS = TAUGHT_START
TARGET_POS.X = TAUGHT_START.X + OFFSET_POS.X
TARGET_POS.Y = TAUGHT_START.Y + OFFSET_POS.Y
TARGET_POS.Z = TAUGHT_START.Z + OFFSET_POS.Z
TARGET_POS.A = TAUGHT_START.A
TARGET_POS.B = TAUGHT_START.B
TARGET_POS.C = TAUGHT_START.C
LIN TARGET_POS C_DIS
CONTINUE
OFFSET_POS = {X 0.142, Y -1.462, Z 2.000, A 0, B 0, C 0}
TARGET_POS = TAUGHT_START
TARGET_POS.X = TAUGHT_START.X + OFFSET_POS.X
TARGET_POS.Y = TAUGHT_START.Y + OFFSET_POS.Y
TARGET_POS.Z = TAUGHT_START.Z + OFFSET_POS.Z
TARGET_POS.A = TAUGHT_START.A
TARGET_POS.B = TAUGHT_START.B
TARGET_POS.C = TAUGHT_START.C
LIN TARGET_POS C_DIS
CONTINUE
OFFSET_POS = {X 0.388, Y -1.807, Z 2.000, A 0, B 0, C 0}
TARGET_POS = TAUGHT_START
TARGET_POS.X = TAUGHT_START.X + OFFSET_POS.X
TARGET_POS.Y = TAUGHT_START.Y + OFFSET_POS.Y
TARGET_POS.Z = TAUGHT_START.Z + OFFSET_POS.Z
TARGET_POS.A = TAUGHT_START.A
TARGET_POS.B = TAUGHT_START.B
TARGET_POS.C = TAUGHT_START.C
LIN TARGET_POS C_DIS
CONTINUE
OFFSET_POS = {X 0.801, Y -2.209, Z 2.000, A 0, B 0, C 0}
TARGET_POS = TAUGHT_START
TARGET_POS.X = TAUGHT_START.X + OFFSET_POS.X
TARGET_POS.Y = TAUGHT_START.Y + OFFSET_POS.Y
TARGET_POS.Z = TAUGHT_START.Z + OFFSET_POS.Z
TARGET_POS.A = TAUGHT_START.A
TARGET_POS.B = TAUGHT_START.B
TARGET_POS.C = TAUGHT_START.C
LIN TARGET_POS C_DIS
CONTINUE
OFFSET_POS = {X 1.262, Y -2.569, Z 2.000, A 0, B 0, C 0}
TARGET_POS = TAUGHT_START
TARGET_POS.X = TAUGHT_START.X + OFFSET_POS.X
TARGET_POS.Y = TAUGHT_START.Y + OFFSET_POS.Y
TARGET_POS.Z = TAUGHT_START.Z + OFFSET_POS.Z
TARGET_POS.A = TAUGHT_START.A
TARGET_POS.B = TAUGHT_START.B
TARGET_POS.C = TAUGHT_START.C
LIN TARGET_POS C_DIS
CONTINUE
OFFSET_POS = {X 1.764, Y -2.900, Z 2.000, A 0, B 0, C 0}
TARGET_POS = TAUGHT_START
TARGET_POS.X = TAUGHT_START.X + OFFSET_POS.X
TARGET_POS.Y = TAUGHT_START.Y + OFFSET_POS.Y
TARGET_POS.Z = TAUGHT_START.Z + OFFSET_POS.Z
TARGET_POS.A = TAUGHT_START.A
TARGET_POS.B = TAUGHT_START.B
TARGET_POS.C = TAUGHT_START.C
LIN TARGET_POS C_DIS
CONTINUE
OFFSET_POS = {X 2.344, Y -3.242, Z 2.000, A 0, B 0, C 0}
TARGET_POS = TAUGHT_START
TARGET_POS.X = TAUGHT_START.X + OFFSET_POS.X
TARGET_POS.Y = TAUGHT_START.Y + OFFSET_POS.Y
TARGET_POS.Z = TAUGHT_START.Z + OFFSET_POS.Z
TARGET_POS.A = TAUGHT_START.A
TARGET_POS.B = TAUGHT_START.B
TARGET_POS.C = TAUGHT_START.C
LIN TARGET_POS C_DIS
CONTINUE
OFFSET_POS = {X 2.996, Y -3.589, Z 2.000, A 0, B 0, C 0}
TARGET_POS = TAUGHT_START
TARGET_POS.X = TAUGHT_START.X + OFFSET_POS.X
TARGET_POS.Y = TAUGHT_START.Y + OFFSET_POS.Y
TARGET_POS.Z = TAUGHT_START.Z + OFFSET_POS.Z
TARGET_POS.A = TAUGHT_START.A
TARGET_POS.B = TAUGHT_START.B
TARGET_POS.C = TAUGHT_START.C
LIN TARGET_POS C_DIS
CONTINUE
OFFSET_POS = {X 3.713, Y -3.935, Z 2.000, A 0, B 0, C 0}
TARGET_POS = TAUGHT_START
TARGET_POS.X = TAUGHT_START.X + OFFSET_POS.X
TARGET_POS.Y = TAUGHT_START.Y + OFFSET_POS.Y
TARGET_POS.Z = TAUGHT_START.Z + OFFSET_POS.Z
TARGET_POS.A = TAUGHT_START.A
TARGET_POS.B = TAUGHT_START.B
TARGET_POS.C = TAUGHT_START.C
LIN TARGET_POS C_DIS
CONTINUE
OFFSET_POS = {X 4.485, Y -4.271, Z 2.000, A 0, B 0, C 0}
TARGET_POS = TAUGHT_START
TARGET_POS.X = TAUGHT_START.X + OFFSET_POS.X
TARGET_POS.Y = TAUGHT_START.Y + OFFSET_POS.Y
TARGET_POS.Z = TAUGHT_START.Z + OFFSET_POS.Z
TARGET_POS.A = TAUGHT_START.A
TARGET_POS.B = TAUGHT_START.B
TARGET_POS.C = TAUGHT_START.C
LIN TARGET_POS C_DIS
CONTINUE
OFFSET_POS = {X 5.300, Y -4.589, Z 2.000, A 0, B 0, C 0}
TARGET_POS = TAUGHT_START
TARGET_POS.X = TAUGHT_START.X + OFFSET_POS.X
TARGET_POS.Y = TAUGHT_START.Y + OFFSET_POS.Y
TARGET_POS.Z = TAUGHT_START.Z + OFFSET_POS.Z
TARGET_POS.A = TAUGHT_START.A
TARGET_POS.B = TAUGHT_START.B
TARGET_POS.C = TAUGHT_START.C
LIN TARGET_POS C_DIS
CONTINUE
OFFSET_POS = {X 6.147, Y -4.878, Z 2.000, A 0, B 0, C 0}
TARGET_POS = TAUGHT_START
TARGET_POS.X = TAUGHT_START.X + OFFSET_POS.X
TARGET_POS.Y = TAUGHT_START.Y + OFFSET_POS.Y
TARGET_POS.Z = TAUGHT_START.Z + OFFSET_POS.Z
TARGET_POS.A = TAUGHT_START.A
TARGET_POS.B = TAUGHT_START.B
TARGET_POS.C = TAUGHT_START.C
LIN TARGET_POS C_DIS
CONTINUE
OFFSET_POS = {X 7.016, Y -5.130, Z 2.000, A 0, B 0, C 0}
TARGET_POS = TAUGHT_START
TARGET_POS.X = TAUGHT_START.X + OFFSET_POS.X
TARGET_POS.Y = TAUGHT_START.Y + OFFSET_POS.Y
TARGET_POS.Z = TAUGHT_START.Z + OFFSET_POS.Z
TARGET_POS.A = TAUGHT_START.A
TARGET_POS.B = TAUGHT_START.B
TARGET_POS.C = TAUGHT_START.C
LIN TARGET_POS C_DIS
CONTINUE
OFFSET_POS = {X 7.896, Y -5.334, Z 2.000, A 0, B 0, C 0}
TARGET_POS = TAUGHT_START
TARGET_POS.X = TAUGHT_START.X + OFFSET_POS.X
TARGET_POS.Y = TAUGHT_START.Y + OFFSET_POS.Y
TARGET_POS.Z = TAUGHT_START.Z + OFFSET_POS.Z
TARGET_POS.A = TAUGHT_START.A
TARGET_POS.B = TAUGHT_START.B
TARGET_POS.C = TAUGHT_START.C
LIN TARGET_POS C_DIS
CONTINUE
OFFSET_POS = {X 8.777, Y -5.482, Z 2.000, A 0, B 0, C 0}
TARGET_POS = TAUGHT_START
TARGET_POS.X = TAUGHT_START.X + OFFSET_POS.X
TARGET_POS.Y = TAUGHT_START.Y + OFFSET_POS.Y
TARGET_POS.Z = TAUGHT_START.Z + OFFSET_POS.Z
TARGET_POS.A = TAUGHT_START.A
TARGET_POS.B = TAUGHT_START.B
TARGET_POS.C = TAUGHT_START.C
LIN TARGET_POS C_DIS
CONTINUE
OFFSET_POS = {X 9.651, Y -5.565, Z 2.000, A 0, B 0, C 0}
TARGET_POS = TAUGHT_START
TARGET_POS.X = TAUGHT_START.X + OFFSET_POS.X
TARGET_POS.Y = TAUGHT_START.Y + OFFSET_POS.Y
TARGET_POS.Z = TAUGHT_START.Z + OFFSET_POS.Z
TARGET_POS.A = TAUGHT_START.A
TARGET_POS.B = TAUGHT_START.B
TARGET_POS.C = TAUGHT_START.C
LIN TARGET_POS C_DIS
CONTINUE
OFFSET_POS = {X 10.509, Y -5.573, Z 2.000, A 0, B 0, C 0}
TARGET_POS = TAUGHT_START
TARGET_POS.X = TAUGHT_START.X + OFFSET_POS.X
TARGET_POS.Y = TAUGHT_START.Y + OFFSET_POS.Y
TARGET_POS.Z = TAUGHT_START.Z + OFFSET_POS.Z
TARGET_POS.A = TAUGHT_START.A
TARGET_POS.B = TAUGHT_START.B
TARGET_POS.C = TAUGHT_START.C
LIN TARGET_POS C_DIS
CONTINUE
OFFSET_POS = {X 11.345, Y -5.496, Z 2.000, A 0, B 0, C 0}
TARGET_POS = TAUGHT_START
TARGET_POS.X = TAUGHT_START.X + OFFSET_POS.X
TARGET_POS.Y = TAUGHT_START.Y + OFFSET_POS.Y
TARGET_POS.Z = TAUGHT_START.Z + OFFSET_POS.Z
TARGET_POS.A = TAUGHT_START.A
TARGET_POS.B = TAUGHT_START.B
TARGET_POS.C = TAUGHT_START.C
LIN TARGET_POS C_DIS
CONTINUE
OFFSET_POS = {X 12.150, Y -5.324, Z 2.000, A 0, B 0, C 0}
TARGET_POS = TAUGHT_START
TARGET_POS.X = TAUGHT_START.X + OFFSET_POS.X
TARGET_POS.Y = TAUGHT_START.Y + OFFSET_POS.Y
TARGET_POS.Z = TAUGHT_START.Z + OFFSET_POS.Z
TARGET_POS.A = TAUGHT_START.A
TARGET_POS.B = TAUGHT_START.B
TARGET_POS.C = TAUGHT_START.C
LIN TARGET_POS C_DIS
CONTINUE
OFFSET_POS = {X 12.911, Y -5.046, Z 2.000, A 0, B 0, C 0}
TARGET_POS = TAUGHT_START
TARGET_POS.X = TAUGHT_START.X + OFFSET_POS.X
TARGET_POS.Y = TAUGHT_START.Y + OFFSET_POS.Y
TARGET_POS.Z = TAUGHT_START.Z + OFFSET_POS.Z
TARGET_POS.A = TAUGHT_START.A
TARGET_POS.B = TAUGHT_START.B
TARGET_POS.C = TAUGHT_START.C
LIN TARGET_POS C_DIS
CONTINUE
OFFSET_POS = {X 13.613, Y -4.659, Z 2.000, A 0, B 0, C 0}
TARGET_POS = TAUGHT_START
TARGET_POS.X = TAUGHT_START.X + OFFSET_POS.X
TARGET_POS.Y = TAUGHT_START.Y + OFFSET_POS.Y
TARGET_POS.Z = TAUGHT_START.Z + OFFSET_POS.Z
TARGET_POS.A = TAUGHT_START.A
TARGET_POS.B = TAUGHT_START.B
TARGET_POS.C = TAUGHT_START.C
LIN TARGET_POS C_DIS
CONTINUE
OFFSET_POS = {X 14.055, Y -4.318, Z 2.000, A 0, B 0, C 0}
TARGET_POS = TAUGHT_START
TARGET_POS.X = TAUGHT_START.X + OFFSET_POS.X
TARGET_POS.Y = TAUGHT_START.Y + OFFSET_POS.Y
TARGET_POS.Z = TAUGHT_START.Z + OFFSET_POS.Z
TARGET_POS.A = TAUGHT_START.A
TARGET_POS.B = TAUGHT_START.B
TARGET_POS.C = TAUGHT_START.C
LIN TARGET_POS C_DIS
CONTINUE
OFFSET_POS = {X 14.415, Y -3.959, Z 2.000, A 0, B 0, C 0}
TARGET_POS = TAUGHT_START
TARGET_POS.X = TAUGHT_START.X + OFFSET_POS.X
TARGET_POS.Y = TAUGHT_START.Y + OFFSET_POS.Y
TARGET_POS.Z = TAUGHT_START.Z + OFFSET_POS.Z
TARGET_POS.A = TAUGHT_START.A
TARGET_POS.B = TAUGHT_START.B
TARGET_POS.C = TAUGHT_START.C
LIN TARGET_POS C_DIS
CONTINUE
OFFSET_POS = {X 14.733, Y -3.561, Z 2.000, A 0, B 0, C 0}
TARGET_POS = TAUGHT_START
TARGET_POS.X = TAUGHT_START.X + OFFSET_POS.X
TARGET_POS.Y = TAUGHT_START.Y + OFFSET_POS.Y
TARGET_POS.Z = TAUGHT_START.Z + OFFSET_POS.Z
TARGET_POS.A = TAUGHT_START.A
TARGET_POS.B = TAUGHT_START.B
TARGET_POS.C = TAUGHT_START.C
LIN TARGET_POS C_DIS
CONTINUE
OFFSET_POS = {X 15.110, Y -2.892, Z 2.000, A 0, B 0, C 0}
TARGET_POS = TAUGHT_START
TARGET_POS.X = TAUGHT_START.X + OFFSET_POS.X
TARGET_POS.Y = TAUGHT_START.Y + OFFSET_POS.Y
TARGET_POS.Z = TAUGHT_START.Z + OFFSET_POS.Z
TARGET_POS.A = TAUGHT_START.A
TARGET_POS.B = TAUGHT_START.B
TARGET_POS.C = TAUGHT_START.C
LIN TARGET_POS C_DIS
CONTINUE
OFFSET_POS = {X 15.365, Y -2.182, Z 2.000, A 0, B 0, C 0}
TARGET_POS = TAUGHT_START
TARGET_POS.X = TAUGHT_START.X + OFFSET_POS.X
TARGET_POS.Y = TAUGHT_START.Y + OFFSET_POS.Y
TARGET_POS.Z = TAUGHT_START.Z + OFFSET_POS.Z
TARGET_POS.A = TAUGHT_START.A
TARGET_POS.B = TAUGHT_START.B
TARGET_POS.C = TAUGHT_START.C
LIN TARGET_POS C_DIS
CONTINUE
OFFSET_POS = {X 15.504, Y -1.452, Z 2.000, A 0, B 0, C 0}
TARGET_POS = TAUGHT_START
TARGET_POS.X = TAUGHT_START.X + OFFSET_POS.X
TARGET_POS.Y = TAUGHT_START.Y + OFFSET_POS.Y
TARGET_POS.Z = TAUGHT_START.Z + OFFSET_POS.Z
TARGET_POS.A = TAUGHT_START.A
TARGET_POS.B = TAUGHT_START.B
TARGET_POS.C = TAUGHT_START.C
LIN TARGET_POS C_DIS
CONTINUE
OFFSET_POS = {X 15.538, Y -0.716, Z 2.000, A 0, B 0, C 0}
TARGET_POS = TAUGHT_START
TARGET_POS.X = TAUGHT_START.X + OFFSET_POS.X
TARGET_POS.Y = TAUGHT_START.Y + OFFSET_POS.Y
TARGET_POS.Z = TAUGHT_START.Z + OFFSET_POS.Z
TARGET_POS.A = TAUGHT_START.A
TARGET_POS.B = TAUGHT_START.B
TARGET_POS.C = TAUGHT_START.C
LIN TARGET_POS C_DIS
CONTINUE
OFFSET_POS = {X 15.482, Y 0.015, Z 2.000, A 0, B 0, C 0}
TARGET_POS = TAUGHT_START
TARGET_POS.X = TAUGHT_START.X + OFFSET_POS.X
TARGET_POS.Y = TAUGHT_START.Y + OFFSET_POS.Y
TARGET_POS.Z = TAUGHT_START.Z + OFFSET_POS.Z
TARGET_POS.A = TAUGHT_START.A
TARGET_POS.B = TAUGHT_START.B
TARGET_POS.C = TAUGHT_START.C
LIN TARGET_POS C_DIS
CONTINUE
OFFSET_POS = {X 15.349, Y 0.733, Z 2.000, A 0, B 0, C 0}
TARGET_POS = TAUGHT_START
TARGET_POS.X = TAUGHT_START.X + OFFSET_POS.X
TARGET_POS.Y = TAUGHT_START.Y + OFFSET_POS.Y
TARGET_POS.Z = TAUGHT_START.Z + OFFSET_POS.Z
TARGET_POS.A = TAUGHT_START.A
TARGET_POS.B = TAUGHT_START.B
TARGET_POS.C = TAUGHT_START.C
LIN TARGET_POS C_DIS
CONTINUE
OFFSET_POS = {X 15.149, Y 1.433, Z 2.000, A 0, B 0, C 0}
TARGET_POS = TAUGHT_START
TARGET_POS.X = TAUGHT_START.X + OFFSET_POS.X
TARGET_POS.Y = TAUGHT_START.Y + OFFSET_POS.Y
TARGET_POS.Z = TAUGHT_START.Z + OFFSET_POS.Z
TARGET_POS.A = TAUGHT_START.A
TARGET_POS.B = TAUGHT_START.B
TARGET_POS.C = TAUGHT_START.C
LIN TARGET_POS C_DIS
CONTINUE
OFFSET_POS = {X 14.892, Y 2.105, Z 2.000, A 0, B 0, C 0}
TARGET_POS = TAUGHT_START
TARGET_POS.X = TAUGHT_START.X + OFFSET_POS.X
TARGET_POS.Y = TAUGHT_START.Y + OFFSET_POS.Y
TARGET_POS.Z = TAUGHT_START.Z + OFFSET_POS.Z
TARGET_POS.A = TAUGHT_START.A
TARGET_POS.B = TAUGHT_START.B
TARGET_POS.C = TAUGHT_START.C
LIN TARGET_POS C_DIS
CONTINUE
OFFSET_POS = {X 14.588, Y 2.743, Z 2.000, A 0, B 0, C 0}
TARGET_POS = TAUGHT_START
TARGET_POS.X = TAUGHT_START.X + OFFSET_POS.X
TARGET_POS.Y = TAUGHT_START.Y + OFFSET_POS.Y
TARGET_POS.Z = TAUGHT_START.Z + OFFSET_POS.Z
TARGET_POS.A = TAUGHT_START.A
TARGET_POS.B = TAUGHT_START.B
TARGET_POS.C = TAUGHT_START.C
LIN TARGET_POS C_DIS
CONTINUE
OFFSET_POS = {X 14.243, Y 3.339, Z 2.000, A 0, B 0, C 0}
TARGET_POS = TAUGHT_START
TARGET_POS.X = TAUGHT_START.X + OFFSET_POS.X
TARGET_POS.Y = TAUGHT_START.Y + OFFSET_POS.Y
TARGET_POS.Z = TAUGHT_START.Z + OFFSET_POS.Z
TARGET_POS.A = TAUGHT_START.A
TARGET_POS.B = TAUGHT_START.B
TARGET_POS.C = TAUGHT_START.C
LIN TARGET_POS C_DIS
CONTINUE
OFFSET_POS = {X 13.862, Y 3.886, Z 2.000, A 0, B 0, C 0}
TARGET_POS = TAUGHT_START
TARGET_POS.X = TAUGHT_START.X + OFFSET_POS.X
TARGET_POS.Y = TAUGHT_START.Y + OFFSET_POS.Y
TARGET_POS.Z = TAUGHT_START.Z + OFFSET_POS.Z
TARGET_POS.A = TAUGHT_START.A
TARGET_POS.B = TAUGHT_START.B
TARGET_POS.C = TAUGHT_START.C
LIN TARGET_POS C_DIS
CONTINUE
OFFSET_POS = {X 13.442, Y 4.381, Z 2.000, A 0, B 0, C 0}
TARGET_POS = TAUGHT_START
TARGET_POS.X = TAUGHT_START.X + OFFSET_POS.X
TARGET_POS.Y = TAUGHT_START.Y + OFFSET_POS.Y
TARGET_POS.Z = TAUGHT_START.Z + OFFSET_POS.Z
TARGET_POS.A = TAUGHT_START.A
TARGET_POS.B = TAUGHT_START.B
TARGET_POS.C = TAUGHT_START.C
LIN TARGET_POS C_DIS
CONTINUE
OFFSET_POS = {X 13.057, Y 4.752, Z 2.000, A 0, B 0, C 0}
TARGET_POS = TAUGHT_START
TARGET_POS.X = TAUGHT_START.X + OFFSET_POS.X
TARGET_POS.Y = TAUGHT_START.Y + OFFSET_POS.Y
TARGET_POS.Z = TAUGHT_START.Z + OFFSET_POS.Z
TARGET_POS.A = TAUGHT_START.A
TARGET_POS.B = TAUGHT_START.B
TARGET_POS.C = TAUGHT_START.C
LIN TARGET_POS C_DIS
CONTINUE
OFFSET_POS = {X 12.634, Y 5.060, Z 2.000, A 0, B 0, C 0}
TARGET_POS = TAUGHT_START
TARGET_POS.X = TAUGHT_START.X + OFFSET_POS.X
TARGET_POS.Y = TAUGHT_START.Y + OFFSET_POS.Y
TARGET_POS.Z = TAUGHT_START.Z + OFFSET_POS.Z
TARGET_POS.A = TAUGHT_START.A
TARGET_POS.B = TAUGHT_START.B
TARGET_POS.C = TAUGHT_START.C
LIN TARGET_POS C_DIS
CONTINUE
OFFSET_POS = {X 12.080, Y 5.339, Z 2.000, A 0, B 0, C 0}
TARGET_POS = TAUGHT_START
TARGET_POS.X = TAUGHT_START.X + OFFSET_POS.X
TARGET_POS.Y = TAUGHT_START.Y + OFFSET_POS.Y
TARGET_POS.Z = TAUGHT_START.Z + OFFSET_POS.Z
TARGET_POS.A = TAUGHT_START.A
TARGET_POS.B = TAUGHT_START.B
TARGET_POS.C = TAUGHT_START.C
LIN TARGET_POS C_DIS
CONTINUE
OFFSET_POS = {X 11.562, Y 5.467, Z 2.000, A 0, B 0, C 0}
TARGET_POS = TAUGHT_START
TARGET_POS.X = TAUGHT_START.X + OFFSET_POS.X
TARGET_POS.Y = TAUGHT_START.Y + OFFSET_POS.Y
TARGET_POS.Z = TAUGHT_START.Z + OFFSET_POS.Z
TARGET_POS.A = TAUGHT_START.A
TARGET_POS.B = TAUGHT_START.B
TARGET_POS.C = TAUGHT_START.C
LIN TARGET_POS C_DIS
CONTINUE
OFFSET_POS = {X 11.040, Y 5.476, Z 2.000, A 0, B 0, C 0}
TARGET_POS = TAUGHT_START
TARGET_POS.X = TAUGHT_START.X + OFFSET_POS.X
TARGET_POS.Y = TAUGHT_START.Y + OFFSET_POS.Y
TARGET_POS.Z = TAUGHT_START.Z + OFFSET_POS.Z
TARGET_POS.A = TAUGHT_START.A
TARGET_POS.B = TAUGHT_START.B
TARGET_POS.C = TAUGHT_START.C
LIN TARGET_POS C_DIS
CONTINUE
OFFSET_POS = {X 10.490, Y 5.344, Z 2.000, A 0, B 0, C 0}
TARGET_POS = TAUGHT_START
TARGET_POS.X = TAUGHT_START.X + OFFSET_POS.X
TARGET_POS.Y = TAUGHT_START.Y + OFFSET_POS.Y
TARGET_POS.Z = TAUGHT_START.Z + OFFSET_POS.Z
TARGET_POS.A = TAUGHT_START.A
TARGET_POS.B = TAUGHT_START.B
TARGET_POS.C = TAUGHT_START.C
LIN TARGET_POS C_DIS
CONTINUE
OFFSET_POS = {X 10.045, Y 5.109, Z 2.000, A 0, B 0, C 0}
TARGET_POS = TAUGHT_START
TARGET_POS.X = TAUGHT_START.X + OFFSET_POS.X
TARGET_POS.Y = TAUGHT_START.Y + OFFSET_POS.Y
TARGET_POS.Z = TAUGHT_START.Z + OFFSET_POS.Z
TARGET_POS.A = TAUGHT_START.A
TARGET_POS.B = TAUGHT_START.B
TARGET_POS.C = TAUGHT_START.C
LIN TARGET_POS C_DIS
CONTINUE
OFFSET_POS = {X 9.675, Y 4.797, Z 2.000, A 0, B 0, C 0}
TARGET_POS = TAUGHT_START
TARGET_POS.X = TAUGHT_START.X + OFFSET_POS.X
TARGET_POS.Y = TAUGHT_START.Y + OFFSET_POS.Y
TARGET_POS.Z = TAUGHT_START.Z + OFFSET_POS.Z
TARGET_POS.A = TAUGHT_START.A
TARGET_POS.B = TAUGHT_START.B
TARGET_POS.C = TAUGHT_START.C
LIN TARGET_POS C_DIS
CONTINUE
OFFSET_POS = {X 9.322, Y 4.381, Z 2.000, A 0, B 0, C 0}
TARGET_POS = TAUGHT_START
TARGET_POS.X = TAUGHT_START.X + OFFSET_POS.X
TARGET_POS.Y = TAUGHT_START.Y + OFFSET_POS.Y
TARGET_POS.Z = TAUGHT_START.Z + OFFSET_POS.Z
TARGET_POS.A = TAUGHT_START.A
TARGET_POS.B = TAUGHT_START.B
TARGET_POS.C = TAUGHT_START.C
LIN TARGET_POS C_DIS
CONTINUE
OFFSET_POS = {X 9.055, Y 3.955, Z 2.000, A 0, B 0, C 0}
TARGET_POS = TAUGHT_START
TARGET_POS.X = TAUGHT_START.X + OFFSET_POS.X
TARGET_POS.Y = TAUGHT_START.Y + OFFSET_POS.Y
TARGET_POS.Z = TAUGHT_START.Z + OFFSET_POS.Z
TARGET_POS.A = TAUGHT_START.A
TARGET_POS.B = TAUGHT_START.B
TARGET_POS.C = TAUGHT_START.C
LIN TARGET_POS C_DIS
CONTINUE
OFFSET_POS = {X 8.672, Y 3.204, Z 2.000, A 0, B 0, C 0}
TARGET_POS = TAUGHT_START
TARGET_POS.X = TAUGHT_START.X + OFFSET_POS.X
TARGET_POS.Y = TAUGHT_START.Y + OFFSET_POS.Y
TARGET_POS.Z = TAUGHT_START.Z + OFFSET_POS.Z
TARGET_POS.A = TAUGHT_START.A
TARGET_POS.B = TAUGHT_START.B
TARGET_POS.C = TAUGHT_START.C
LIN TARGET_POS C_DIS
CONTINUE
OFFSET_POS = {X 8.428, Y 2.729, Z 2.000, A 0, B 0, C 0}
TARGET_POS = TAUGHT_START
TARGET_POS.X = TAUGHT_START.X + OFFSET_POS.X
TARGET_POS.Y = TAUGHT_START.Y + OFFSET_POS.Y
TARGET_POS.Z = TAUGHT_START.Z + OFFSET_POS.Z
TARGET_POS.A = TAUGHT_START.A
TARGET_POS.B = TAUGHT_START.B
TARGET_POS.C = TAUGHT_START.C
LIN TARGET_POS C_DIS
CONTINUE
OFFSET_POS = {X 8.122, Y 2.223, Z 2.000, A 0, B 0, C 0}
TARGET_POS = TAUGHT_START
TARGET_POS.X = TAUGHT_START.X + OFFSET_POS.X
TARGET_POS.Y = TAUGHT_START.Y + OFFSET_POS.Y
TARGET_POS.Z = TAUGHT_START.Z + OFFSET_POS.Z
TARGET_POS.A = TAUGHT_START.A
TARGET_POS.B = TAUGHT_START.B
TARGET_POS.C = TAUGHT_START.C
LIN TARGET_POS C_DIS
CONTINUE
OFFSET_POS = {X 7.757, Y 1.765, Z 2.000, A 0, B 0, C 0}
TARGET_POS = TAUGHT_START
TARGET_POS.X = TAUGHT_START.X + OFFSET_POS.X
TARGET_POS.Y = TAUGHT_START.Y + OFFSET_POS.Y
TARGET_POS.Z = TAUGHT_START.Z + OFFSET_POS.Z
TARGET_POS.A = TAUGHT_START.A
TARGET_POS.B = TAUGHT_START.B
TARGET_POS.C = TAUGHT_START.C
LIN TARGET_POS C_DIS
CONTINUE
OFFSET_POS = {X 7.375, Y 1.458, Z 2.000, A 0, B 0, C 0}
TARGET_POS = TAUGHT_START
TARGET_POS.X = TAUGHT_START.X + OFFSET_POS.X
TARGET_POS.Y = TAUGHT_START.Y + OFFSET_POS.Y
TARGET_POS.Z = TAUGHT_START.Z + OFFSET_POS.Z
TARGET_POS.A = TAUGHT_START.A
TARGET_POS.B = TAUGHT_START.B
TARGET_POS.C = TAUGHT_START.C
LIN TARGET_POS C_DIS
CONTINUE
OFFSET_POS = {X 6.915, Y 1.235, Z 2.000, A 0, B 0, C 0}
TARGET_POS = TAUGHT_START
TARGET_POS.X = TAUGHT_START.X + OFFSET_POS.X
TARGET_POS.Y = TAUGHT_START.Y + OFFSET_POS.Y
TARGET_POS.Z = TAUGHT_START.Z + OFFSET_POS.Z
TARGET_POS.A = TAUGHT_START.A
TARGET_POS.B = TAUGHT_START.B
TARGET_POS.C = TAUGHT_START.C
LIN TARGET_POS C_DIS
CONTINUE
OFFSET_POS = {X 6.388, Y 1.086, Z 2.000, A 0, B 0, C 0}
TARGET_POS = TAUGHT_START
TARGET_POS.X = TAUGHT_START.X + OFFSET_POS.X
TARGET_POS.Y = TAUGHT_START.Y + OFFSET_POS.Y
TARGET_POS.Z = TAUGHT_START.Z + OFFSET_POS.Z
TARGET_POS.A = TAUGHT_START.A
TARGET_POS.B = TAUGHT_START.B
TARGET_POS.C = TAUGHT_START.C
LIN TARGET_POS C_DIS
CONTINUE
OFFSET_POS = {X 5.834, Y 1.015, Z 2.000, A 0, B 0, C 0}
TARGET_POS = TAUGHT_START
TARGET_POS.X = TAUGHT_START.X + OFFSET_POS.X
TARGET_POS.Y = TAUGHT_START.Y + OFFSET_POS.Y
TARGET_POS.Z = TAUGHT_START.Z + OFFSET_POS.Z
TARGET_POS.A = TAUGHT_START.A
TARGET_POS.B = TAUGHT_START.B
TARGET_POS.C = TAUGHT_START.C
LIN TARGET_POS C_DIS
CONTINUE
OFFSET_POS = {X 5.272, Y 0.981, Z 2.000, A 0, B 0, C 0}
TARGET_POS = TAUGHT_START
TARGET_POS.X = TAUGHT_START.X + OFFSET_POS.X
TARGET_POS.Y = TAUGHT_START.Y + OFFSET_POS.Y
TARGET_POS.Z = TAUGHT_START.Z + OFFSET_POS.Z
TARGET_POS.A = TAUGHT_START.A
TARGET_POS.B = TAUGHT_START.B
TARGET_POS.C = TAUGHT_START.C
LIN TARGET_POS C_DIS
CONTINUE
OFFSET_POS = {X 4.699, Y 0.988, Z 2.000, A 0, B 0, C 0}
TARGET_POS = TAUGHT_START
TARGET_POS.X = TAUGHT_START.X + OFFSET_POS.X
TARGET_POS.Y = TAUGHT_START.Y + OFFSET_POS.Y
TARGET_POS.Z = TAUGHT_START.Z + OFFSET_POS.Z
TARGET_POS.A = TAUGHT_START.A
TARGET_POS.B = TAUGHT_START.B
TARGET_POS.C = TAUGHT_START.C
LIN TARGET_POS C_DIS
CONTINUE
OFFSET_POS = {X 4.160, Y 1.020, Z 2.000, A 0, B 0, C 0}
TARGET_POS = TAUGHT_START
TARGET_POS.X = TAUGHT_START.X + OFFSET_POS.X
TARGET_POS.Y = TAUGHT_START.Y + OFFSET_POS.Y
TARGET_POS.Z = TAUGHT_START.Z + OFFSET_POS.Z
TARGET_POS.A = TAUGHT_START.A
TARGET_POS.B = TAUGHT_START.B
TARGET_POS.C = TAUGHT_START.C
LIN TARGET_POS C_DIS
CONTINUE
OFFSET_POS = {X 3.595, Y 1.063, Z 2.000, A 0, B 0, C 0}
TARGET_POS = TAUGHT_START
TARGET_POS.X = TAUGHT_START.X + OFFSET_POS.X
TARGET_POS.Y = TAUGHT_START.Y + OFFSET_POS.Y
TARGET_POS.Z = TAUGHT_START.Z + OFFSET_POS.Z
TARGET_POS.A = TAUGHT_START.A
TARGET_POS.B = TAUGHT_START.B
TARGET_POS.C = TAUGHT_START.C
LIN TARGET_POS C_DIS
CONTINUE
OFFSET_POS = {X 3.026, Y 1.110, Z 2.000, A 0, B 0, C 0}
TARGET_POS = TAUGHT_START
TARGET_POS.X = TAUGHT_START.X + OFFSET_POS.X
TARGET_POS.Y = TAUGHT_START.Y + OFFSET_POS.Y
TARGET_POS.Z = TAUGHT_START.Z + OFFSET_POS.Z
TARGET_POS.A = TAUGHT_START.A
TARGET_POS.B = TAUGHT_START.B
TARGET_POS.C = TAUGHT_START.C
LIN TARGET_POS C_DIS
CONTINUE
OFFSET_POS = {X 2.513, Y 1.146, Z 2.000, A 0, B 0, C 0}
TARGET_POS = TAUGHT_START
TARGET_POS.X = TAUGHT_START.X + OFFSET_POS.X
TARGET_POS.Y = TAUGHT_START.Y + OFFSET_POS.Y
TARGET_POS.Z = TAUGHT_START.Z + OFFSET_POS.Z
TARGET_POS.A = TAUGHT_START.A
TARGET_POS.B = TAUGHT_START.B
TARGET_POS.C = TAUGHT_START.C
LIN TARGET_POS C_DIS
CONTINUE
OFFSET_POS = {X 1.880, Y 1.160, Z 2.000, A 0, B 0, C 0}
TARGET_POS = TAUGHT_START
TARGET_POS.X = TAUGHT_START.X + OFFSET_POS.X
TARGET_POS.Y = TAUGHT_START.Y + OFFSET_POS.Y
TARGET_POS.Z = TAUGHT_START.Z + OFFSET_POS.Z
TARGET_POS.A = TAUGHT_START.A
TARGET_POS.B = TAUGHT_START.B
TARGET_POS.C = TAUGHT_START.C
LIN TARGET_POS C_DIS
CONTINUE
OFFSET_POS = {X 1.216, Y 1.072, Z 2.000, A 0, B 0, C 0}
TARGET_POS = TAUGHT_START
TARGET_POS.X = TAUGHT_START.X + OFFSET_POS.X
TARGET_POS.Y = TAUGHT_START.Y + OFFSET_POS.Y
TARGET_POS.Z = TAUGHT_START.Z + OFFSET_POS.Z
TARGET_POS.A = TAUGHT_START.A
TARGET_POS.B = TAUGHT_START.B
TARGET_POS.C = TAUGHT_START.C
LIN TARGET_POS C_DIS
CONTINUE
OFFSET_POS = {X 0.707, Y 0.865, Z 2.000, A 0, B 0, C 0}
TARGET_POS = TAUGHT_START
TARGET_POS.X = TAUGHT_START.X + OFFSET_POS.X
TARGET_POS.Y = TAUGHT_START.Y + OFFSET_POS.Y
TARGET_POS.Z = TAUGHT_START.Z + OFFSET_POS.Z
TARGET_POS.A = TAUGHT_START.A
TARGET_POS.B = TAUGHT_START.B
TARGET_POS.C = TAUGHT_START.C
LIN TARGET_POS C_DIS
CONTINUE
OFFSET_POS = {X 0.362, Y 0.602, Z 2.000, A 0, B 0, C 0}
TARGET_POS = TAUGHT_START
TARGET_POS.X = TAUGHT_START.X + OFFSET_POS.X
TARGET_POS.Y = TAUGHT_START.Y + OFFSET_POS.Y
TARGET_POS.Z = TAUGHT_START.Z + OFFSET_POS.Z
TARGET_POS.A = TAUGHT_START.A
TARGET_POS.B = TAUGHT_START.B
TARGET_POS.C = TAUGHT_START.C
LIN TARGET_POS C_DIS
CONTINUE
OFFSET_POS = {X 0.297, Y 0.515, Z 2.000, A 0, B 0, C 0}
TARGET_POS = TAUGHT_START
TARGET_POS.X = TAUGHT_START.X + OFFSET_POS.X
TARGET_POS.Y = TAUGHT_START.Y + OFFSET_POS.Y
TARGET_POS.Z = TAUGHT_START.Z + OFFSET_POS.Z
TARGET_POS.A = TAUGHT_START.A
TARGET_POS.B = TAUGHT_START.B
TARGET_POS.C = TAUGHT_START.C
LIN TARGET_POS C_DIS
$OUT[1] = FALSE
WAIT SEC 0.200
WAIT SEC 55.00
; ;LAYER_CHANGE
; ;Z:4
OFFSET_POS = {X 0.297, Y 0.515, Z 4.000, A 0, B 0, C 0}
TARGET_POS = TAUGHT_START
TARGET_POS.X = TAUGHT_START.X + OFFSET_POS.X
TARGET_POS.Y = TAUGHT_START.Y + OFFSET_POS.Y
TARGET_POS.Z = TAUGHT_START.Z + OFFSET_POS.Z
TARGET_POS.A = TAUGHT_START.A
TARGET_POS.B = TAUGHT_START.B
TARGET_POS.C = TAUGHT_START.C
LIN TARGET_POS C_DIS
$OUT[1] = TRUE
WAIT SEC 0.200
OFFSET_POS = {X 0.362, Y 0.602, Z 4.000, A 0, B 0, C 0}
TARGET_POS = TAUGHT_START
TARGET_POS.X = TAUGHT_START.X + OFFSET_POS.X
TARGET_POS.Y = TAUGHT_START.Y + OFFSET_POS.Y
TARGET_POS.Z = TAUGHT_START.Z + OFFSET_POS.Z
TARGET_POS.A = TAUGHT_START.A
TARGET_POS.B = TAUGHT_START.B
TARGET_POS.C = TAUGHT_START.C
LIN TARGET_POS C_DIS
CONTINUE
OFFSET_POS = {X 0.707, Y 0.865, Z 4.000, A 0, B 0, C 0}
TARGET_POS = TAUGHT_START
TARGET_POS.X = TAUGHT_START.X + OFFSET_POS.X
TARGET_POS.Y = TAUGHT_START.Y + OFFSET_POS.Y
TARGET_POS.Z = TAUGHT_START.Z + OFFSET_POS.Z
TARGET_POS.A = TAUGHT_START.A
TARGET_POS.B = TAUGHT_START.B
TARGET_POS.C = TAUGHT_START.C
LIN TARGET_POS C_DIS
CONTINUE
OFFSET_POS = {X 1.216, Y 1.072, Z 4.000, A 0, B 0, C 0}
TARGET_POS = TAUGHT_START
TARGET_POS.X = TAUGHT_START.X + OFFSET_POS.X
TARGET_POS.Y = TAUGHT_START.Y + OFFSET_POS.Y
TARGET_POS.Z = TAUGHT_START.Z + OFFSET_POS.Z
TARGET_POS.A = TAUGHT_START.A
TARGET_POS.B = TAUGHT_START.B
TARGET_POS.C = TAUGHT_START.C
LIN TARGET_POS C_DIS
CONTINUE
OFFSET_POS = {X 1.880, Y 1.160, Z 4.000, A 0, B 0, C 0}
TARGET_POS = TAUGHT_START
TARGET_POS.X = TAUGHT_START.X + OFFSET_POS.X
TARGET_POS.Y = TAUGHT_START.Y + OFFSET_POS.Y
TARGET_POS.Z = TAUGHT_START.Z + OFFSET_POS.Z
TARGET_POS.A = TAUGHT_START.A
TARGET_POS.B = TAUGHT_START.B
TARGET_POS.C = TAUGHT_START.C
LIN TARGET_POS C_DIS
CONTINUE
OFFSET_POS = {X 2.513, Y 1.146, Z 4.000, A 0, B 0, C 0}
TARGET_POS = TAUGHT_START
TARGET_POS.X = TAUGHT_START.X + OFFSET_POS.X
TARGET_POS.Y = TAUGHT_START.Y + OFFSET_POS.Y
TARGET_POS.Z = TAUGHT_START.Z + OFFSET_POS.Z
TARGET_POS.A = TAUGHT_START.A
TARGET_POS.B = TAUGHT_START.B
TARGET_POS.C = TAUGHT_START.C
LIN TARGET_POS C_DIS
CONTINUE
OFFSET_POS = {X 3.026, Y 1.110, Z 4.000, A 0, B 0, C 0}
TARGET_POS = TAUGHT_START
TARGET_POS.X = TAUGHT_START.X + OFFSET_POS.X
TARGET_POS.Y = TAUGHT_START.Y + OFFSET_POS.Y
TARGET_POS.Z = TAUGHT_START.Z + OFFSET_POS.Z
TARGET_POS.A = TAUGHT_START.A
TARGET_POS.B = TAUGHT_START.B
TARGET_POS.C = TAUGHT_START.C
LIN TARGET_POS C_DIS
CONTINUE
OFFSET_POS = {X 3.595, Y 1.063, Z 4.000, A 0, B 0, C 0}
TARGET_POS = TAUGHT_START
TARGET_POS.X = TAUGHT_START.X + OFFSET_POS.X
TARGET_POS.Y = TAUGHT_START.Y + OFFSET_POS.Y
TARGET_POS.Z = TAUGHT_START.Z + OFFSET_POS.Z
TARGET_POS.A = TAUGHT_START.A
TARGET_POS.B = TAUGHT_START.B
TARGET_POS.C = TAUGHT_START.C
LIN TARGET_POS C_DIS
CONTINUE
OFFSET_POS = {X 4.160, Y 1.020, Z 4.000, A 0, B 0, C 0}
TARGET_POS = TAUGHT_START
TARGET_POS.X = TAUGHT_START.X + OFFSET_POS.X
TARGET_POS.Y = TAUGHT_START.Y + OFFSET_POS.Y
TARGET_POS.Z = TAUGHT_START.Z + OFFSET_POS.Z
TARGET_POS.A = TAUGHT_START.A
TARGET_POS.B = TAUGHT_START.B
TARGET_POS.C = TAUGHT_START.C
LIN TARGET_POS C_DIS
CONTINUE
OFFSET_POS = {X 4.699, Y 0.988, Z 4.000, A 0, B 0, C 0}
TARGET_POS = TAUGHT_START
TARGET_POS.X = TAUGHT_START.X + OFFSET_POS.X
TARGET_POS.Y = TAUGHT_START.Y + OFFSET_POS.Y
TARGET_POS.Z = TAUGHT_START.Z + OFFSET_POS.Z
TARGET_POS.A = TAUGHT_START.A
TARGET_POS.B = TAUGHT_START.B
TARGET_POS.C = TAUGHT_START.C
LIN TARGET_POS C_DIS
CONTINUE
OFFSET_POS = {X 5.272, Y 0.981, Z 4.000, A 0, B 0, C 0}
TARGET_POS = TAUGHT_START
TARGET_POS.X = TAUGHT_START.X + OFFSET_POS.X
TARGET_POS.Y = TAUGHT_START.Y + OFFSET_POS.Y
TARGET_POS.Z = TAUGHT_START.Z + OFFSET_POS.Z
TARGET_POS.A = TAUGHT_START.A
TARGET_POS.B = TAUGHT_START.B
TARGET_POS.C = TAUGHT_START.C
LIN TARGET_POS C_DIS
CONTINUE
OFFSET_POS = {X 5.834, Y 1.015, Z 4.000, A 0, B 0, C 0}
TARGET_POS = TAUGHT_START
TARGET_POS.X = TAUGHT_START.X + OFFSET_POS.X
TARGET_POS.Y = TAUGHT_START.Y + OFFSET_POS.Y
TARGET_POS.Z = TAUGHT_START.Z + OFFSET_POS.Z
TARGET_POS.A = TAUGHT_START.A
TARGET_POS.B = TAUGHT_START.B
TARGET_POS.C = TAUGHT_START.C
LIN TARGET_POS C_DIS
CONTINUE
OFFSET_POS = {X 6.388, Y 1.086, Z 4.000, A 0, B 0, C 0}
TARGET_POS = TAUGHT_START
TARGET_POS.X = TAUGHT_START.X + OFFSET_POS.X
TARGET_POS.Y = TAUGHT_START.Y + OFFSET_POS.Y
TARGET_POS.Z = TAUGHT_START.Z + OFFSET_POS.Z
TARGET_POS.A = TAUGHT_START.A
TARGET_POS.B = TAUGHT_START.B
TARGET_POS.C = TAUGHT_START.C
LIN TARGET_POS C_DIS
CONTINUE
OFFSET_POS = {X 6.915, Y 1.235, Z 4.000, A 0, B 0, C 0}
TARGET_POS = TAUGHT_START
TARGET_POS.X = TAUGHT_START.X + OFFSET_POS.X
TARGET_POS.Y = TAUGHT_START.Y + OFFSET_POS.Y
TARGET_POS.Z = TAUGHT_START.Z + OFFSET_POS.Z
TARGET_POS.A = TAUGHT_START.A
TARGET_POS.B = TAUGHT_START.B
TARGET_POS.C = TAUGHT_START.C
LIN TARGET_POS C_DIS
CONTINUE
OFFSET_POS = {X 7.375, Y 1.458, Z 4.000, A 0, B 0, C 0}
TARGET_POS = TAUGHT_START
TARGET_POS.X = TAUGHT_START.X + OFFSET_POS.X
TARGET_POS.Y = TAUGHT_START.Y + OFFSET_POS.Y
TARGET_POS.Z = TAUGHT_START.Z + OFFSET_POS.Z
TARGET_POS.A = TAUGHT_START.A
TARGET_POS.B = TAUGHT_START.B
TARGET_POS.C = TAUGHT_START.C
LIN TARGET_POS C_DIS
CONTINUE
OFFSET_POS = {X 7.757, Y 1.765, Z 4.000, A 0, B 0, C 0}
TARGET_POS = TAUGHT_START
TARGET_POS.X = TAUGHT_START.X + OFFSET_POS.X
TARGET_POS.Y = TAUGHT_START.Y + OFFSET_POS.Y
TARGET_POS.Z = TAUGHT_START.Z + OFFSET_POS.Z
TARGET_POS.A = TAUGHT_START.A
TARGET_POS.B = TAUGHT_START.B
TARGET_POS.C = TAUGHT_START.C
LIN TARGET_POS C_DIS
CONTINUE
OFFSET_POS = {X 8.122, Y 2.223, Z 4.000, A 0, B 0, C 0}
TARGET_POS = TAUGHT_START
TARGET_POS.X = TAUGHT_START.X + OFFSET_POS.X
TARGET_POS.Y = TAUGHT_START.Y + OFFSET_POS.Y
TARGET_POS.Z = TAUGHT_START.Z + OFFSET_POS.Z
TARGET_POS.A = TAUGHT_START.A
TARGET_POS.B = TAUGHT_START.B
TARGET_POS.C = TAUGHT_START.C
LIN TARGET_POS C_DIS
CONTINUE
OFFSET_POS = {X 8.428, Y 2.729, Z 4.000, A 0, B 0, C 0}
TARGET_POS = TAUGHT_START
TARGET_POS.X = TAUGHT_START.X + OFFSET_POS.X
TARGET_POS.Y = TAUGHT_START.Y + OFFSET_POS.Y
TARGET_POS.Z = TAUGHT_START.Z + OFFSET_POS.Z
TARGET_POS.A = TAUGHT_START.A
TARGET_POS.B = TAUGHT_START.B
TARGET_POS.C = TAUGHT_START.C
LIN TARGET_POS C_DIS
CONTINUE
OFFSET_POS = {X 8.672, Y 3.204, Z 4.000, A 0, B 0, C 0}
TARGET_POS = TAUGHT_START
TARGET_POS.X = TAUGHT_START.X + OFFSET_POS.X
TARGET_POS.Y = TAUGHT_START.Y + OFFSET_POS.Y
TARGET_POS.Z = TAUGHT_START.Z + OFFSET_POS.Z
TARGET_POS.A = TAUGHT_START.A
TARGET_POS.B = TAUGHT_START.B
TARGET_POS.C = TAUGHT_START.C
LIN TARGET_POS C_DIS
CONTINUE
OFFSET_POS = {X 9.055, Y 3.955, Z 4.000, A 0, B 0, C 0}
TARGET_POS = TAUGHT_START
TARGET_POS.X = TAUGHT_START.X + OFFSET_POS.X
TARGET_POS.Y = TAUGHT_START.Y + OFFSET_POS.Y
TARGET_POS.Z = TAUGHT_START.Z + OFFSET_POS.Z
TARGET_POS.A = TAUGHT_START.A
TARGET_POS.B = TAUGHT_START.B
TARGET_POS.C = TAUGHT_START.C
LIN TARGET_POS C_DIS
CONTINUE
OFFSET_POS = {X 9.322, Y 4.381, Z 4.000, A 0, B 0, C 0}
TARGET_POS = TAUGHT_START
TARGET_POS.X = TAUGHT_START.X + OFFSET_POS.X
TARGET_POS.Y = TAUGHT_START.Y + OFFSET_POS.Y
TARGET_POS.Z = TAUGHT_START.Z + OFFSET_POS.Z
TARGET_POS.A = TAUGHT_START.A
TARGET_POS.B = TAUGHT_START.B
TARGET_POS.C = TAUGHT_START.C
LIN TARGET_POS C_DIS
CONTINUE
OFFSET_POS = {X 9.675, Y 4.797, Z 4.000, A 0, B 0, C 0}
TARGET_POS = TAUGHT_START
TARGET_POS.X = TAUGHT_START.X + OFFSET_POS.X
TARGET_POS.Y = TAUGHT_START.Y + OFFSET_POS.Y
TARGET_POS.Z = TAUGHT_START.Z + OFFSET_POS.Z
TARGET_POS.A = TAUGHT_START.A
TARGET_POS.B = TAUGHT_START.B
TARGET_POS.C = TAUGHT_START.C
LIN TARGET_POS C_DIS
CONTINUE
OFFSET_POS = {X 10.045, Y 5.109, Z 4.000, A 0, B 0, C 0}
TARGET_POS = TAUGHT_START
TARGET_POS.X = TAUGHT_START.X + OFFSET_POS.X
TARGET_POS.Y = TAUGHT_START.Y + OFFSET_POS.Y
TARGET_POS.Z = TAUGHT_START.Z + OFFSET_POS.Z
TARGET_POS.A = TAUGHT_START.A
TARGET_POS.B = TAUGHT_START.B
TARGET_POS.C = TAUGHT_START.C
LIN TARGET_POS C_DIS
CONTINUE
OFFSET_POS = {X 10.490, Y 5.344, Z 4.000, A 0, B 0, C 0}
TARGET_POS = TAUGHT_START
TARGET_POS.X = TAUGHT_START.X + OFFSET_POS.X
TARGET_POS.Y = TAUGHT_START.Y + OFFSET_POS.Y
TARGET_POS.Z = TAUGHT_START.Z + OFFSET_POS.Z
TARGET_POS.A = TAUGHT_START.A
TARGET_POS.B = TAUGHT_START.B
TARGET_POS.C = TAUGHT_START.C
LIN TARGET_POS C_DIS
CONTINUE
OFFSET_POS = {X 11.040, Y 5.476, Z 4.000, A 0, B 0, C 0}
TARGET_POS = TAUGHT_START
TARGET_POS.X = TAUGHT_START.X + OFFSET_POS.X
TARGET_POS.Y = TAUGHT_START.Y + OFFSET_POS.Y
TARGET_POS.Z = TAUGHT_START.Z + OFFSET_POS.Z
TARGET_POS.A = TAUGHT_START.A
TARGET_POS.B = TAUGHT_START.B
TARGET_POS.C = TAUGHT_START.C
LIN TARGET_POS C_DIS
CONTINUE
OFFSET_POS = {X 11.562, Y 5.467, Z 4.000, A 0, B 0, C 0}
TARGET_POS = TAUGHT_START
TARGET_POS.X = TAUGHT_START.X + OFFSET_POS.X
TARGET_POS.Y = TAUGHT_START.Y + OFFSET_POS.Y
TARGET_POS.Z = TAUGHT_START.Z + OFFSET_POS.Z
TARGET_POS.A = TAUGHT_START.A
TARGET_POS.B = TAUGHT_START.B
TARGET_POS.C = TAUGHT_START.C
LIN TARGET_POS C_DIS
CONTINUE
OFFSET_POS = {X 12.080, Y 5.339, Z 4.000, A 0, B 0, C 0}
TARGET_POS = TAUGHT_START
TARGET_POS.X = TAUGHT_START.X + OFFSET_POS.X
TARGET_POS.Y = TAUGHT_START.Y + OFFSET_POS.Y
TARGET_POS.Z = TAUGHT_START.Z + OFFSET_POS.Z
TARGET_POS.A = TAUGHT_START.A
TARGET_POS.B = TAUGHT_START.B
TARGET_POS.C = TAUGHT_START.C
LIN TARGET_POS C_DIS
CONTINUE
OFFSET_POS = {X 12.634, Y 5.060, Z 4.000, A 0, B 0, C 0}
TARGET_POS = TAUGHT_START
TARGET_POS.X = TAUGHT_START.X + OFFSET_POS.X
TARGET_POS.Y = TAUGHT_START.Y + OFFSET_POS.Y
TARGET_POS.Z = TAUGHT_START.Z + OFFSET_POS.Z
TARGET_POS.A = TAUGHT_START.A
TARGET_POS.B = TAUGHT_START.B
TARGET_POS.C = TAUGHT_START.C
LIN TARGET_POS C_DIS
CONTINUE
OFFSET_POS = {X 13.057, Y 4.752, Z 4.000, A 0, B 0, C 0}
TARGET_POS = TAUGHT_START
TARGET_POS.X = TAUGHT_START.X + OFFSET_POS.X
TARGET_POS.Y = TAUGHT_START.Y + OFFSET_POS.Y
TARGET_POS.Z = TAUGHT_START.Z + OFFSET_POS.Z
TARGET_POS.A = TAUGHT_START.A
TARGET_POS.B = TAUGHT_START.B
TARGET_POS.C = TAUGHT_START.C
LIN TARGET_POS C_DIS
CONTINUE
OFFSET_POS = {X 13.442, Y 4.381, Z 4.000, A 0, B 0, C 0}
TARGET_POS = TAUGHT_START
TARGET_POS.X = TAUGHT_START.X + OFFSET_POS.X
TARGET_POS.Y = TAUGHT_START.Y + OFFSET_POS.Y
TARGET_POS.Z = TAUGHT_START.Z + OFFSET_POS.Z
TARGET_POS.A = TAUGHT_START.A
TARGET_POS.B = TAUGHT_START.B
TARGET_POS.C = TAUGHT_START.C
LIN TARGET_POS C_DIS
CONTINUE
OFFSET_POS = {X 13.862, Y 3.886, Z 4.000, A 0, B 0, C 0}
TARGET_POS = TAUGHT_START
TARGET_POS.X = TAUGHT_START.X + OFFSET_POS.X
TARGET_POS.Y = TAUGHT_START.Y + OFFSET_POS.Y
TARGET_POS.Z = TAUGHT_START.Z + OFFSET_POS.Z
TARGET_POS.A = TAUGHT_START.A
TARGET_POS.B = TAUGHT_START.B
TARGET_POS.C = TAUGHT_START.C
LIN TARGET_POS C_DIS
CONTINUE
OFFSET_POS = {X 14.243, Y 3.339, Z 4.000, A 0, B 0, C 0}
TARGET_POS = TAUGHT_START
TARGET_POS.X = TAUGHT_START.X + OFFSET_POS.X
TARGET_POS.Y = TAUGHT_START.Y + OFFSET_POS.Y
TARGET_POS.Z = TAUGHT_START.Z + OFFSET_POS.Z
TARGET_POS.A = TAUGHT_START.A
TARGET_POS.B = TAUGHT_START.B
TARGET_POS.C = TAUGHT_START.C
LIN TARGET_POS C_DIS
CONTINUE
OFFSET_POS = {X 14.588, Y 2.743, Z 4.000, A 0, B 0, C 0}
TARGET_POS = TAUGHT_START
TARGET_POS.X = TAUGHT_START.X + OFFSET_POS.X
TARGET_POS.Y = TAUGHT_START.Y + OFFSET_POS.Y
TARGET_POS.Z = TAUGHT_START.Z + OFFSET_POS.Z
TARGET_POS.A = TAUGHT_START.A
TARGET_POS.B = TAUGHT_START.B
TARGET_POS.C = TAUGHT_START.C
LIN TARGET_POS C_DIS
CONTINUE
OFFSET_POS = {X 14.892, Y 2.105, Z 4.000, A 0, B 0, C 0}
TARGET_POS = TAUGHT_START
TARGET_POS.X = TAUGHT_START.X + OFFSET_POS.X
TARGET_POS.Y = TAUGHT_START.Y + OFFSET_POS.Y
TARGET_POS.Z = TAUGHT_START.Z + OFFSET_POS.Z
TARGET_POS.A = TAUGHT_START.A
TARGET_POS.B = TAUGHT_START.B
TARGET_POS.C = TAUGHT_START.C
LIN TARGET_POS C_DIS
CONTINUE
OFFSET_POS = {X 15.149, Y 1.433, Z 4.000, A 0, B 0, C 0}
TARGET_POS = TAUGHT_START
TARGET_POS.X = TAUGHT_START.X + OFFSET_POS.X
TARGET_POS.Y = TAUGHT_START.Y + OFFSET_POS.Y
TARGET_POS.Z = TAUGHT_START.Z + OFFSET_POS.Z
TARGET_POS.A = TAUGHT_START.A
TARGET_POS.B = TAUGHT_START.B
TARGET_POS.C = TAUGHT_START.C
LIN TARGET_POS C_DIS
CONTINUE
OFFSET_POS = {X 15.349, Y 0.733, Z 4.000, A 0, B 0, C 0}
TARGET_POS = TAUGHT_START
TARGET_POS.X = TAUGHT_START.X + OFFSET_POS.X
TARGET_POS.Y = TAUGHT_START.Y + OFFSET_POS.Y
TARGET_POS.Z = TAUGHT_START.Z + OFFSET_POS.Z
TARGET_POS.A = TAUGHT_START.A
TARGET_POS.B = TAUGHT_START.B
TARGET_POS.C = TAUGHT_START.C
LIN TARGET_POS C_DIS
CONTINUE
OFFSET_POS = {X 15.482, Y 0.015, Z 4.000, A 0, B 0, C 0}
TARGET_POS = TAUGHT_START
TARGET_POS.X = TAUGHT_START.X + OFFSET_POS.X
TARGET_POS.Y = TAUGHT_START.Y + OFFSET_POS.Y
TARGET_POS.Z = TAUGHT_START.Z + OFFSET_POS.Z
TARGET_POS.A = TAUGHT_START.A
TARGET_POS.B = TAUGHT_START.B
TARGET_POS.C = TAUGHT_START.C
LIN TARGET_POS C_DIS
CONTINUE
OFFSET_POS = {X 15.538, Y -0.716, Z 4.000, A 0, B 0, C 0}
TARGET_POS = TAUGHT_START
TARGET_POS.X = TAUGHT_START.X + OFFSET_POS.X
TARGET_POS.Y = TAUGHT_START.Y + OFFSET_POS.Y
TARGET_POS.Z = TAUGHT_START.Z + OFFSET_POS.Z
TARGET_POS.A = TAUGHT_START.A
TARGET_POS.B = TAUGHT_START.B
TARGET_POS.C = TAUGHT_START.C
LIN TARGET_POS C_DIS
CONTINUE
OFFSET_POS = {X 15.504, Y -1.452, Z 4.000, A 0, B 0, C 0}
TARGET_POS = TAUGHT_START
TARGET_POS.X = TAUGHT_START.X + OFFSET_POS.X
TARGET_POS.Y = TAUGHT_START.Y + OFFSET_POS.Y
TARGET_POS.Z = TAUGHT_START.Z + OFFSET_POS.Z
TARGET_POS.A = TAUGHT_START.A
TARGET_POS.B = TAUGHT_START.B
TARGET_POS.C = TAUGHT_START.C
LIN TARGET_POS C_DIS
CONTINUE
OFFSET_POS = {X 15.365, Y -2.182, Z 4.000, A 0, B 0, C 0}
TARGET_POS = TAUGHT_START
TARGET_POS.X = TAUGHT_START.X + OFFSET_POS.X
TARGET_POS.Y = TAUGHT_START.Y + OFFSET_POS.Y
TARGET_POS.Z = TAUGHT_START.Z + OFFSET_POS.Z
TARGET_POS.A = TAUGHT_START.A
TARGET_POS.B = TAUGHT_START.B
TARGET_POS.C = TAUGHT_START.C
LIN TARGET_POS C_DIS
CONTINUE
OFFSET_POS = {X 15.110, Y -2.892, Z 4.000, A 0, B 0, C 0}
TARGET_POS = TAUGHT_START
TARGET_POS.X = TAUGHT_START.X + OFFSET_POS.X
TARGET_POS.Y = TAUGHT_START.Y + OFFSET_POS.Y
TARGET_POS.Z = TAUGHT_START.Z + OFFSET_POS.Z
TARGET_POS.A = TAUGHT_START.A
TARGET_POS.B = TAUGHT_START.B
TARGET_POS.C = TAUGHT_START.C
LIN TARGET_POS C_DIS
CONTINUE
OFFSET_POS = {X 14.733, Y -3.561, Z 4.000, A 0, B 0, C 0}
TARGET_POS = TAUGHT_START
TARGET_POS.X = TAUGHT_START.X + OFFSET_POS.X
TARGET_POS.Y = TAUGHT_START.Y + OFFSET_POS.Y
TARGET_POS.Z = TAUGHT_START.Z + OFFSET_POS.Z
TARGET_POS.A = TAUGHT_START.A
TARGET_POS.B = TAUGHT_START.B
TARGET_POS.C = TAUGHT_START.C
LIN TARGET_POS C_DIS
CONTINUE
OFFSET_POS = {X 14.415, Y -3.959, Z 4.000, A 0, B 0, C 0}
TARGET_POS = TAUGHT_START
TARGET_POS.X = TAUGHT_START.X + OFFSET_POS.X
TARGET_POS.Y = TAUGHT_START.Y + OFFSET_POS.Y
TARGET_POS.Z = TAUGHT_START.Z + OFFSET_POS.Z
TARGET_POS.A = TAUGHT_START.A
TARGET_POS.B = TAUGHT_START.B
TARGET_POS.C = TAUGHT_START.C
LIN TARGET_POS C_DIS
CONTINUE
OFFSET_POS = {X 14.055, Y -4.318, Z 4.000, A 0, B 0, C 0}
TARGET_POS = TAUGHT_START
TARGET_POS.X = TAUGHT_START.X + OFFSET_POS.X
TARGET_POS.Y = TAUGHT_START.Y + OFFSET_POS.Y
TARGET_POS.Z = TAUGHT_START.Z + OFFSET_POS.Z
TARGET_POS.A = TAUGHT_START.A
TARGET_POS.B = TAUGHT_START.B
TARGET_POS.C = TAUGHT_START.C
LIN TARGET_POS C_DIS
CONTINUE
OFFSET_POS = {X 13.613, Y -4.659, Z 4.000, A 0, B 0, C 0}
TARGET_POS = TAUGHT_START
TARGET_POS.X = TAUGHT_START.X + OFFSET_POS.X
TARGET_POS.Y = TAUGHT_START.Y + OFFSET_POS.Y
TARGET_POS.Z = TAUGHT_START.Z + OFFSET_POS.Z
TARGET_POS.A = TAUGHT_START.A
TARGET_POS.B = TAUGHT_START.B
TARGET_POS.C = TAUGHT_START.C
LIN TARGET_POS C_DIS
CONTINUE
OFFSET_POS = {X 12.911, Y -5.046, Z 4.000, A 0, B 0, C 0}
TARGET_POS = TAUGHT_START
TARGET_POS.X = TAUGHT_START.X + OFFSET_POS.X
TARGET_POS.Y = TAUGHT_START.Y + OFFSET_POS.Y
TARGET_POS.Z = TAUGHT_START.Z + OFFSET_POS.Z
TARGET_POS.A = TAUGHT_START.A
TARGET_POS.B = TAUGHT_START.B
TARGET_POS.C = TAUGHT_START.C
LIN TARGET_POS C_DIS
CONTINUE
OFFSET_POS = {X 12.150, Y -5.324, Z 4.000, A 0, B 0, C 0}
TARGET_POS = TAUGHT_START
TARGET_POS.X = TAUGHT_START.X + OFFSET_POS.X
TARGET_POS.Y = TAUGHT_START.Y + OFFSET_POS.Y
TARGET_POS.Z = TAUGHT_START.Z + OFFSET_POS.Z
TARGET_POS.A = TAUGHT_START.A
TARGET_POS.B = TAUGHT_START.B
TARGET_POS.C = TAUGHT_START.C
LIN TARGET_POS C_DIS
CONTINUE
OFFSET_POS = {X 11.345, Y -5.496, Z 4.000, A 0, B 0, C 0}
TARGET_POS = TAUGHT_START
TARGET_POS.X = TAUGHT_START.X + OFFSET_POS.X
TARGET_POS.Y = TAUGHT_START.Y + OFFSET_POS.Y
TARGET_POS.Z = TAUGHT_START.Z + OFFSET_POS.Z
TARGET_POS.A = TAUGHT_START.A
TARGET_POS.B = TAUGHT_START.B
TARGET_POS.C = TAUGHT_START.C
LIN TARGET_POS C_DIS
CONTINUE
OFFSET_POS = {X 10.509, Y -5.573, Z 4.000, A 0, B 0, C 0}
TARGET_POS = TAUGHT_START
TARGET_POS.X = TAUGHT_START.X + OFFSET_POS.X
TARGET_POS.Y = TAUGHT_START.Y + OFFSET_POS.Y
TARGET_POS.Z = TAUGHT_START.Z + OFFSET_POS.Z
TARGET_POS.A = TAUGHT_START.A
TARGET_POS.B = TAUGHT_START.B
TARGET_POS.C = TAUGHT_START.C
LIN TARGET_POS C_DIS
CONTINUE
OFFSET_POS = {X 9.651, Y -5.565, Z 4.000, A 0, B 0, C 0}
TARGET_POS = TAUGHT_START
TARGET_POS.X = TAUGHT_START.X + OFFSET_POS.X
TARGET_POS.Y = TAUGHT_START.Y + OFFSET_POS.Y
TARGET_POS.Z = TAUGHT_START.Z + OFFSET_POS.Z
TARGET_POS.A = TAUGHT_START.A
TARGET_POS.B = TAUGHT_START.B
TARGET_POS.C = TAUGHT_START.C
LIN TARGET_POS C_DIS
CONTINUE
OFFSET_POS = {X 8.777, Y -5.482, Z 4.000, A 0, B 0, C 0}
TARGET_POS = TAUGHT_START
TARGET_POS.X = TAUGHT_START.X + OFFSET_POS.X
TARGET_POS.Y = TAUGHT_START.Y + OFFSET_POS.Y
TARGET_POS.Z = TAUGHT_START.Z + OFFSET_POS.Z
TARGET_POS.A = TAUGHT_START.A
TARGET_POS.B = TAUGHT_START.B
TARGET_POS.C = TAUGHT_START.C
LIN TARGET_POS C_DIS
CONTINUE
OFFSET_POS = {X 7.896, Y -5.334, Z 4.000, A 0, B 0, C 0}
TARGET_POS = TAUGHT_START
TARGET_POS.X = TAUGHT_START.X + OFFSET_POS.X
TARGET_POS.Y = TAUGHT_START.Y + OFFSET_POS.Y
TARGET_POS.Z = TAUGHT_START.Z + OFFSET_POS.Z
TARGET_POS.A = TAUGHT_START.A
TARGET_POS.B = TAUGHT_START.B
TARGET_POS.C = TAUGHT_START.C
LIN TARGET_POS C_DIS
CONTINUE
OFFSET_POS = {X 7.016, Y -5.130, Z 4.000, A 0, B 0, C 0}
TARGET_POS = TAUGHT_START
TARGET_POS.X = TAUGHT_START.X + OFFSET_POS.X
TARGET_POS.Y = TAUGHT_START.Y + OFFSET_POS.Y
TARGET_POS.Z = TAUGHT_START.Z + OFFSET_POS.Z
TARGET_POS.A = TAUGHT_START.A
TARGET_POS.B = TAUGHT_START.B
TARGET_POS.C = TAUGHT_START.C
LIN TARGET_POS C_DIS
CONTINUE
OFFSET_POS = {X 6.147, Y -4.878, Z 4.000, A 0, B 0, C 0}
TARGET_POS = TAUGHT_START
TARGET_POS.X = TAUGHT_START.X + OFFSET_POS.X
TARGET_POS.Y = TAUGHT_START.Y + OFFSET_POS.Y
TARGET_POS.Z = TAUGHT_START.Z + OFFSET_POS.Z
TARGET_POS.A = TAUGHT_START.A
TARGET_POS.B = TAUGHT_START.B
TARGET_POS.C = TAUGHT_START.C
LIN TARGET_POS C_DIS
CONTINUE
OFFSET_POS = {X 5.300, Y -4.589, Z 4.000, A 0, B 0, C 0}
TARGET_POS = TAUGHT_START
TARGET_POS.X = TAUGHT_START.X + OFFSET_POS.X
TARGET_POS.Y = TAUGHT_START.Y + OFFSET_POS.Y
TARGET_POS.Z = TAUGHT_START.Z + OFFSET_POS.Z
TARGET_POS.A = TAUGHT_START.A
TARGET_POS.B = TAUGHT_START.B
TARGET_POS.C = TAUGHT_START.C
LIN TARGET_POS C_DIS
CONTINUE
OFFSET_POS = {X 4.485, Y -4.271, Z 4.000, A 0, B 0, C 0}
TARGET_POS = TAUGHT_START
TARGET_POS.X = TAUGHT_START.X + OFFSET_POS.X
TARGET_POS.Y = TAUGHT_START.Y + OFFSET_POS.Y
TARGET_POS.Z = TAUGHT_START.Z + OFFSET_POS.Z
TARGET_POS.A = TAUGHT_START.A
TARGET_POS.B = TAUGHT_START.B
TARGET_POS.C = TAUGHT_START.C
LIN TARGET_POS C_DIS
CONTINUE
OFFSET_POS = {X 3.713, Y -3.935, Z 4.000, A 0, B 0, C 0}
TARGET_POS = TAUGHT_START
TARGET_POS.X = TAUGHT_START.X + OFFSET_POS.X
TARGET_POS.Y = TAUGHT_START.Y + OFFSET_POS.Y
TARGET_POS.Z = TAUGHT_START.Z + OFFSET_POS.Z
TARGET_POS.A = TAUGHT_START.A
TARGET_POS.B = TAUGHT_START.B
TARGET_POS.C = TAUGHT_START.C
LIN TARGET_POS C_DIS
CONTINUE
OFFSET_POS = {X 2.996, Y -3.589, Z 4.000, A 0, B 0, C 0}
TARGET_POS = TAUGHT_START
TARGET_POS.X = TAUGHT_START.X + OFFSET_POS.X
TARGET_POS.Y = TAUGHT_START.Y + OFFSET_POS.Y
TARGET_POS.Z = TAUGHT_START.Z + OFFSET_POS.Z
TARGET_POS.A = TAUGHT_START.A
TARGET_POS.B = TAUGHT_START.B
TARGET_POS.C = TAUGHT_START.C
LIN TARGET_POS C_DIS
CONTINUE
OFFSET_POS = {X 2.344, Y -3.242, Z 4.000, A 0, B 0, C 0}
TARGET_POS = TAUGHT_START
TARGET_POS.X = TAUGHT_START.X + OFFSET_POS.X
TARGET_POS.Y = TAUGHT_START.Y + OFFSET_POS.Y
TARGET_POS.Z = TAUGHT_START.Z + OFFSET_POS.Z
TARGET_POS.A = TAUGHT_START.A
TARGET_POS.B = TAUGHT_START.B
TARGET_POS.C = TAUGHT_START.C
LIN TARGET_POS C_DIS
CONTINUE
OFFSET_POS = {X 1.764, Y -2.900, Z 4.000, A 0, B 0, C 0}
TARGET_POS = TAUGHT_START
TARGET_POS.X = TAUGHT_START.X + OFFSET_POS.X
TARGET_POS.Y = TAUGHT_START.Y + OFFSET_POS.Y
TARGET_POS.Z = TAUGHT_START.Z + OFFSET_POS.Z
TARGET_POS.A = TAUGHT_START.A
TARGET_POS.B = TAUGHT_START.B
TARGET_POS.C = TAUGHT_START.C
LIN TARGET_POS C_DIS
CONTINUE
OFFSET_POS = {X 1.262, Y -2.569, Z 4.000, A 0, B 0, C 0}
TARGET_POS = TAUGHT_START
TARGET_POS.X = TAUGHT_START.X + OFFSET_POS.X
TARGET_POS.Y = TAUGHT_START.Y + OFFSET_POS.Y
TARGET_POS.Z = TAUGHT_START.Z + OFFSET_POS.Z
TARGET_POS.A = TAUGHT_START.A
TARGET_POS.B = TAUGHT_START.B
TARGET_POS.C = TAUGHT_START.C
LIN TARGET_POS C_DIS
CONTINUE
OFFSET_POS = {X 0.801, Y -2.209, Z 4.000, A 0, B 0, C 0}
TARGET_POS = TAUGHT_START
TARGET_POS.X = TAUGHT_START.X + OFFSET_POS.X
TARGET_POS.Y = TAUGHT_START.Y + OFFSET_POS.Y
TARGET_POS.Z = TAUGHT_START.Z + OFFSET_POS.Z
TARGET_POS.A = TAUGHT_START.A
TARGET_POS.B = TAUGHT_START.B
TARGET_POS.C = TAUGHT_START.C
LIN TARGET_POS C_DIS
CONTINUE
OFFSET_POS = {X 0.388, Y -1.807, Z 4.000, A 0, B 0, C 0}
TARGET_POS = TAUGHT_START
TARGET_POS.X = TAUGHT_START.X + OFFSET_POS.X
TARGET_POS.Y = TAUGHT_START.Y + OFFSET_POS.Y
TARGET_POS.Z = TAUGHT_START.Z + OFFSET_POS.Z
TARGET_POS.A = TAUGHT_START.A
TARGET_POS.B = TAUGHT_START.B
TARGET_POS.C = TAUGHT_START.C
LIN TARGET_POS C_DIS
CONTINUE
OFFSET_POS = {X 0.142, Y -1.462, Z 4.000, A 0, B 0, C 0}
TARGET_POS = TAUGHT_START
TARGET_POS.X = TAUGHT_START.X + OFFSET_POS.X
TARGET_POS.Y = TAUGHT_START.Y + OFFSET_POS.Y
TARGET_POS.Z = TAUGHT_START.Z + OFFSET_POS.Z
TARGET_POS.A = TAUGHT_START.A
TARGET_POS.B = TAUGHT_START.B
TARGET_POS.C = TAUGHT_START.C
LIN TARGET_POS C_DIS
CONTINUE
OFFSET_POS = {X -0.065, Y -0.950, Z 4.000, A 0, B 0, C 0}
TARGET_POS = TAUGHT_START
TARGET_POS.X = TAUGHT_START.X + OFFSET_POS.X
TARGET_POS.Y = TAUGHT_START.Y + OFFSET_POS.Y
TARGET_POS.Z = TAUGHT_START.Z + OFFSET_POS.Z
TARGET_POS.A = TAUGHT_START.A
TARGET_POS.B = TAUGHT_START.B
TARGET_POS.C = TAUGHT_START.C
LIN TARGET_POS C_DIS
CONTINUE
OFFSET_POS = {X -0.119, Y -0.548, Z 4.000, A 0, B 0, C 0}
TARGET_POS = TAUGHT_START
TARGET_POS.X = TAUGHT_START.X + OFFSET_POS.X
TARGET_POS.Y = TAUGHT_START.Y + OFFSET_POS.Y
TARGET_POS.Z = TAUGHT_START.Z + OFFSET_POS.Z
TARGET_POS.A = TAUGHT_START.A
TARGET_POS.B = TAUGHT_START.B
TARGET_POS.C = TAUGHT_START.C
LIN TARGET_POS C_DIS
CONTINUE
OFFSET_POS = {X -0.076, Y -0.185, Z 4.000, A 0, B 0, C 0}
TARGET_POS = TAUGHT_START
TARGET_POS.X = TAUGHT_START.X + OFFSET_POS.X
TARGET_POS.Y = TAUGHT_START.Y + OFFSET_POS.Y
TARGET_POS.Z = TAUGHT_START.Z + OFFSET_POS.Z
TARGET_POS.A = TAUGHT_START.A
TARGET_POS.B = TAUGHT_START.B
TARGET_POS.C = TAUGHT_START.C
LIN TARGET_POS C_DIS
CONTINUE
OFFSET_POS = {X 0.000, Y 0.000, Z 4.000, A 0, B 0, C 0}
TARGET_POS = TAUGHT_START
TARGET_POS.X = TAUGHT_START.X + OFFSET_POS.X
TARGET_POS.Y = TAUGHT_START.Y + OFFSET_POS.Y
TARGET_POS.Z = TAUGHT_START.Z + OFFSET_POS.Z
TARGET_POS.A = TAUGHT_START.A
TARGET_POS.B = TAUGHT_START.B
TARGET_POS.C = TAUGHT_START.C
LIN TARGET_POS C_DIS
$OUT[1] = FALSE
WAIT SEC 0.200
WAIT SEC 55.00
; ;LAYER_CHANGE
; ;Z:6
OFFSET_POS = {X 0.000, Y 0.000, Z 6.000, A 0, B 0, C 0}
TARGET_POS = TAUGHT_START
TARGET_POS.X = TAUGHT_START.X + OFFSET_POS.X
TARGET_POS.Y = TAUGHT_START.Y + OFFSET_POS.Y
TARGET_POS.Z = TAUGHT_START.Z + OFFSET_POS.Z
TARGET_POS.A = TAUGHT_START.A
TARGET_POS.B = TAUGHT_START.B
TARGET_POS.C = TAUGHT_START.C
LIN TARGET_POS C_DIS
$OUT[1] = TRUE
WAIT SEC 0.200
OFFSET_POS = {X -0.076, Y -0.185, Z 6.000, A 0, B 0, C 0}
TARGET_POS = TAUGHT_START
TARGET_POS.X = TAUGHT_START.X + OFFSET_POS.X
TARGET_POS.Y = TAUGHT_START.Y + OFFSET_POS.Y
TARGET_POS.Z = TAUGHT_START.Z + OFFSET_POS.Z
TARGET_POS.A = TAUGHT_START.A
TARGET_POS.B = TAUGHT_START.B
TARGET_POS.C = TAUGHT_START.C
LIN TARGET_POS C_DIS
CONTINUE
OFFSET_POS = {X -0.119, Y -0.548, Z 6.000, A 0, B 0, C 0}
TARGET_POS = TAUGHT_START
TARGET_POS.X = TAUGHT_START.X + OFFSET_POS.X
TARGET_POS.Y = TAUGHT_START.Y + OFFSET_POS.Y
TARGET_POS.Z = TAUGHT_START.Z + OFFSET_POS.Z
TARGET_POS.A = TAUGHT_START.A
TARGET_POS.B = TAUGHT_START.B
TARGET_POS.C = TAUGHT_START.C
LIN TARGET_POS C_DIS
CONTINUE
OFFSET_POS = {X -0.065, Y -0.950, Z 6.000, A 0, B 0, C 0}
TARGET_POS = TAUGHT_START
TARGET_POS.X = TAUGHT_START.X + OFFSET_POS.X
TARGET_POS.Y = TAUGHT_START.Y + OFFSET_POS.Y
TARGET_POS.Z = TAUGHT_START.Z + OFFSET_POS.Z
TARGET_POS.A = TAUGHT_START.A
TARGET_POS.B = TAUGHT_START.B
TARGET_POS.C = TAUGHT_START.C
LIN TARGET_POS C_DIS
CONTINUE
OFFSET_POS = {X 0.142, Y -1.462, Z 6.000, A 0, B 0, C 0}
TARGET_POS = TAUGHT_START
TARGET_POS.X = TAUGHT_START.X + OFFSET_POS.X
TARGET_POS.Y = TAUGHT_START.Y + OFFSET_POS.Y
TARGET_POS.Z = TAUGHT_START.Z + OFFSET_POS.Z
TARGET_POS.A = TAUGHT_START.A
TARGET_POS.B = TAUGHT_START.B
TARGET_POS.C = TAUGHT_START.C
LIN TARGET_POS C_DIS
CONTINUE
OFFSET_POS = {X 0.388, Y -1.807, Z 6.000, A 0, B 0, C 0}
TARGET_POS = TAUGHT_START
TARGET_POS.X = TAUGHT_START.X + OFFSET_POS.X
TARGET_POS.Y = TAUGHT_START.Y + OFFSET_POS.Y
TARGET_POS.Z = TAUGHT_START.Z + OFFSET_POS.Z
TARGET_POS.A = TAUGHT_START.A
TARGET_POS.B = TAUGHT_START.B
TARGET_POS.C = TAUGHT_START.C
LIN TARGET_POS C_DIS
CONTINUE
OFFSET_POS = {X 0.801, Y -2.209, Z 6.000, A 0, B 0, C 0}
TARGET_POS = TAUGHT_START
TARGET_POS.X = TAUGHT_START.X + OFFSET_POS.X
TARGET_POS.Y = TAUGHT_START.Y + OFFSET_POS.Y
TARGET_POS.Z = TAUGHT_START.Z + OFFSET_POS.Z
TARGET_POS.A = TAUGHT_START.A
TARGET_POS.B = TAUGHT_START.B
TARGET_POS.C = TAUGHT_START.C
LIN TARGET_POS C_DIS
CONTINUE
OFFSET_POS = {X 1.262, Y -2.569, Z 6.000, A 0, B 0, C 0}
TARGET_POS = TAUGHT_START
TARGET_POS.X = TAUGHT_START.X + OFFSET_POS.X
TARGET_POS.Y = TAUGHT_START.Y + OFFSET_POS.Y
TARGET_POS.Z = TAUGHT_START.Z + OFFSET_POS.Z
TARGET_POS.A = TAUGHT_START.A
TARGET_POS.B = TAUGHT_START.B
TARGET_POS.C = TAUGHT_START.C
LIN TARGET_POS C_DIS
CONTINUE
OFFSET_POS = {X 1.764, Y -2.900, Z 6.000, A 0, B 0, C 0}
TARGET_POS = TAUGHT_START
TARGET_POS.X = TAUGHT_START.X + OFFSET_POS.X
TARGET_POS.Y = TAUGHT_START.Y + OFFSET_POS.Y
TARGET_POS.Z = TAUGHT_START.Z + OFFSET_POS.Z
TARGET_POS.A = TAUGHT_START.A
TARGET_POS.B = TAUGHT_START.B
TARGET_POS.C = TAUGHT_START.C
LIN TARGET_POS C_DIS
CONTINUE
OFFSET_POS = {X 2.344, Y -3.242, Z 6.000, A 0, B 0, C 0}
TARGET_POS = TAUGHT_START
TARGET_POS.X = TAUGHT_START.X + OFFSET_POS.X
TARGET_POS.Y = TAUGHT_START.Y + OFFSET_POS.Y
TARGET_POS.Z = TAUGHT_START.Z + OFFSET_POS.Z
TARGET_POS.A = TAUGHT_START.A
TARGET_POS.B = TAUGHT_START.B
TARGET_POS.C = TAUGHT_START.C
LIN TARGET_POS C_DIS
CONTINUE
OFFSET_POS = {X 2.996, Y -3.589, Z 6.000, A 0, B 0, C 0}
TARGET_POS = TAUGHT_START
TARGET_POS.X = TAUGHT_START.X + OFFSET_POS.X
TARGET_POS.Y = TAUGHT_START.Y + OFFSET_POS.Y
TARGET_POS.Z = TAUGHT_START.Z + OFFSET_POS.Z
TARGET_POS.A = TAUGHT_START.A
TARGET_POS.B = TAUGHT_START.B
TARGET_POS.C = TAUGHT_START.C
LIN TARGET_POS C_DIS
CONTINUE
OFFSET_POS = {X 3.713, Y -3.935, Z 6.000, A 0, B 0, C 0}
TARGET_POS = TAUGHT_START
TARGET_POS.X = TAUGHT_START.X + OFFSET_POS.X
TARGET_POS.Y = TAUGHT_START.Y + OFFSET_POS.Y
TARGET_POS.Z = TAUGHT_START.Z + OFFSET_POS.Z
TARGET_POS.A = TAUGHT_START.A
TARGET_POS.B = TAUGHT_START.B
TARGET_POS.C = TAUGHT_START.C
LIN TARGET_POS C_DIS
CONTINUE
OFFSET_POS = {X 4.485, Y -4.271, Z 6.000, A 0, B 0, C 0}
TARGET_POS = TAUGHT_START
TARGET_POS.X = TAUGHT_START.X + OFFSET_POS.X
TARGET_POS.Y = TAUGHT_START.Y + OFFSET_POS.Y
TARGET_POS.Z = TAUGHT_START.Z + OFFSET_POS.Z
TARGET_POS.A = TAUGHT_START.A
TARGET_POS.B = TAUGHT_START.B
TARGET_POS.C = TAUGHT_START.C
LIN TARGET_POS C_DIS
CONTINUE
OFFSET_POS = {X 5.300, Y -4.589, Z 6.000, A 0, B 0, C 0}
TARGET_POS = TAUGHT_START
TARGET_POS.X = TAUGHT_START.X + OFFSET_POS.X
TARGET_POS.Y = TAUGHT_START.Y + OFFSET_POS.Y
TARGET_POS.Z = TAUGHT_START.Z + OFFSET_POS.Z
TARGET_POS.A = TAUGHT_START.A
TARGET_POS.B = TAUGHT_START.B
TARGET_POS.C = TAUGHT_START.C
LIN TARGET_POS C_DIS
CONTINUE
OFFSET_POS = {X 6.147, Y -4.878, Z 6.000, A 0, B 0, C 0}
TARGET_POS = TAUGHT_START
TARGET_POS.X = TAUGHT_START.X + OFFSET_POS.X
TARGET_POS.Y = TAUGHT_START.Y + OFFSET_POS.Y
TARGET_POS.Z = TAUGHT_START.Z + OFFSET_POS.Z
TARGET_POS.A = TAUGHT_START.A
TARGET_POS.B = TAUGHT_START.B
TARGET_POS.C = TAUGHT_START.C
LIN TARGET_POS C_DIS
CONTINUE
OFFSET_POS = {X 7.016, Y -5.130, Z 6.000, A 0, B 0, C 0}
TARGET_POS = TAUGHT_START
TARGET_POS.X = TAUGHT_START.X + OFFSET_POS.X
TARGET_POS.Y = TAUGHT_START.Y + OFFSET_POS.Y
TARGET_POS.Z = TAUGHT_START.Z + OFFSET_POS.Z
TARGET_POS.A = TAUGHT_START.A
TARGET_POS.B = TAUGHT_START.B
TARGET_POS.C = TAUGHT_START.C
LIN TARGET_POS C_DIS
CONTINUE
OFFSET_POS = {X 7.896, Y -5.334, Z 6.000, A 0, B 0, C 0}
TARGET_POS = TAUGHT_START
TARGET_POS.X = TAUGHT_START.X + OFFSET_POS.X
TARGET_POS.Y = TAUGHT_START.Y + OFFSET_POS.Y
TARGET_POS.Z = TAUGHT_START.Z + OFFSET_POS.Z
TARGET_POS.A = TAUGHT_START.A
TARGET_POS.B = TAUGHT_START.B
TARGET_POS.C = TAUGHT_START.C
LIN TARGET_POS C_DIS
CONTINUE
OFFSET_POS = {X 8.777, Y -5.482, Z 6.000, A 0, B 0, C 0}
TARGET_POS = TAUGHT_START
TARGET_POS.X = TAUGHT_START.X + OFFSET_POS.X
TARGET_POS.Y = TAUGHT_START.Y + OFFSET_POS.Y
TARGET_POS.Z = TAUGHT_START.Z + OFFSET_POS.Z
TARGET_POS.A = TAUGHT_START.A
TARGET_POS.B = TAUGHT_START.B
TARGET_POS.C = TAUGHT_START.C
LIN TARGET_POS C_DIS
CONTINUE
OFFSET_POS = {X 9.651, Y -5.565, Z 6.000, A 0, B 0, C 0}
TARGET_POS = TAUGHT_START
TARGET_POS.X = TAUGHT_START.X + OFFSET_POS.X
TARGET_POS.Y = TAUGHT_START.Y + OFFSET_POS.Y
TARGET_POS.Z = TAUGHT_START.Z + OFFSET_POS.Z
TARGET_POS.A = TAUGHT_START.A
TARGET_POS.B = TAUGHT_START.B
TARGET_POS.C = TAUGHT_START.C
LIN TARGET_POS C_DIS
CONTINUE
OFFSET_POS = {X 10.509, Y -5.573, Z 6.000, A 0, B 0, C 0}
TARGET_POS = TAUGHT_START
TARGET_POS.X = TAUGHT_START.X + OFFSET_POS.X
TARGET_POS.Y = TAUGHT_START.Y + OFFSET_POS.Y
TARGET_POS.Z = TAUGHT_START.Z + OFFSET_POS.Z
TARGET_POS.A = TAUGHT_START.A
TARGET_POS.B = TAUGHT_START.B
TARGET_POS.C = TAUGHT_START.C
LIN TARGET_POS C_DIS
CONTINUE
OFFSET_POS = {X 11.345, Y -5.496, Z 6.000, A 0, B 0, C 0}
TARGET_POS = TAUGHT_START
TARGET_POS.X = TAUGHT_START.X + OFFSET_POS.X
TARGET_POS.Y = TAUGHT_START.Y + OFFSET_POS.Y
TARGET_POS.Z = TAUGHT_START.Z + OFFSET_POS.Z
TARGET_POS.A = TAUGHT_START.A
TARGET_POS.B = TAUGHT_START.B
TARGET_POS.C = TAUGHT_START.C
LIN TARGET_POS C_DIS
CONTINUE
OFFSET_POS = {X 12.150, Y -5.324, Z 6.000, A 0, B 0, C 0}
TARGET_POS = TAUGHT_START
TARGET_POS.X = TAUGHT_START.X + OFFSET_POS.X
TARGET_POS.Y = TAUGHT_START.Y + OFFSET_POS.Y
TARGET_POS.Z = TAUGHT_START.Z + OFFSET_POS.Z
TARGET_POS.A = TAUGHT_START.A
TARGET_POS.B = TAUGHT_START.B
TARGET_POS.C = TAUGHT_START.C
LIN TARGET_POS C_DIS
CONTINUE
OFFSET_POS = {X 12.911, Y -5.046, Z 6.000, A 0, B 0, C 0}
TARGET_POS = TAUGHT_START
TARGET_POS.X = TAUGHT_START.X + OFFSET_POS.X
TARGET_POS.Y = TAUGHT_START.Y + OFFSET_POS.Y
TARGET_POS.Z = TAUGHT_START.Z + OFFSET_POS.Z
TARGET_POS.A = TAUGHT_START.A
TARGET_POS.B = TAUGHT_START.B
TARGET_POS.C = TAUGHT_START.C
LIN TARGET_POS C_DIS
CONTINUE
OFFSET_POS = {X 13.613, Y -4.659, Z 6.000, A 0, B 0, C 0}
TARGET_POS = TAUGHT_START
TARGET_POS.X = TAUGHT_START.X + OFFSET_POS.X
TARGET_POS.Y = TAUGHT_START.Y + OFFSET_POS.Y
TARGET_POS.Z = TAUGHT_START.Z + OFFSET_POS.Z
TARGET_POS.A = TAUGHT_START.A
TARGET_POS.B = TAUGHT_START.B
TARGET_POS.C = TAUGHT_START.C
LIN TARGET_POS C_DIS
CONTINUE
OFFSET_POS = {X 14.055, Y -4.318, Z 6.000, A 0, B 0, C 0}
TARGET_POS = TAUGHT_START
TARGET_POS.X = TAUGHT_START.X + OFFSET_POS.X
TARGET_POS.Y = TAUGHT_START.Y + OFFSET_POS.Y
TARGET_POS.Z = TAUGHT_START.Z + OFFSET_POS.Z
TARGET_POS.A = TAUGHT_START.A
TARGET_POS.B = TAUGHT_START.B
TARGET_POS.C = TAUGHT_START.C
LIN TARGET_POS C_DIS
CONTINUE
OFFSET_POS = {X 14.415, Y -3.959, Z 6.000, A 0, B 0, C 0}
TARGET_POS = TAUGHT_START
TARGET_POS.X = TAUGHT_START.X + OFFSET_POS.X
TARGET_POS.Y = TAUGHT_START.Y + OFFSET_POS.Y
TARGET_POS.Z = TAUGHT_START.Z + OFFSET_POS.Z
TARGET_POS.A = TAUGHT_START.A
TARGET_POS.B = TAUGHT_START.B
TARGET_POS.C = TAUGHT_START.C
LIN TARGET_POS C_DIS
CONTINUE
OFFSET_POS = {X 14.733, Y -3.561, Z 6.000, A 0, B 0, C 0}
TARGET_POS = TAUGHT_START
TARGET_POS.X = TAUGHT_START.X + OFFSET_POS.X
TARGET_POS.Y = TAUGHT_START.Y + OFFSET_POS.Y
TARGET_POS.Z = TAUGHT_START.Z + OFFSET_POS.Z
TARGET_POS.A = TAUGHT_START.A
TARGET_POS.B = TAUGHT_START.B
TARGET_POS.C = TAUGHT_START.C
LIN TARGET_POS C_DIS
CONTINUE
OFFSET_POS = {X 15.110, Y -2.892, Z 6.000, A 0, B 0, C 0}
TARGET_POS = TAUGHT_START
TARGET_POS.X = TAUGHT_START.X + OFFSET_POS.X
TARGET_POS.Y = TAUGHT_START.Y + OFFSET_POS.Y
TARGET_POS.Z = TAUGHT_START.Z + OFFSET_POS.Z
TARGET_POS.A = TAUGHT_START.A
TARGET_POS.B = TAUGHT_START.B
TARGET_POS.C = TAUGHT_START.C
LIN TARGET_POS C_DIS
CONTINUE
OFFSET_POS = {X 15.365, Y -2.182, Z 6.000, A 0, B 0, C 0}
TARGET_POS = TAUGHT_START
TARGET_POS.X = TAUGHT_START.X + OFFSET_POS.X
TARGET_POS.Y = TAUGHT_START.Y + OFFSET_POS.Y
TARGET_POS.Z = TAUGHT_START.Z + OFFSET_POS.Z
TARGET_POS.A = TAUGHT_START.A
TARGET_POS.B = TAUGHT_START.B
TARGET_POS.C = TAUGHT_START.C
LIN TARGET_POS C_DIS
CONTINUE
OFFSET_POS = {X 15.504, Y -1.452, Z 6.000, A 0, B 0, C 0}
TARGET_POS = TAUGHT_START
TARGET_POS.X = TAUGHT_START.X + OFFSET_POS.X
TARGET_POS.Y = TAUGHT_START.Y + OFFSET_POS.Y
TARGET_POS.Z = TAUGHT_START.Z + OFFSET_POS.Z
TARGET_POS.A = TAUGHT_START.A
TARGET_POS.B = TAUGHT_START.B
TARGET_POS.C = TAUGHT_START.C
LIN TARGET_POS C_DIS
CONTINUE
OFFSET_POS = {X 15.538, Y -0.716, Z 6.000, A 0, B 0, C 0}
TARGET_POS = TAUGHT_START
TARGET_POS.X = TAUGHT_START.X + OFFSET_POS.X
TARGET_POS.Y = TAUGHT_START.Y + OFFSET_POS.Y
TARGET_POS.Z = TAUGHT_START.Z + OFFSET_POS.Z
TARGET_POS.A = TAUGHT_START.A
TARGET_POS.B = TAUGHT_START.B
TARGET_POS.C = TAUGHT_START.C
LIN TARGET_POS C_DIS
CONTINUE
OFFSET_POS = {X 15.482, Y 0.015, Z 6.000, A 0, B 0, C 0}
TARGET_POS = TAUGHT_START
TARGET_POS.X = TAUGHT_START.X + OFFSET_POS.X
TARGET_POS.Y = TAUGHT_START.Y + OFFSET_POS.Y
TARGET_POS.Z = TAUGHT_START.Z + OFFSET_POS.Z
TARGET_POS.A = TAUGHT_START.A
TARGET_POS.B = TAUGHT_START.B
TARGET_POS.C = TAUGHT_START.C
LIN TARGET_POS C_DIS
CONTINUE
OFFSET_POS = {X 15.349, Y 0.733, Z 6.000, A 0, B 0, C 0}
TARGET_POS = TAUGHT_START
TARGET_POS.X = TAUGHT_START.X + OFFSET_POS.X
TARGET_POS.Y = TAUGHT_START.Y + OFFSET_POS.Y
TARGET_POS.Z = TAUGHT_START.Z + OFFSET_POS.Z
TARGET_POS.A = TAUGHT_START.A
TARGET_POS.B = TAUGHT_START.B
TARGET_POS.C = TAUGHT_START.C
LIN TARGET_POS C_DIS
CONTINUE
OFFSET_POS = {X 15.149, Y 1.433, Z 6.000, A 0, B 0, C 0}
TARGET_POS = TAUGHT_START
TARGET_POS.X = TAUGHT_START.X + OFFSET_POS.X
TARGET_POS.Y = TAUGHT_START.Y + OFFSET_POS.Y
TARGET_POS.Z = TAUGHT_START.Z + OFFSET_POS.Z
TARGET_POS.A = TAUGHT_START.A
TARGET_POS.B = TAUGHT_START.B
TARGET_POS.C = TAUGHT_START.C
LIN TARGET_POS C_DIS
CONTINUE
OFFSET_POS = {X 14.892, Y 2.105, Z 6.000, A 0, B 0, C 0}
TARGET_POS = TAUGHT_START
TARGET_POS.X = TAUGHT_START.X + OFFSET_POS.X
TARGET_POS.Y = TAUGHT_START.Y + OFFSET_POS.Y
TARGET_POS.Z = TAUGHT_START.Z + OFFSET_POS.Z
TARGET_POS.A = TAUGHT_START.A
TARGET_POS.B = TAUGHT_START.B
TARGET_POS.C = TAUGHT_START.C
LIN TARGET_POS C_DIS
CONTINUE
OFFSET_POS = {X 14.588, Y 2.743, Z 6.000, A 0, B 0, C 0}
TARGET_POS = TAUGHT_START
TARGET_POS.X = TAUGHT_START.X + OFFSET_POS.X
TARGET_POS.Y = TAUGHT_START.Y + OFFSET_POS.Y
TARGET_POS.Z = TAUGHT_START.Z + OFFSET_POS.Z
TARGET_POS.A = TAUGHT_START.A
TARGET_POS.B = TAUGHT_START.B
TARGET_POS.C = TAUGHT_START.C
LIN TARGET_POS C_DIS
CONTINUE
OFFSET_POS = {X 14.243, Y 3.339, Z 6.000, A 0, B 0, C 0}
TARGET_POS = TAUGHT_START
TARGET_POS.X = TAUGHT_START.X + OFFSET_POS.X
TARGET_POS.Y = TAUGHT_START.Y + OFFSET_POS.Y
TARGET_POS.Z = TAUGHT_START.Z + OFFSET_POS.Z
TARGET_POS.A = TAUGHT_START.A
TARGET_POS.B = TAUGHT_START.B
TARGET_POS.C = TAUGHT_START.C
LIN TARGET_POS C_DIS
CONTINUE
OFFSET_POS = {X 13.862, Y 3.886, Z 6.000, A 0, B 0, C 0}
TARGET_POS = TAUGHT_START
TARGET_POS.X = TAUGHT_START.X + OFFSET_POS.X
TARGET_POS.Y = TAUGHT_START.Y + OFFSET_POS.Y
TARGET_POS.Z = TAUGHT_START.Z + OFFSET_POS.Z
TARGET_POS.A = TAUGHT_START.A
TARGET_POS.B = TAUGHT_START.B
TARGET_POS.C = TAUGHT_START.C
LIN TARGET_POS C_DIS
CONTINUE
OFFSET_POS = {X 13.442, Y 4.381, Z 6.000, A 0, B 0, C 0}
TARGET_POS = TAUGHT_START
TARGET_POS.X = TAUGHT_START.X + OFFSET_POS.X
TARGET_POS.Y = TAUGHT_START.Y + OFFSET_POS.Y
TARGET_POS.Z = TAUGHT_START.Z + OFFSET_POS.Z
TARGET_POS.A = TAUGHT_START.A
TARGET_POS.B = TAUGHT_START.B
TARGET_POS.C = TAUGHT_START.C
LIN TARGET_POS C_DIS
CONTINUE
OFFSET_POS = {X 13.057, Y 4.752, Z 6.000, A 0, B 0, C 0}
TARGET_POS = TAUGHT_START
TARGET_POS.X = TAUGHT_START.X + OFFSET_POS.X
TARGET_POS.Y = TAUGHT_START.Y + OFFSET_POS.Y
TARGET_POS.Z = TAUGHT_START.Z + OFFSET_POS.Z
TARGET_POS.A = TAUGHT_START.A
TARGET_POS.B = TAUGHT_START.B
TARGET_POS.C = TAUGHT_START.C
LIN TARGET_POS C_DIS
CONTINUE
OFFSET_POS = {X 12.634, Y 5.060, Z 6.000, A 0, B 0, C 0}
TARGET_POS = TAUGHT_START
TARGET_POS.X = TAUGHT_START.X + OFFSET_POS.X
TARGET_POS.Y = TAUGHT_START.Y + OFFSET_POS.Y
TARGET_POS.Z = TAUGHT_START.Z + OFFSET_POS.Z
TARGET_POS.A = TAUGHT_START.A
TARGET_POS.B = TAUGHT_START.B
TARGET_POS.C = TAUGHT_START.C
LIN TARGET_POS C_DIS
CONTINUE
OFFSET_POS = {X 12.080, Y 5.339, Z 6.000, A 0, B 0, C 0}
TARGET_POS = TAUGHT_START
TARGET_POS.X = TAUGHT_START.X + OFFSET_POS.X
TARGET_POS.Y = TAUGHT_START.Y + OFFSET_POS.Y
TARGET_POS.Z = TAUGHT_START.Z + OFFSET_POS.Z
TARGET_POS.A = TAUGHT_START.A
TARGET_POS.B = TAUGHT_START.B
TARGET_POS.C = TAUGHT_START.C
LIN TARGET_POS C_DIS
CONTINUE
OFFSET_POS = {X 11.562, Y 5.467, Z 6.000, A 0, B 0, C 0}
TARGET_POS = TAUGHT_START
TARGET_POS.X = TAUGHT_START.X + OFFSET_POS.X
TARGET_POS.Y = TAUGHT_START.Y + OFFSET_POS.Y
TARGET_POS.Z = TAUGHT_START.Z + OFFSET_POS.Z
TARGET_POS.A = TAUGHT_START.A
TARGET_POS.B = TAUGHT_START.B
TARGET_POS.C = TAUGHT_START.C
LIN TARGET_POS C_DIS
CONTINUE
OFFSET_POS = {X 11.040, Y 5.476, Z 6.000, A 0, B 0, C 0}
TARGET_POS = TAUGHT_START
TARGET_POS.X = TAUGHT_START.X + OFFSET_POS.X
TARGET_POS.Y = TAUGHT_START.Y + OFFSET_POS.Y
TARGET_POS.Z = TAUGHT_START.Z + OFFSET_POS.Z
TARGET_POS.A = TAUGHT_START.A
TARGET_POS.B = TAUGHT_START.B
TARGET_POS.C = TAUGHT_START.C
LIN TARGET_POS C_DIS
CONTINUE
OFFSET_POS = {X 10.490, Y 5.344, Z 6.000, A 0, B 0, C 0}
TARGET_POS = TAUGHT_START
TARGET_POS.X = TAUGHT_START.X + OFFSET_POS.X
TARGET_POS.Y = TAUGHT_START.Y + OFFSET_POS.Y
TARGET_POS.Z = TAUGHT_START.Z + OFFSET_POS.Z
TARGET_POS.A = TAUGHT_START.A
TARGET_POS.B = TAUGHT_START.B
TARGET_POS.C = TAUGHT_START.C
LIN TARGET_POS C_DIS
CONTINUE
OFFSET_POS = {X 10.045, Y 5.109, Z 6.000, A 0, B 0, C 0}
TARGET_POS = TAUGHT_START
TARGET_POS.X = TAUGHT_START.X + OFFSET_POS.X
TARGET_POS.Y = TAUGHT_START.Y + OFFSET_POS.Y
TARGET_POS.Z = TAUGHT_START.Z + OFFSET_POS.Z
TARGET_POS.A = TAUGHT_START.A
TARGET_POS.B = TAUGHT_START.B
TARGET_POS.C = TAUGHT_START.C
LIN TARGET_POS C_DIS
CONTINUE
OFFSET_POS = {X 9.675, Y 4.797, Z 6.000, A 0, B 0, C 0}
TARGET_POS = TAUGHT_START
TARGET_POS.X = TAUGHT_START.X + OFFSET_POS.X
TARGET_POS.Y = TAUGHT_START.Y + OFFSET_POS.Y
TARGET_POS.Z = TAUGHT_START.Z + OFFSET_POS.Z
TARGET_POS.A = TAUGHT_START.A
TARGET_POS.B = TAUGHT_START.B
TARGET_POS.C = TAUGHT_START.C
LIN TARGET_POS C_DIS
CONTINUE
OFFSET_POS = {X 9.322, Y 4.381, Z 6.000, A 0, B 0, C 0}
TARGET_POS = TAUGHT_START
TARGET_POS.X = TAUGHT_START.X + OFFSET_POS.X
TARGET_POS.Y = TAUGHT_START.Y + OFFSET_POS.Y
TARGET_POS.Z = TAUGHT_START.Z + OFFSET_POS.Z
TARGET_POS.A = TAUGHT_START.A
TARGET_POS.B = TAUGHT_START.B
TARGET_POS.C = TAUGHT_START.C
LIN TARGET_POS C_DIS
CONTINUE
OFFSET_POS = {X 9.055, Y 3.955, Z 6.000, A 0, B 0, C 0}
TARGET_POS = TAUGHT_START
TARGET_POS.X = TAUGHT_START.X + OFFSET_POS.X
TARGET_POS.Y = TAUGHT_START.Y + OFFSET_POS.Y
TARGET_POS.Z = TAUGHT_START.Z + OFFSET_POS.Z
TARGET_POS.A = TAUGHT_START.A
TARGET_POS.B = TAUGHT_START.B
TARGET_POS.C = TAUGHT_START.C
LIN TARGET_POS C_DIS
CONTINUE
OFFSET_POS = {X 8.672, Y 3.204, Z 6.000, A 0, B 0, C 0}
TARGET_POS = TAUGHT_START
TARGET_POS.X = TAUGHT_START.X + OFFSET_POS.X
TARGET_POS.Y = TAUGHT_START.Y + OFFSET_POS.Y
TARGET_POS.Z = TAUGHT_START.Z + OFFSET_POS.Z
TARGET_POS.A = TAUGHT_START.A
TARGET_POS.B = TAUGHT_START.B
TARGET_POS.C = TAUGHT_START.C
LIN TARGET_POS C_DIS
CONTINUE
OFFSET_POS = {X 8.428, Y 2.729, Z 6.000, A 0, B 0, C 0}
TARGET_POS = TAUGHT_START
TARGET_POS.X = TAUGHT_START.X + OFFSET_POS.X
TARGET_POS.Y = TAUGHT_START.Y + OFFSET_POS.Y
TARGET_POS.Z = TAUGHT_START.Z + OFFSET_POS.Z
TARGET_POS.A = TAUGHT_START.A
TARGET_POS.B = TAUGHT_START.B
TARGET_POS.C = TAUGHT_START.C
LIN TARGET_POS C_DIS
CONTINUE
OFFSET_POS = {X 8.122, Y 2.223, Z 6.000, A 0, B 0, C 0}
TARGET_POS = TAUGHT_START
TARGET_POS.X = TAUGHT_START.X + OFFSET_POS.X
TARGET_POS.Y = TAUGHT_START.Y + OFFSET_POS.Y
TARGET_POS.Z = TAUGHT_START.Z + OFFSET_POS.Z
TARGET_POS.A = TAUGHT_START.A
TARGET_POS.B = TAUGHT_START.B
TARGET_POS.C = TAUGHT_START.C
LIN TARGET_POS C_DIS
CONTINUE
OFFSET_POS = {X 7.757, Y 1.765, Z 6.000, A 0, B 0, C 0}
TARGET_POS = TAUGHT_START
TARGET_POS.X = TAUGHT_START.X + OFFSET_POS.X
TARGET_POS.Y = TAUGHT_START.Y + OFFSET_POS.Y
TARGET_POS.Z = TAUGHT_START.Z + OFFSET_POS.Z
TARGET_POS.A = TAUGHT_START.A
TARGET_POS.B = TAUGHT_START.B
TARGET_POS.C = TAUGHT_START.C
LIN TARGET_POS C_DIS
CONTINUE
OFFSET_POS = {X 7.375, Y 1.458, Z 6.000, A 0, B 0, C 0}
TARGET_POS = TAUGHT_START
TARGET_POS.X = TAUGHT_START.X + OFFSET_POS.X
TARGET_POS.Y = TAUGHT_START.Y + OFFSET_POS.Y
TARGET_POS.Z = TAUGHT_START.Z + OFFSET_POS.Z
TARGET_POS.A = TAUGHT_START.A
TARGET_POS.B = TAUGHT_START.B
TARGET_POS.C = TAUGHT_START.C
LIN TARGET_POS C_DIS
CONTINUE
OFFSET_POS = {X 6.915, Y 1.235, Z 6.000, A 0, B 0, C 0}
TARGET_POS = TAUGHT_START
TARGET_POS.X = TAUGHT_START.X + OFFSET_POS.X
TARGET_POS.Y = TAUGHT_START.Y + OFFSET_POS.Y
TARGET_POS.Z = TAUGHT_START.Z + OFFSET_POS.Z
TARGET_POS.A = TAUGHT_START.A
TARGET_POS.B = TAUGHT_START.B
TARGET_POS.C = TAUGHT_START.C
LIN TARGET_POS C_DIS
CONTINUE
OFFSET_POS = {X 6.388, Y 1.086, Z 6.000, A 0, B 0, C 0}
TARGET_POS = TAUGHT_START
TARGET_POS.X = TAUGHT_START.X + OFFSET_POS.X
TARGET_POS.Y = TAUGHT_START.Y + OFFSET_POS.Y
TARGET_POS.Z = TAUGHT_START.Z + OFFSET_POS.Z
TARGET_POS.A = TAUGHT_START.A
TARGET_POS.B = TAUGHT_START.B
TARGET_POS.C = TAUGHT_START.C
LIN TARGET_POS C_DIS
CONTINUE
OFFSET_POS = {X 5.834, Y 1.015, Z 6.000, A 0, B 0, C 0}
TARGET_POS = TAUGHT_START
TARGET_POS.X = TAUGHT_START.X + OFFSET_POS.X
TARGET_POS.Y = TAUGHT_START.Y + OFFSET_POS.Y
TARGET_POS.Z = TAUGHT_START.Z + OFFSET_POS.Z
TARGET_POS.A = TAUGHT_START.A
TARGET_POS.B = TAUGHT_START.B
TARGET_POS.C = TAUGHT_START.C
LIN TARGET_POS C_DIS
CONTINUE
OFFSET_POS = {X 5.272, Y 0.981, Z 6.000, A 0, B 0, C 0}
TARGET_POS = TAUGHT_START
TARGET_POS.X = TAUGHT_START.X + OFFSET_POS.X
TARGET_POS.Y = TAUGHT_START.Y + OFFSET_POS.Y
TARGET_POS.Z = TAUGHT_START.Z + OFFSET_POS.Z
TARGET_POS.A = TAUGHT_START.A
TARGET_POS.B = TAUGHT_START.B
TARGET_POS.C = TAUGHT_START.C
LIN TARGET_POS C_DIS
CONTINUE
OFFSET_POS = {X 4.699, Y 0.988, Z 6.000, A 0, B 0, C 0}
TARGET_POS = TAUGHT_START
TARGET_POS.X = TAUGHT_START.X + OFFSET_POS.X
TARGET_POS.Y = TAUGHT_START.Y + OFFSET_POS.Y
TARGET_POS.Z = TAUGHT_START.Z + OFFSET_POS.Z
TARGET_POS.A = TAUGHT_START.A
TARGET_POS.B = TAUGHT_START.B
TARGET_POS.C = TAUGHT_START.C
LIN TARGET_POS C_DIS
CONTINUE
OFFSET_POS = {X 4.160, Y 1.020, Z 6.000, A 0, B 0, C 0}
TARGET_POS = TAUGHT_START
TARGET_POS.X = TAUGHT_START.X + OFFSET_POS.X
TARGET_POS.Y = TAUGHT_START.Y + OFFSET_POS.Y
TARGET_POS.Z = TAUGHT_START.Z + OFFSET_POS.Z
TARGET_POS.A = TAUGHT_START.A
TARGET_POS.B = TAUGHT_START.B
TARGET_POS.C = TAUGHT_START.C
LIN TARGET_POS C_DIS
CONTINUE
OFFSET_POS = {X 3.595, Y 1.063, Z 6.000, A 0, B 0, C 0}
TARGET_POS = TAUGHT_START
TARGET_POS.X = TAUGHT_START.X + OFFSET_POS.X
TARGET_POS.Y = TAUGHT_START.Y + OFFSET_POS.Y
TARGET_POS.Z = TAUGHT_START.Z + OFFSET_POS.Z
TARGET_POS.A = TAUGHT_START.A
TARGET_POS.B = TAUGHT_START.B
TARGET_POS.C = TAUGHT_START.C
LIN TARGET_POS C_DIS
CONTINUE
OFFSET_POS = {X 3.026, Y 1.110, Z 6.000, A 0, B 0, C 0}
TARGET_POS = TAUGHT_START
TARGET_POS.X = TAUGHT_START.X + OFFSET_POS.X
TARGET_POS.Y = TAUGHT_START.Y + OFFSET_POS.Y
TARGET_POS.Z = TAUGHT_START.Z + OFFSET_POS.Z
TARGET_POS.A = TAUGHT_START.A
TARGET_POS.B = TAUGHT_START.B
TARGET_POS.C = TAUGHT_START.C
LIN TARGET_POS C_DIS
CONTINUE
OFFSET_POS = {X 2.513, Y 1.146, Z 6.000, A 0, B 0, C 0}
TARGET_POS = TAUGHT_START
TARGET_POS.X = TAUGHT_START.X + OFFSET_POS.X
TARGET_POS.Y = TAUGHT_START.Y + OFFSET_POS.Y
TARGET_POS.Z = TAUGHT_START.Z + OFFSET_POS.Z
TARGET_POS.A = TAUGHT_START.A
TARGET_POS.B = TAUGHT_START.B
TARGET_POS.C = TAUGHT_START.C
LIN TARGET_POS C_DIS
CONTINUE
OFFSET_POS = {X 1.880, Y 1.160, Z 6.000, A 0, B 0, C 0}
TARGET_POS = TAUGHT_START
TARGET_POS.X = TAUGHT_START.X + OFFSET_POS.X
TARGET_POS.Y = TAUGHT_START.Y + OFFSET_POS.Y
TARGET_POS.Z = TAUGHT_START.Z + OFFSET_POS.Z
TARGET_POS.A = TAUGHT_START.A
TARGET_POS.B = TAUGHT_START.B
TARGET_POS.C = TAUGHT_START.C
LIN TARGET_POS C_DIS
CONTINUE
OFFSET_POS = {X 1.216, Y 1.072, Z 6.000, A 0, B 0, C 0}
TARGET_POS = TAUGHT_START
TARGET_POS.X = TAUGHT_START.X + OFFSET_POS.X
TARGET_POS.Y = TAUGHT_START.Y + OFFSET_POS.Y
TARGET_POS.Z = TAUGHT_START.Z + OFFSET_POS.Z
TARGET_POS.A = TAUGHT_START.A
TARGET_POS.B = TAUGHT_START.B
TARGET_POS.C = TAUGHT_START.C
LIN TARGET_POS C_DIS
CONTINUE
OFFSET_POS = {X 0.707, Y 0.865, Z 6.000, A 0, B 0, C 0}
TARGET_POS = TAUGHT_START
TARGET_POS.X = TAUGHT_START.X + OFFSET_POS.X
TARGET_POS.Y = TAUGHT_START.Y + OFFSET_POS.Y
TARGET_POS.Z = TAUGHT_START.Z + OFFSET_POS.Z
TARGET_POS.A = TAUGHT_START.A
TARGET_POS.B = TAUGHT_START.B
TARGET_POS.C = TAUGHT_START.C
LIN TARGET_POS C_DIS
CONTINUE
OFFSET_POS = {X 0.362, Y 0.602, Z 6.000, A 0, B 0, C 0}
TARGET_POS = TAUGHT_START
TARGET_POS.X = TAUGHT_START.X + OFFSET_POS.X
TARGET_POS.Y = TAUGHT_START.Y + OFFSET_POS.Y
TARGET_POS.Z = TAUGHT_START.Z + OFFSET_POS.Z
TARGET_POS.A = TAUGHT_START.A
TARGET_POS.B = TAUGHT_START.B
TARGET_POS.C = TAUGHT_START.C
LIN TARGET_POS C_DIS
CONTINUE
OFFSET_POS = {X 0.297, Y 0.515, Z 6.000, A 0, B 0, C 0}
TARGET_POS = TAUGHT_START
TARGET_POS.X = TAUGHT_START.X + OFFSET_POS.X
TARGET_POS.Y = TAUGHT_START.Y + OFFSET_POS.Y
TARGET_POS.Z = TAUGHT_START.Z + OFFSET_POS.Z
TARGET_POS.A = TAUGHT_START.A
TARGET_POS.B = TAUGHT_START.B
TARGET_POS.C = TAUGHT_START.C
LIN TARGET_POS C_DIS
$OUT[1] = FALSE
WAIT SEC 0.200
WAIT SEC 55.00
; ;LAYER_CHANGE
; ;Z:8
OFFSET_POS = {X 0.297, Y 0.515, Z 8.000, A 0, B 0, C 0}
TARGET_POS = TAUGHT_START
TARGET_POS.X = TAUGHT_START.X + OFFSET_POS.X
TARGET_POS.Y = TAUGHT_START.Y + OFFSET_POS.Y
TARGET_POS.Z = TAUGHT_START.Z + OFFSET_POS.Z
TARGET_POS.A = TAUGHT_START.A
TARGET_POS.B = TAUGHT_START.B
TARGET_POS.C = TAUGHT_START.C
LIN TARGET_POS C_DIS
$OUT[1] = TRUE
WAIT SEC 0.200
OFFSET_POS = {X 0.362, Y 0.602, Z 8.000, A 0, B 0, C 0}
TARGET_POS = TAUGHT_START
TARGET_POS.X = TAUGHT_START.X + OFFSET_POS.X
TARGET_POS.Y = TAUGHT_START.Y + OFFSET_POS.Y
TARGET_POS.Z = TAUGHT_START.Z + OFFSET_POS.Z
TARGET_POS.A = TAUGHT_START.A
TARGET_POS.B = TAUGHT_START.B
TARGET_POS.C = TAUGHT_START.C
LIN TARGET_POS C_DIS
CONTINUE
OFFSET_POS = {X 0.707, Y 0.865, Z 8.000, A 0, B 0, C 0}
TARGET_POS = TAUGHT_START
TARGET_POS.X = TAUGHT_START.X + OFFSET_POS.X
TARGET_POS.Y = TAUGHT_START.Y + OFFSET_POS.Y
TARGET_POS.Z = TAUGHT_START.Z + OFFSET_POS.Z
TARGET_POS.A = TAUGHT_START.A
TARGET_POS.B = TAUGHT_START.B
TARGET_POS.C = TAUGHT_START.C
LIN TARGET_POS C_DIS
CONTINUE
OFFSET_POS = {X 1.216, Y 1.072, Z 8.000, A 0, B 0, C 0}
TARGET_POS = TAUGHT_START
TARGET_POS.X = TAUGHT_START.X + OFFSET_POS.X
TARGET_POS.Y = TAUGHT_START.Y + OFFSET_POS.Y
TARGET_POS.Z = TAUGHT_START.Z + OFFSET_POS.Z
TARGET_POS.A = TAUGHT_START.A
TARGET_POS.B = TAUGHT_START.B
TARGET_POS.C = TAUGHT_START.C
LIN TARGET_POS C_DIS
CONTINUE
OFFSET_POS = {X 1.880, Y 1.160, Z 8.000, A 0, B 0, C 0}
TARGET_POS = TAUGHT_START
TARGET_POS.X = TAUGHT_START.X + OFFSET_POS.X
TARGET_POS.Y = TAUGHT_START.Y + OFFSET_POS.Y
TARGET_POS.Z = TAUGHT_START.Z + OFFSET_POS.Z
TARGET_POS.A = TAUGHT_START.A
TARGET_POS.B = TAUGHT_START.B
TARGET_POS.C = TAUGHT_START.C
LIN TARGET_POS C_DIS
CONTINUE
OFFSET_POS = {X 2.513, Y 1.146, Z 8.000, A 0, B 0, C 0}
TARGET_POS = TAUGHT_START
TARGET_POS.X = TAUGHT_START.X + OFFSET_POS.X
TARGET_POS.Y = TAUGHT_START.Y + OFFSET_POS.Y
TARGET_POS.Z = TAUGHT_START.Z + OFFSET_POS.Z
TARGET_POS.A = TAUGHT_START.A
TARGET_POS.B = TAUGHT_START.B
TARGET_POS.C = TAUGHT_START.C
LIN TARGET_POS C_DIS
CONTINUE
OFFSET_POS = {X 3.026, Y 1.110, Z 8.000, A 0, B 0, C 0}
TARGET_POS = TAUGHT_START
TARGET_POS.X = TAUGHT_START.X + OFFSET_POS.X
TARGET_POS.Y = TAUGHT_START.Y + OFFSET_POS.Y
TARGET_POS.Z = TAUGHT_START.Z + OFFSET_POS.Z
TARGET_POS.A = TAUGHT_START.A
TARGET_POS.B = TAUGHT_START.B
TARGET_POS.C = TAUGHT_START.C
LIN TARGET_POS C_DIS
CONTINUE
OFFSET_POS = {X 3.595, Y 1.063, Z 8.000, A 0, B 0, C 0}
TARGET_POS = TAUGHT_START
TARGET_POS.X = TAUGHT_START.X + OFFSET_POS.X
TARGET_POS.Y = TAUGHT_START.Y + OFFSET_POS.Y
TARGET_POS.Z = TAUGHT_START.Z + OFFSET_POS.Z
TARGET_POS.A = TAUGHT_START.A
TARGET_POS.B = TAUGHT_START.B
TARGET_POS.C = TAUGHT_START.C
LIN TARGET_POS C_DIS
CONTINUE
OFFSET_POS = {X 4.160, Y 1.020, Z 8.000, A 0, B 0, C 0}
TARGET_POS = TAUGHT_START
TARGET_POS.X = TAUGHT_START.X + OFFSET_POS.X
TARGET_POS.Y = TAUGHT_START.Y + OFFSET_POS.Y
TARGET_POS.Z = TAUGHT_START.Z + OFFSET_POS.Z
TARGET_POS.A = TAUGHT_START.A
TARGET_POS.B = TAUGHT_START.B
TARGET_POS.C = TAUGHT_START.C
LIN TARGET_POS C_DIS
CONTINUE
OFFSET_POS = {X 4.699, Y 0.988, Z 8.000, A 0, B 0, C 0}
TARGET_POS = TAUGHT_START
TARGET_POS.X = TAUGHT_START.X + OFFSET_POS.X
TARGET_POS.Y = TAUGHT_START.Y + OFFSET_POS.Y
TARGET_POS.Z = TAUGHT_START.Z + OFFSET_POS.Z
TARGET_POS.A = TAUGHT_START.A
TARGET_POS.B = TAUGHT_START.B
TARGET_POS.C = TAUGHT_START.C
LIN TARGET_POS C_DIS
CONTINUE
OFFSET_POS = {X 5.272, Y 0.981, Z 8.000, A 0, B 0, C 0}
TARGET_POS = TAUGHT_START
TARGET_POS.X = TAUGHT_START.X + OFFSET_POS.X
TARGET_POS.Y = TAUGHT_START.Y + OFFSET_POS.Y
TARGET_POS.Z = TAUGHT_START.Z + OFFSET_POS.Z
TARGET_POS.A = TAUGHT_START.A
TARGET_POS.B = TAUGHT_START.B
TARGET_POS.C = TAUGHT_START.C
LIN TARGET_POS C_DIS
CONTINUE
OFFSET_POS = {X 5.834, Y 1.015, Z 8.000, A 0, B 0, C 0}
TARGET_POS = TAUGHT_START
TARGET_POS.X = TAUGHT_START.X + OFFSET_POS.X
TARGET_POS.Y = TAUGHT_START.Y + OFFSET_POS.Y
TARGET_POS.Z = TAUGHT_START.Z + OFFSET_POS.Z
TARGET_POS.A = TAUGHT_START.A
TARGET_POS.B = TAUGHT_START.B
TARGET_POS.C = TAUGHT_START.C
LIN TARGET_POS C_DIS
CONTINUE
OFFSET_POS = {X 6.388, Y 1.086, Z 8.000, A 0, B 0, C 0}
TARGET_POS = TAUGHT_START
TARGET_POS.X = TAUGHT_START.X + OFFSET_POS.X
TARGET_POS.Y = TAUGHT_START.Y + OFFSET_POS.Y
TARGET_POS.Z = TAUGHT_START.Z + OFFSET_POS.Z
TARGET_POS.A = TAUGHT_START.A
TARGET_POS.B = TAUGHT_START.B
TARGET_POS.C = TAUGHT_START.C
LIN TARGET_POS C_DIS
CONTINUE
OFFSET_POS = {X 6.915, Y 1.235, Z 8.000, A 0, B 0, C 0}
TARGET_POS = TAUGHT_START
TARGET_POS.X = TAUGHT_START.X + OFFSET_POS.X
TARGET_POS.Y = TAUGHT_START.Y + OFFSET_POS.Y
TARGET_POS.Z = TAUGHT_START.Z + OFFSET_POS.Z
TARGET_POS.A = TAUGHT_START.A
TARGET_POS.B = TAUGHT_START.B
TARGET_POS.C = TAUGHT_START.C
LIN TARGET_POS C_DIS
CONTINUE
OFFSET_POS = {X 7.375, Y 1.458, Z 8.000, A 0, B 0, C 0}
TARGET_POS = TAUGHT_START
TARGET_POS.X = TAUGHT_START.X + OFFSET_POS.X
TARGET_POS.Y = TAUGHT_START.Y + OFFSET_POS.Y
TARGET_POS.Z = TAUGHT_START.Z + OFFSET_POS.Z
TARGET_POS.A = TAUGHT_START.A
TARGET_POS.B = TAUGHT_START.B
TARGET_POS.C = TAUGHT_START.C
LIN TARGET_POS C_DIS
CONTINUE
OFFSET_POS = {X 7.757, Y 1.765, Z 8.000, A 0, B 0, C 0}
TARGET_POS = TAUGHT_START
TARGET_POS.X = TAUGHT_START.X + OFFSET_POS.X
TARGET_POS.Y = TAUGHT_START.Y + OFFSET_POS.Y
TARGET_POS.Z = TAUGHT_START.Z + OFFSET_POS.Z
TARGET_POS.A = TAUGHT_START.A
TARGET_POS.B = TAUGHT_START.B
TARGET_POS.C = TAUGHT_START.C
LIN TARGET_POS C_DIS
CONTINUE
OFFSET_POS = {X 8.122, Y 2.223, Z 8.000, A 0, B 0, C 0}
TARGET_POS = TAUGHT_START
TARGET_POS.X = TAUGHT_START.X + OFFSET_POS.X
TARGET_POS.Y = TAUGHT_START.Y + OFFSET_POS.Y
TARGET_POS.Z = TAUGHT_START.Z + OFFSET_POS.Z
TARGET_POS.A = TAUGHT_START.A
TARGET_POS.B = TAUGHT_START.B
TARGET_POS.C = TAUGHT_START.C
LIN TARGET_POS C_DIS
CONTINUE
OFFSET_POS = {X 8.428, Y 2.729, Z 8.000, A 0, B 0, C 0}
TARGET_POS = TAUGHT_START
TARGET_POS.X = TAUGHT_START.X + OFFSET_POS.X
TARGET_POS.Y = TAUGHT_START.Y + OFFSET_POS.Y
TARGET_POS.Z = TAUGHT_START.Z + OFFSET_POS.Z
TARGET_POS.A = TAUGHT_START.A
TARGET_POS.B = TAUGHT_START.B
TARGET_POS.C = TAUGHT_START.C
LIN TARGET_POS C_DIS
CONTINUE
OFFSET_POS = {X 8.672, Y 3.204, Z 8.000, A 0, B 0, C 0}
TARGET_POS = TAUGHT_START
TARGET_POS.X = TAUGHT_START.X + OFFSET_POS.X
TARGET_POS.Y = TAUGHT_START.Y + OFFSET_POS.Y
TARGET_POS.Z = TAUGHT_START.Z + OFFSET_POS.Z
TARGET_POS.A = TAUGHT_START.A
TARGET_POS.B = TAUGHT_START.B
TARGET_POS.C = TAUGHT_START.C
LIN TARGET_POS C_DIS
CONTINUE
OFFSET_POS = {X 9.055, Y 3.955, Z 8.000, A 0, B 0, C 0}
TARGET_POS = TAUGHT_START
TARGET_POS.X = TAUGHT_START.X + OFFSET_POS.X
TARGET_POS.Y = TAUGHT_START.Y + OFFSET_POS.Y
TARGET_POS.Z = TAUGHT_START.Z + OFFSET_POS.Z
TARGET_POS.A = TAUGHT_START.A
TARGET_POS.B = TAUGHT_START.B
TARGET_POS.C = TAUGHT_START.C
LIN TARGET_POS C_DIS
CONTINUE
OFFSET_POS = {X 9.322, Y 4.381, Z 8.000, A 0, B 0, C 0}
TARGET_POS = TAUGHT_START
TARGET_POS.X = TAUGHT_START.X + OFFSET_POS.X
TARGET_POS.Y = TAUGHT_START.Y + OFFSET_POS.Y
TARGET_POS.Z = TAUGHT_START.Z + OFFSET_POS.Z
TARGET_POS.A = TAUGHT_START.A
TARGET_POS.B = TAUGHT_START.B
TARGET_POS.C = TAUGHT_START.C
LIN TARGET_POS C_DIS
CONTINUE
OFFSET_POS = {X 9.675, Y 4.797, Z 8.000, A 0, B 0, C 0}
TARGET_POS = TAUGHT_START
TARGET_POS.X = TAUGHT_START.X + OFFSET_POS.X
TARGET_POS.Y = TAUGHT_START.Y + OFFSET_POS.Y
TARGET_POS.Z = TAUGHT_START.Z + OFFSET_POS.Z
TARGET_POS.A = TAUGHT_START.A
TARGET_POS.B = TAUGHT_START.B
TARGET_POS.C = TAUGHT_START.C
LIN TARGET_POS C_DIS
CONTINUE
OFFSET_POS = {X 10.045, Y 5.109, Z 8.000, A 0, B 0, C 0}
TARGET_POS = TAUGHT_START
TARGET_POS.X = TAUGHT_START.X + OFFSET_POS.X
TARGET_POS.Y = TAUGHT_START.Y + OFFSET_POS.Y
TARGET_POS.Z = TAUGHT_START.Z + OFFSET_POS.Z
TARGET_POS.A = TAUGHT_START.A
TARGET_POS.B = TAUGHT_START.B
TARGET_POS.C = TAUGHT_START.C
LIN TARGET_POS C_DIS
CONTINUE
OFFSET_POS = {X 10.490, Y 5.344, Z 8.000, A 0, B 0, C 0}
TARGET_POS = TAUGHT_START
TARGET_POS.X = TAUGHT_START.X + OFFSET_POS.X
TARGET_POS.Y = TAUGHT_START.Y + OFFSET_POS.Y
TARGET_POS.Z = TAUGHT_START.Z + OFFSET_POS.Z
TARGET_POS.A = TAUGHT_START.A
TARGET_POS.B = TAUGHT_START.B
TARGET_POS.C = TAUGHT_START.C
LIN TARGET_POS C_DIS
CONTINUE
OFFSET_POS = {X 11.040, Y 5.476, Z 8.000, A 0, B 0, C 0}
TARGET_POS = TAUGHT_START
TARGET_POS.X = TAUGHT_START.X + OFFSET_POS.X
TARGET_POS.Y = TAUGHT_START.Y + OFFSET_POS.Y
TARGET_POS.Z = TAUGHT_START.Z + OFFSET_POS.Z
TARGET_POS.A = TAUGHT_START.A
TARGET_POS.B = TAUGHT_START.B
TARGET_POS.C = TAUGHT_START.C
LIN TARGET_POS C_DIS
CONTINUE
OFFSET_POS = {X 11.562, Y 5.467, Z 8.000, A 0, B 0, C 0}
TARGET_POS = TAUGHT_START
TARGET_POS.X = TAUGHT_START.X + OFFSET_POS.X
TARGET_POS.Y = TAUGHT_START.Y + OFFSET_POS.Y
TARGET_POS.Z = TAUGHT_START.Z + OFFSET_POS.Z
TARGET_POS.A = TAUGHT_START.A
TARGET_POS.B = TAUGHT_START.B
TARGET_POS.C = TAUGHT_START.C
LIN TARGET_POS C_DIS
CONTINUE
OFFSET_POS = {X 12.080, Y 5.339, Z 8.000, A 0, B 0, C 0}
TARGET_POS = TAUGHT_START
TARGET_POS.X = TAUGHT_START.X + OFFSET_POS.X
TARGET_POS.Y = TAUGHT_START.Y + OFFSET_POS.Y
TARGET_POS.Z = TAUGHT_START.Z + OFFSET_POS.Z
TARGET_POS.A = TAUGHT_START.A
TARGET_POS.B = TAUGHT_START.B
TARGET_POS.C = TAUGHT_START.C
LIN TARGET_POS C_DIS
CONTINUE
OFFSET_POS = {X 12.634, Y 5.060, Z 8.000, A 0, B 0, C 0}
TARGET_POS = TAUGHT_START
TARGET_POS.X = TAUGHT_START.X + OFFSET_POS.X
TARGET_POS.Y = TAUGHT_START.Y + OFFSET_POS.Y
TARGET_POS.Z = TAUGHT_START.Z + OFFSET_POS.Z
TARGET_POS.A = TAUGHT_START.A
TARGET_POS.B = TAUGHT_START.B
TARGET_POS.C = TAUGHT_START.C
LIN TARGET_POS C_DIS
CONTINUE
OFFSET_POS = {X 13.057, Y 4.752, Z 8.000, A 0, B 0, C 0}
TARGET_POS = TAUGHT_START
TARGET_POS.X = TAUGHT_START.X + OFFSET_POS.X
TARGET_POS.Y = TAUGHT_START.Y + OFFSET_POS.Y
TARGET_POS.Z = TAUGHT_START.Z + OFFSET_POS.Z
TARGET_POS.A = TAUGHT_START.A
TARGET_POS.B = TAUGHT_START.B
TARGET_POS.C = TAUGHT_START.C
LIN TARGET_POS C_DIS
CONTINUE
OFFSET_POS = {X 13.442, Y 4.381, Z 8.000, A 0, B 0, C 0}
TARGET_POS = TAUGHT_START
TARGET_POS.X = TAUGHT_START.X + OFFSET_POS.X
TARGET_POS.Y = TAUGHT_START.Y + OFFSET_POS.Y
TARGET_POS.Z = TAUGHT_START.Z + OFFSET_POS.Z
TARGET_POS.A = TAUGHT_START.A
TARGET_POS.B = TAUGHT_START.B
TARGET_POS.C = TAUGHT_START.C
LIN TARGET_POS C_DIS
CONTINUE
OFFSET_POS = {X 13.862, Y 3.886, Z 8.000, A 0, B 0, C 0}
TARGET_POS = TAUGHT_START
TARGET_POS.X = TAUGHT_START.X + OFFSET_POS.X
TARGET_POS.Y = TAUGHT_START.Y + OFFSET_POS.Y
TARGET_POS.Z = TAUGHT_START.Z + OFFSET_POS.Z
TARGET_POS.A = TAUGHT_START.A
TARGET_POS.B = TAUGHT_START.B
TARGET_POS.C = TAUGHT_START.C
LIN TARGET_POS C_DIS
CONTINUE
OFFSET_POS = {X 14.243, Y 3.339, Z 8.000, A 0, B 0, C 0}
TARGET_POS = TAUGHT_START
TARGET_POS.X = TAUGHT_START.X + OFFSET_POS.X
TARGET_POS.Y = TAUGHT_START.Y + OFFSET_POS.Y
TARGET_POS.Z = TAUGHT_START.Z + OFFSET_POS.Z
TARGET_POS.A = TAUGHT_START.A
TARGET_POS.B = TAUGHT_START.B
TARGET_POS.C = TAUGHT_START.C
LIN TARGET_POS C_DIS
CONTINUE
OFFSET_POS = {X 14.588, Y 2.743, Z 8.000, A 0, B 0, C 0}
TARGET_POS = TAUGHT_START
TARGET_POS.X = TAUGHT_START.X + OFFSET_POS.X
TARGET_POS.Y = TAUGHT_START.Y + OFFSET_POS.Y
TARGET_POS.Z = TAUGHT_START.Z + OFFSET_POS.Z
TARGET_POS.A = TAUGHT_START.A
TARGET_POS.B = TAUGHT_START.B
TARGET_POS.C = TAUGHT_START.C
LIN TARGET_POS C_DIS
CONTINUE
OFFSET_POS = {X 14.892, Y 2.105, Z 8.000, A 0, B 0, C 0}
TARGET_POS = TAUGHT_START
TARGET_POS.X = TAUGHT_START.X + OFFSET_POS.X
TARGET_POS.Y = TAUGHT_START.Y + OFFSET_POS.Y
TARGET_POS.Z = TAUGHT_START.Z + OFFSET_POS.Z
TARGET_POS.A = TAUGHT_START.A
TARGET_POS.B = TAUGHT_START.B
TARGET_POS.C = TAUGHT_START.C
LIN TARGET_POS C_DIS
CONTINUE
OFFSET_POS = {X 15.149, Y 1.433, Z 8.000, A 0, B 0, C 0}
TARGET_POS = TAUGHT_START
TARGET_POS.X = TAUGHT_START.X + OFFSET_POS.X
TARGET_POS.Y = TAUGHT_START.Y + OFFSET_POS.Y
TARGET_POS.Z = TAUGHT_START.Z + OFFSET_POS.Z
TARGET_POS.A = TAUGHT_START.A
TARGET_POS.B = TAUGHT_START.B
TARGET_POS.C = TAUGHT_START.C
LIN TARGET_POS C_DIS
CONTINUE
OFFSET_POS = {X 15.349, Y 0.733, Z 8.000, A 0, B 0, C 0}
TARGET_POS = TAUGHT_START
TARGET_POS.X = TAUGHT_START.X + OFFSET_POS.X
TARGET_POS.Y = TAUGHT_START.Y + OFFSET_POS.Y
TARGET_POS.Z = TAUGHT_START.Z + OFFSET_POS.Z
TARGET_POS.A = TAUGHT_START.A
TARGET_POS.B = TAUGHT_START.B
TARGET_POS.C = TAUGHT_START.C
LIN TARGET_POS C_DIS
CONTINUE
OFFSET_POS = {X 15.482, Y 0.015, Z 8.000, A 0, B 0, C 0}
TARGET_POS = TAUGHT_START
TARGET_POS.X = TAUGHT_START.X + OFFSET_POS.X
TARGET_POS.Y = TAUGHT_START.Y + OFFSET_POS.Y
TARGET_POS.Z = TAUGHT_START.Z + OFFSET_POS.Z
TARGET_POS.A = TAUGHT_START.A
TARGET_POS.B = TAUGHT_START.B
TARGET_POS.C = TAUGHT_START.C
LIN TARGET_POS C_DIS
CONTINUE
OFFSET_POS = {X 15.538, Y -0.716, Z 8.000, A 0, B 0, C 0}
TARGET_POS = TAUGHT_START
TARGET_POS.X = TAUGHT_START.X + OFFSET_POS.X
TARGET_POS.Y = TAUGHT_START.Y + OFFSET_POS.Y
TARGET_POS.Z = TAUGHT_START.Z + OFFSET_POS.Z
TARGET_POS.A = TAUGHT_START.A
TARGET_POS.B = TAUGHT_START.B
TARGET_POS.C = TAUGHT_START.C
LIN TARGET_POS C_DIS
CONTINUE
OFFSET_POS = {X 15.504, Y -1.452, Z 8.000, A 0, B 0, C 0}
TARGET_POS = TAUGHT_START
TARGET_POS.X = TAUGHT_START.X + OFFSET_POS.X
TARGET_POS.Y = TAUGHT_START.Y + OFFSET_POS.Y
TARGET_POS.Z = TAUGHT_START.Z + OFFSET_POS.Z
TARGET_POS.A = TAUGHT_START.A
TARGET_POS.B = TAUGHT_START.B
TARGET_POS.C = TAUGHT_START.C
LIN TARGET_POS C_DIS
CONTINUE
OFFSET_POS = {X 15.365, Y -2.182, Z 8.000, A 0, B 0, C 0}
TARGET_POS = TAUGHT_START
TARGET_POS.X = TAUGHT_START.X + OFFSET_POS.X
TARGET_POS.Y = TAUGHT_START.Y + OFFSET_POS.Y
TARGET_POS.Z = TAUGHT_START.Z + OFFSET_POS.Z
TARGET_POS.A = TAUGHT_START.A
TARGET_POS.B = TAUGHT_START.B
TARGET_POS.C = TAUGHT_START.C
LIN TARGET_POS C_DIS
CONTINUE
OFFSET_POS = {X 15.110, Y -2.892, Z 8.000, A 0, B 0, C 0}
TARGET_POS = TAUGHT_START
TARGET_POS.X = TAUGHT_START.X + OFFSET_POS.X
TARGET_POS.Y = TAUGHT_START.Y + OFFSET_POS.Y
TARGET_POS.Z = TAUGHT_START.Z + OFFSET_POS.Z
TARGET_POS.A = TAUGHT_START.A
TARGET_POS.B = TAUGHT_START.B
TARGET_POS.C = TAUGHT_START.C
LIN TARGET_POS C_DIS
CONTINUE
OFFSET_POS = {X 14.733, Y -3.561, Z 8.000, A 0, B 0, C 0}
TARGET_POS = TAUGHT_START
TARGET_POS.X = TAUGHT_START.X + OFFSET_POS.X
TARGET_POS.Y = TAUGHT_START.Y + OFFSET_POS.Y
TARGET_POS.Z = TAUGHT_START.Z + OFFSET_POS.Z
TARGET_POS.A = TAUGHT_START.A
TARGET_POS.B = TAUGHT_START.B
TARGET_POS.C = TAUGHT_START.C
LIN TARGET_POS C_DIS
CONTINUE
OFFSET_POS = {X 14.415, Y -3.959, Z 8.000, A 0, B 0, C 0}
TARGET_POS = TAUGHT_START
TARGET_POS.X = TAUGHT_START.X + OFFSET_POS.X
TARGET_POS.Y = TAUGHT_START.Y + OFFSET_POS.Y
TARGET_POS.Z = TAUGHT_START.Z + OFFSET_POS.Z
TARGET_POS.A = TAUGHT_START.A
TARGET_POS.B = TAUGHT_START.B
TARGET_POS.C = TAUGHT_START.C
LIN TARGET_POS C_DIS
CONTINUE
OFFSET_POS = {X 14.055, Y -4.318, Z 8.000, A 0, B 0, C 0}
TARGET_POS = TAUGHT_START
TARGET_POS.X = TAUGHT_START.X + OFFSET_POS.X
TARGET_POS.Y = TAUGHT_START.Y + OFFSET_POS.Y
TARGET_POS.Z = TAUGHT_START.Z + OFFSET_POS.Z
TARGET_POS.A = TAUGHT_START.A
TARGET_POS.B = TAUGHT_START.B
TARGET_POS.C = TAUGHT_START.C
LIN TARGET_POS C_DIS
CONTINUE
OFFSET_POS = {X 13.613, Y -4.659, Z 8.000, A 0, B 0, C 0}
TARGET_POS = TAUGHT_START
TARGET_POS.X = TAUGHT_START.X + OFFSET_POS.X
TARGET_POS.Y = TAUGHT_START.Y + OFFSET_POS.Y
TARGET_POS.Z = TAUGHT_START.Z + OFFSET_POS.Z
TARGET_POS.A = TAUGHT_START.A
TARGET_POS.B = TAUGHT_START.B
TARGET_POS.C = TAUGHT_START.C
LIN TARGET_POS C_DIS
CONTINUE
OFFSET_POS = {X 12.911, Y -5.046, Z 8.000, A 0, B 0, C 0}
TARGET_POS = TAUGHT_START
TARGET_POS.X = TAUGHT_START.X + OFFSET_POS.X
TARGET_POS.Y = TAUGHT_START.Y + OFFSET_POS.Y
TARGET_POS.Z = TAUGHT_START.Z + OFFSET_POS.Z
TARGET_POS.A = TAUGHT_START.A
TARGET_POS.B = TAUGHT_START.B
TARGET_POS.C = TAUGHT_START.C
LIN TARGET_POS C_DIS
CONTINUE
OFFSET_POS = {X 12.150, Y -5.324, Z 8.000, A 0, B 0, C 0}
TARGET_POS = TAUGHT_START
TARGET_POS.X = TAUGHT_START.X + OFFSET_POS.X
TARGET_POS.Y = TAUGHT_START.Y + OFFSET_POS.Y
TARGET_POS.Z = TAUGHT_START.Z + OFFSET_POS.Z
TARGET_POS.A = TAUGHT_START.A
TARGET_POS.B = TAUGHT_START.B
TARGET_POS.C = TAUGHT_START.C
LIN TARGET_POS C_DIS
CONTINUE
OFFSET_POS = {X 11.345, Y -5.496, Z 8.000, A 0, B 0, C 0}
TARGET_POS = TAUGHT_START
TARGET_POS.X = TAUGHT_START.X + OFFSET_POS.X
TARGET_POS.Y = TAUGHT_START.Y + OFFSET_POS.Y
TARGET_POS.Z = TAUGHT_START.Z + OFFSET_POS.Z
TARGET_POS.A = TAUGHT_START.A
TARGET_POS.B = TAUGHT_START.B
TARGET_POS.C = TAUGHT_START.C
LIN TARGET_POS C_DIS
CONTINUE
OFFSET_POS = {X 10.509, Y -5.573, Z 8.000, A 0, B 0, C 0}
TARGET_POS = TAUGHT_START
TARGET_POS.X = TAUGHT_START.X + OFFSET_POS.X
TARGET_POS.Y = TAUGHT_START.Y + OFFSET_POS.Y
TARGET_POS.Z = TAUGHT_START.Z + OFFSET_POS.Z
TARGET_POS.A = TAUGHT_START.A
TARGET_POS.B = TAUGHT_START.B
TARGET_POS.C = TAUGHT_START.C
LIN TARGET_POS C_DIS
CONTINUE
OFFSET_POS = {X 9.651, Y -5.565, Z 8.000, A 0, B 0, C 0}
TARGET_POS = TAUGHT_START
TARGET_POS.X = TAUGHT_START.X + OFFSET_POS.X
TARGET_POS.Y = TAUGHT_START.Y + OFFSET_POS.Y
TARGET_POS.Z = TAUGHT_START.Z + OFFSET_POS.Z
TARGET_POS.A = TAUGHT_START.A
TARGET_POS.B = TAUGHT_START.B
TARGET_POS.C = TAUGHT_START.C
LIN TARGET_POS C_DIS
CONTINUE
OFFSET_POS = {X 8.777, Y -5.482, Z 8.000, A 0, B 0, C 0}
TARGET_POS = TAUGHT_START
TARGET_POS.X = TAUGHT_START.X + OFFSET_POS.X
TARGET_POS.Y = TAUGHT_START.Y + OFFSET_POS.Y
TARGET_POS.Z = TAUGHT_START.Z + OFFSET_POS.Z
TARGET_POS.A = TAUGHT_START.A
TARGET_POS.B = TAUGHT_START.B
TARGET_POS.C = TAUGHT_START.C
LIN TARGET_POS C_DIS
CONTINUE
OFFSET_POS = {X 7.896, Y -5.334, Z 8.000, A 0, B 0, C 0}
TARGET_POS = TAUGHT_START
TARGET_POS.X = TAUGHT_START.X + OFFSET_POS.X
TARGET_POS.Y = TAUGHT_START.Y + OFFSET_POS.Y
TARGET_POS.Z = TAUGHT_START.Z + OFFSET_POS.Z
TARGET_POS.A = TAUGHT_START.A
TARGET_POS.B = TAUGHT_START.B
TARGET_POS.C = TAUGHT_START.C
LIN TARGET_POS C_DIS
CONTINUE
OFFSET_POS = {X 7.016, Y -5.130, Z 8.000, A 0, B 0, C 0}
TARGET_POS = TAUGHT_START
TARGET_POS.X = TAUGHT_START.X + OFFSET_POS.X
TARGET_POS.Y = TAUGHT_START.Y + OFFSET_POS.Y
TARGET_POS.Z = TAUGHT_START.Z + OFFSET_POS.Z
TARGET_POS.A = TAUGHT_START.A
TARGET_POS.B = TAUGHT_START.B
TARGET_POS.C = TAUGHT_START.C
LIN TARGET_POS C_DIS
CONTINUE
OFFSET_POS = {X 6.147, Y -4.878, Z 8.000, A 0, B 0, C 0}
TARGET_POS = TAUGHT_START
TARGET_POS.X = TAUGHT_START.X + OFFSET_POS.X
TARGET_POS.Y = TAUGHT_START.Y + OFFSET_POS.Y
TARGET_POS.Z = TAUGHT_START.Z + OFFSET_POS.Z
TARGET_POS.A = TAUGHT_START.A
TARGET_POS.B = TAUGHT_START.B
TARGET_POS.C = TAUGHT_START.C
LIN TARGET_POS C_DIS
CONTINUE
OFFSET_POS = {X 5.300, Y -4.589, Z 8.000, A 0, B 0, C 0}
TARGET_POS = TAUGHT_START
TARGET_POS.X = TAUGHT_START.X + OFFSET_POS.X
TARGET_POS.Y = TAUGHT_START.Y + OFFSET_POS.Y
TARGET_POS.Z = TAUGHT_START.Z + OFFSET_POS.Z
TARGET_POS.A = TAUGHT_START.A
TARGET_POS.B = TAUGHT_START.B
TARGET_POS.C = TAUGHT_START.C
LIN TARGET_POS C_DIS
CONTINUE
OFFSET_POS = {X 4.485, Y -4.271, Z 8.000, A 0, B 0, C 0}
TARGET_POS = TAUGHT_START
TARGET_POS.X = TAUGHT_START.X + OFFSET_POS.X
TARGET_POS.Y = TAUGHT_START.Y + OFFSET_POS.Y
TARGET_POS.Z = TAUGHT_START.Z + OFFSET_POS.Z
TARGET_POS.A = TAUGHT_START.A
TARGET_POS.B = TAUGHT_START.B
TARGET_POS.C = TAUGHT_START.C
LIN TARGET_POS C_DIS
CONTINUE
OFFSET_POS = {X 3.713, Y -3.935, Z 8.000, A 0, B 0, C 0}
TARGET_POS = TAUGHT_START
TARGET_POS.X = TAUGHT_START.X + OFFSET_POS.X
TARGET_POS.Y = TAUGHT_START.Y + OFFSET_POS.Y
TARGET_POS.Z = TAUGHT_START.Z + OFFSET_POS.Z
TARGET_POS.A = TAUGHT_START.A
TARGET_POS.B = TAUGHT_START.B
TARGET_POS.C = TAUGHT_START.C
LIN TARGET_POS C_DIS
CONTINUE
OFFSET_POS = {X 2.996, Y -3.589, Z 8.000, A 0, B 0, C 0}
TARGET_POS = TAUGHT_START
TARGET_POS.X = TAUGHT_START.X + OFFSET_POS.X
TARGET_POS.Y = TAUGHT_START.Y + OFFSET_POS.Y
TARGET_POS.Z = TAUGHT_START.Z + OFFSET_POS.Z
TARGET_POS.A = TAUGHT_START.A
TARGET_POS.B = TAUGHT_START.B
TARGET_POS.C = TAUGHT_START.C
LIN TARGET_POS C_DIS
CONTINUE
OFFSET_POS = {X 2.344, Y -3.242, Z 8.000, A 0, B 0, C 0}
TARGET_POS = TAUGHT_START
TARGET_POS.X = TAUGHT_START.X + OFFSET_POS.X
TARGET_POS.Y = TAUGHT_START.Y + OFFSET_POS.Y
TARGET_POS.Z = TAUGHT_START.Z + OFFSET_POS.Z
TARGET_POS.A = TAUGHT_START.A
TARGET_POS.B = TAUGHT_START.B
TARGET_POS.C = TAUGHT_START.C
LIN TARGET_POS C_DIS
CONTINUE
OFFSET_POS = {X 1.764, Y -2.900, Z 8.000, A 0, B 0, C 0}
TARGET_POS = TAUGHT_START
TARGET_POS.X = TAUGHT_START.X + OFFSET_POS.X
TARGET_POS.Y = TAUGHT_START.Y + OFFSET_POS.Y
TARGET_POS.Z = TAUGHT_START.Z + OFFSET_POS.Z
TARGET_POS.A = TAUGHT_START.A
TARGET_POS.B = TAUGHT_START.B
TARGET_POS.C = TAUGHT_START.C
LIN TARGET_POS C_DIS
CONTINUE
OFFSET_POS = {X 1.262, Y -2.569, Z 8.000, A 0, B 0, C 0}
TARGET_POS = TAUGHT_START
TARGET_POS.X = TAUGHT_START.X + OFFSET_POS.X
TARGET_POS.Y = TAUGHT_START.Y + OFFSET_POS.Y
TARGET_POS.Z = TAUGHT_START.Z + OFFSET_POS.Z
TARGET_POS.A = TAUGHT_START.A
TARGET_POS.B = TAUGHT_START.B
TARGET_POS.C = TAUGHT_START.C
LIN TARGET_POS C_DIS
CONTINUE
OFFSET_POS = {X 0.801, Y -2.209, Z 8.000, A 0, B 0, C 0}
TARGET_POS = TAUGHT_START
TARGET_POS.X = TAUGHT_START.X + OFFSET_POS.X
TARGET_POS.Y = TAUGHT_START.Y + OFFSET_POS.Y
TARGET_POS.Z = TAUGHT_START.Z + OFFSET_POS.Z
TARGET_POS.A = TAUGHT_START.A
TARGET_POS.B = TAUGHT_START.B
TARGET_POS.C = TAUGHT_START.C
LIN TARGET_POS C_DIS
CONTINUE
OFFSET_POS = {X 0.388, Y -1.807, Z 8.000, A 0, B 0, C 0}
TARGET_POS = TAUGHT_START
TARGET_POS.X = TAUGHT_START.X + OFFSET_POS.X
TARGET_POS.Y = TAUGHT_START.Y + OFFSET_POS.Y
TARGET_POS.Z = TAUGHT_START.Z + OFFSET_POS.Z
TARGET_POS.A = TAUGHT_START.A
TARGET_POS.B = TAUGHT_START.B
TARGET_POS.C = TAUGHT_START.C
LIN TARGET_POS C_DIS
CONTINUE
OFFSET_POS = {X 0.142, Y -1.462, Z 8.000, A 0, B 0, C 0}
TARGET_POS = TAUGHT_START
TARGET_POS.X = TAUGHT_START.X + OFFSET_POS.X
TARGET_POS.Y = TAUGHT_START.Y + OFFSET_POS.Y
TARGET_POS.Z = TAUGHT_START.Z + OFFSET_POS.Z
TARGET_POS.A = TAUGHT_START.A
TARGET_POS.B = TAUGHT_START.B
TARGET_POS.C = TAUGHT_START.C
LIN TARGET_POS C_DIS
CONTINUE
OFFSET_POS = {X -0.065, Y -0.950, Z 8.000, A 0, B 0, C 0}
TARGET_POS = TAUGHT_START
TARGET_POS.X = TAUGHT_START.X + OFFSET_POS.X
TARGET_POS.Y = TAUGHT_START.Y + OFFSET_POS.Y
TARGET_POS.Z = TAUGHT_START.Z + OFFSET_POS.Z
TARGET_POS.A = TAUGHT_START.A
TARGET_POS.B = TAUGHT_START.B
TARGET_POS.C = TAUGHT_START.C
LIN TARGET_POS C_DIS
CONTINUE
OFFSET_POS = {X -0.119, Y -0.548, Z 8.000, A 0, B 0, C 0}
TARGET_POS = TAUGHT_START
TARGET_POS.X = TAUGHT_START.X + OFFSET_POS.X
TARGET_POS.Y = TAUGHT_START.Y + OFFSET_POS.Y
TARGET_POS.Z = TAUGHT_START.Z + OFFSET_POS.Z
TARGET_POS.A = TAUGHT_START.A
TARGET_POS.B = TAUGHT_START.B
TARGET_POS.C = TAUGHT_START.C
LIN TARGET_POS C_DIS
CONTINUE
OFFSET_POS = {X -0.076, Y -0.185, Z 8.000, A 0, B 0, C 0}
TARGET_POS = TAUGHT_START
TARGET_POS.X = TAUGHT_START.X + OFFSET_POS.X
TARGET_POS.Y = TAUGHT_START.Y + OFFSET_POS.Y
TARGET_POS.Z = TAUGHT_START.Z + OFFSET_POS.Z
TARGET_POS.A = TAUGHT_START.A
TARGET_POS.B = TAUGHT_START.B
TARGET_POS.C = TAUGHT_START.C
LIN TARGET_POS C_DIS
CONTINUE
OFFSET_POS = {X 0.000, Y 0.000, Z 8.000, A 0, B 0, C 0}
TARGET_POS = TAUGHT_START
TARGET_POS.X = TAUGHT_START.X + OFFSET_POS.X
TARGET_POS.Y = TAUGHT_START.Y + OFFSET_POS.Y
TARGET_POS.Z = TAUGHT_START.Z + OFFSET_POS.Z
TARGET_POS.A = TAUGHT_START.A
TARGET_POS.B = TAUGHT_START.B
TARGET_POS.C = TAUGHT_START.C
LIN TARGET_POS C_DIS
$OUT[1] = FALSE
WAIT SEC 0.200
WAIT SEC 55.00
; ;LAYER_CHANGE
; ;Z:10
OFFSET_POS = {X 0.000, Y 0.000, Z 10.000, A 0, B 0, C 0}
TARGET_POS = TAUGHT_START
TARGET_POS.X = TAUGHT_START.X + OFFSET_POS.X
TARGET_POS.Y = TAUGHT_START.Y + OFFSET_POS.Y
TARGET_POS.Z = TAUGHT_START.Z + OFFSET_POS.Z
TARGET_POS.A = TAUGHT_START.A
TARGET_POS.B = TAUGHT_START.B
TARGET_POS.C = TAUGHT_START.C
LIN TARGET_POS C_DIS
$OUT[1] = TRUE
WAIT SEC 0.200
OFFSET_POS = {X -0.076, Y -0.185, Z 10.000, A 0, B 0, C 0}
TARGET_POS = TAUGHT_START
TARGET_POS.X = TAUGHT_START.X + OFFSET_POS.X
TARGET_POS.Y = TAUGHT_START.Y + OFFSET_POS.Y
TARGET_POS.Z = TAUGHT_START.Z + OFFSET_POS.Z
TARGET_POS.A = TAUGHT_START.A
TARGET_POS.B = TAUGHT_START.B
TARGET_POS.C = TAUGHT_START.C
LIN TARGET_POS C_DIS
CONTINUE
OFFSET_POS = {X -0.119, Y -0.548, Z 10.000, A 0, B 0, C 0}
TARGET_POS = TAUGHT_START
TARGET_POS.X = TAUGHT_START.X + OFFSET_POS.X
TARGET_POS.Y = TAUGHT_START.Y + OFFSET_POS.Y
TARGET_POS.Z = TAUGHT_START.Z + OFFSET_POS.Z
TARGET_POS.A = TAUGHT_START.A
TARGET_POS.B = TAUGHT_START.B
TARGET_POS.C = TAUGHT_START.C
LIN TARGET_POS C_DIS
CONTINUE
OFFSET_POS = {X -0.065, Y -0.950, Z 10.000, A 0, B 0, C 0}
TARGET_POS = TAUGHT_START
TARGET_POS.X = TAUGHT_START.X + OFFSET_POS.X
TARGET_POS.Y = TAUGHT_START.Y + OFFSET_POS.Y
TARGET_POS.Z = TAUGHT_START.Z + OFFSET_POS.Z
TARGET_POS.A = TAUGHT_START.A
TARGET_POS.B = TAUGHT_START.B
TARGET_POS.C = TAUGHT_START.C
LIN TARGET_POS C_DIS
CONTINUE
OFFSET_POS = {X 0.142, Y -1.462, Z 10.000, A 0, B 0, C 0}
TARGET_POS = TAUGHT_START
TARGET_POS.X = TAUGHT_START.X + OFFSET_POS.X
TARGET_POS.Y = TAUGHT_START.Y + OFFSET_POS.Y
TARGET_POS.Z = TAUGHT_START.Z + OFFSET_POS.Z
TARGET_POS.A = TAUGHT_START.A
TARGET_POS.B = TAUGHT_START.B
TARGET_POS.C = TAUGHT_START.C
LIN TARGET_POS C_DIS
CONTINUE
OFFSET_POS = {X 0.388, Y -1.807, Z 10.000, A 0, B 0, C 0}
TARGET_POS = TAUGHT_START
TARGET_POS.X = TAUGHT_START.X + OFFSET_POS.X
TARGET_POS.Y = TAUGHT_START.Y + OFFSET_POS.Y
TARGET_POS.Z = TAUGHT_START.Z + OFFSET_POS.Z
TARGET_POS.A = TAUGHT_START.A
TARGET_POS.B = TAUGHT_START.B
TARGET_POS.C = TAUGHT_START.C
LIN TARGET_POS C_DIS
CONTINUE
OFFSET_POS = {X 0.801, Y -2.209, Z 10.000, A 0, B 0, C 0}
TARGET_POS = TAUGHT_START
TARGET_POS.X = TAUGHT_START.X + OFFSET_POS.X
TARGET_POS.Y = TAUGHT_START.Y + OFFSET_POS.Y
TARGET_POS.Z = TAUGHT_START.Z + OFFSET_POS.Z
TARGET_POS.A = TAUGHT_START.A
TARGET_POS.B = TAUGHT_START.B
TARGET_POS.C = TAUGHT_START.C
LIN TARGET_POS C_DIS
CONTINUE
OFFSET_POS = {X 1.262, Y -2.569, Z 10.000, A 0, B 0, C 0}
TARGET_POS = TAUGHT_START
TARGET_POS.X = TAUGHT_START.X + OFFSET_POS.X
TARGET_POS.Y = TAUGHT_START.Y + OFFSET_POS.Y
TARGET_POS.Z = TAUGHT_START.Z + OFFSET_POS.Z
TARGET_POS.A = TAUGHT_START.A
TARGET_POS.B = TAUGHT_START.B
TARGET_POS.C = TAUGHT_START.C
LIN TARGET_POS C_DIS
CONTINUE
OFFSET_POS = {X 1.764, Y -2.900, Z 10.000, A 0, B 0, C 0}
TARGET_POS = TAUGHT_START
TARGET_POS.X = TAUGHT_START.X + OFFSET_POS.X
TARGET_POS.Y = TAUGHT_START.Y + OFFSET_POS.Y
TARGET_POS.Z = TAUGHT_START.Z + OFFSET_POS.Z
TARGET_POS.A = TAUGHT_START.A
TARGET_POS.B = TAUGHT_START.B
TARGET_POS.C = TAUGHT_START.C
LIN TARGET_POS C_DIS
CONTINUE
OFFSET_POS = {X 2.344, Y -3.242, Z 10.000, A 0, B 0, C 0}
TARGET_POS = TAUGHT_START
TARGET_POS.X = TAUGHT_START.X + OFFSET_POS.X
TARGET_POS.Y = TAUGHT_START.Y + OFFSET_POS.Y
TARGET_POS.Z = TAUGHT_START.Z + OFFSET_POS.Z
TARGET_POS.A = TAUGHT_START.A
TARGET_POS.B = TAUGHT_START.B
TARGET_POS.C = TAUGHT_START.C
LIN TARGET_POS C_DIS
CONTINUE
OFFSET_POS = {X 2.996, Y -3.589, Z 10.000, A 0, B 0, C 0}
TARGET_POS = TAUGHT_START
TARGET_POS.X = TAUGHT_START.X + OFFSET_POS.X
TARGET_POS.Y = TAUGHT_START.Y + OFFSET_POS.Y
TARGET_POS.Z = TAUGHT_START.Z + OFFSET_POS.Z
TARGET_POS.A = TAUGHT_START.A
TARGET_POS.B = TAUGHT_START.B
TARGET_POS.C = TAUGHT_START.C
LIN TARGET_POS C_DIS
CONTINUE
OFFSET_POS = {X 3.713, Y -3.935, Z 10.000, A 0, B 0, C 0}
TARGET_POS = TAUGHT_START
TARGET_POS.X = TAUGHT_START.X + OFFSET_POS.X
TARGET_POS.Y = TAUGHT_START.Y + OFFSET_POS.Y
TARGET_POS.Z = TAUGHT_START.Z + OFFSET_POS.Z
TARGET_POS.A = TAUGHT_START.A
TARGET_POS.B = TAUGHT_START.B
TARGET_POS.C = TAUGHT_START.C
LIN TARGET_POS C_DIS
CONTINUE
OFFSET_POS = {X 4.485, Y -4.271, Z 10.000, A 0, B 0, C 0}
TARGET_POS = TAUGHT_START
TARGET_POS.X = TAUGHT_START.X + OFFSET_POS.X
TARGET_POS.Y = TAUGHT_START.Y + OFFSET_POS.Y
TARGET_POS.Z = TAUGHT_START.Z + OFFSET_POS.Z
TARGET_POS.A = TAUGHT_START.A
TARGET_POS.B = TAUGHT_START.B
TARGET_POS.C = TAUGHT_START.C
LIN TARGET_POS C_DIS
CONTINUE
OFFSET_POS = {X 5.300, Y -4.589, Z 10.000, A 0, B 0, C 0}
TARGET_POS = TAUGHT_START
TARGET_POS.X = TAUGHT_START.X + OFFSET_POS.X
TARGET_POS.Y = TAUGHT_START.Y + OFFSET_POS.Y
TARGET_POS.Z = TAUGHT_START.Z + OFFSET_POS.Z
TARGET_POS.A = TAUGHT_START.A
TARGET_POS.B = TAUGHT_START.B
TARGET_POS.C = TAUGHT_START.C
LIN TARGET_POS C_DIS
CONTINUE
OFFSET_POS = {X 6.147, Y -4.878, Z 10.000, A 0, B 0, C 0}
TARGET_POS = TAUGHT_START
TARGET_POS.X = TAUGHT_START.X + OFFSET_POS.X
TARGET_POS.Y = TAUGHT_START.Y + OFFSET_POS.Y
TARGET_POS.Z = TAUGHT_START.Z + OFFSET_POS.Z
TARGET_POS.A = TAUGHT_START.A
TARGET_POS.B = TAUGHT_START.B
TARGET_POS.C = TAUGHT_START.C
LIN TARGET_POS C_DIS
CONTINUE
OFFSET_POS = {X 7.016, Y -5.130, Z 10.000, A 0, B 0, C 0}
TARGET_POS = TAUGHT_START
TARGET_POS.X = TAUGHT_START.X + OFFSET_POS.X
TARGET_POS.Y = TAUGHT_START.Y + OFFSET_POS.Y
TARGET_POS.Z = TAUGHT_START.Z + OFFSET_POS.Z
TARGET_POS.A = TAUGHT_START.A
TARGET_POS.B = TAUGHT_START.B
TARGET_POS.C = TAUGHT_START.C
LIN TARGET_POS C_DIS
CONTINUE
OFFSET_POS = {X 7.896, Y -5.334, Z 10.000, A 0, B 0, C 0}
TARGET_POS = TAUGHT_START
TARGET_POS.X = TAUGHT_START.X + OFFSET_POS.X
TARGET_POS.Y = TAUGHT_START.Y + OFFSET_POS.Y
TARGET_POS.Z = TAUGHT_START.Z + OFFSET_POS.Z
TARGET_POS.A = TAUGHT_START.A
TARGET_POS.B = TAUGHT_START.B
TARGET_POS.C = TAUGHT_START.C
LIN TARGET_POS C_DIS
CONTINUE
OFFSET_POS = {X 8.777, Y -5.482, Z 10.000, A 0, B 0, C 0}
TARGET_POS = TAUGHT_START
TARGET_POS.X = TAUGHT_START.X + OFFSET_POS.X
TARGET_POS.Y = TAUGHT_START.Y + OFFSET_POS.Y
TARGET_POS.Z = TAUGHT_START.Z + OFFSET_POS.Z
TARGET_POS.A = TAUGHT_START.A
TARGET_POS.B = TAUGHT_START.B
TARGET_POS.C = TAUGHT_START.C
LIN TARGET_POS C_DIS
CONTINUE
