; generated by PrusaSlicer 2.9.4 on 2026-03-09 at 19:05:38 UTC

; 

; external perimeters extrusion width = 4.50mm
; perimeters extrusion width = 4.50mm
; infill extrusion width = 4.50mm
; solid infill extrusion width = 4.50mm
; top infill extrusion width = 4.50mm
; first layer extrusion width = 4.50mm

; external perimeters extrusion width = 4.50mm
; perimeters extrusion width = 4.50mm
; infill extrusion width = 4.50mm
; solid infill extrusion width = 4.50mm
; top infill extrusion width = 4.50mm
; first layer extrusion width = 4.50mm

M104 S200 ; set temperature
;TYPE:Custom
G28 ; home all axes
G1 Z5 F5000 ; lift nozzle
M109 S200 ; set temperature and wait for it to be reached
G21 ; set units to millimeters
G90 ; use absolute coordinates
M82 ; use absolute distances for extrusion
G92 E0
; Filament gcode
M107
;LAYER_CHANGE
;Z:2
;HEIGHT:2
G1 Z2 F7800
G1 X363.583 Y27.296
;TYPE:Perimeter
;WIDTH:4.52388
G1 X363.343 Y27.046 E2.14454
;WIDTH:4.51016
G1 X363.001 Y26.653 E2.3611
;WIDTH:4.5
G1 X362.686 Y26.258 E2.57059
G1 X362.114 Y25.424 E2.98993
G1 X361.854 Y24.976 E3.20471
G1 X361.622 Y24.525 E3.41501
G1 X361.166 Y23.42 E3.91068
G1 X360.866 Y22.37 E4.36348
G1 X360.75 Y21.791 E4.60833
G1 X360.639 Y20.879 E4.98928
G1 X360.633 Y20.733 E5.04987
G1 X359.874 Y20.238 E5.4256
G1 X359.337 Y19.864 E5.69695
G1 X358.707 Y19.352 E6.03357
G1 X358.253 Y18.927 E6.29143
G1 X356.045 Y16.73 E7.58298
G1 X355.558 Y16.212 E7.87779
G1 X354.891 Y15.361 E8.32613
G1 X354.343 Y14.537 E8.73646
G1 X353.01 Y12.516 E9.74033
G1 X352.743 Y12.089 E9.94915
G1 X352.496 Y11.646 E10.15946
G1 X352.207 Y11.048 E10.43486
G1 X351.694 Y9.778 E11.0028
G1 X350.898 Y7.772 E11.89768
G1 X350.671 Y7.14 E12.17613
G1 X350.441 Y6.308 E12.53406
G1 X350.332 Y5.767 E12.76289
G1 X349.796 Y2.698 E14.05471
G1 X349.71 Y2.104 E14.30358
G1 X349.66 Y1.512 E14.54993
G1 X349.65 Y.619 E14.92023
G1 X349.751 Y-2.495 E16.21212
G1 X349.813 Y-3.333 E16.56054
G1 X349.886 Y-3.847 E16.77581
G1 X350.031 Y-4.56 E17.07751
G1 X350.764 Y-7.588 E18.36933
G1 X350.96 Y-8.285 E18.66955
G1 X351.177 Y-8.898 E18.93919
G1 X351.453 Y-9.538 E19.22819
G1 X352.794 Y-12.367 E20.52634
G1 X353.063 Y-12.895 E20.77205
G1 X353.401 Y-13.467 E21.04754
G1 X353.875 Y-14.149 E21.39192
G1 X355.755 Y-16.634 E22.68397
G1 X356.157 Y-17.132 E22.94935
G1 X356.504 Y-17.515 E23.16365
G1 X357.176 Y-18.158 E23.5493
G1 X359.522 Y-20.207 E24.84085
G1 X360.127 Y-20.696 E25.16341
G1 X360.596 Y-21.027 E25.40143
G1 X361.224 Y-21.41 E25.70644
G1 X363.941 Y-22.94 E26.99938
G1 X364.713 Y-23.332 E27.35839
G1 X365.507 Y-23.654 E27.71366
G1 X366.797 Y-24.071 E28.27581
G1 X368.819 Y-24.713 E29.15547
G1 X369.577 Y-24.922 E29.4815
G1 X370.3 Y-25.065 E29.7871
G1 X370.859 Y-25.138 E30.02086
G1 X373.958 Y-25.457 E31.31264
G1 X374.784 Y-25.508 E31.65579
G1 X375.865 Y-25.474 E32.10425
G1 X376.789 Y-25.38 E32.48936
G1 X379.141 Y-25.138 E33.46976
G1 X379.698 Y-25.065 E33.70269
G1 X380.254 Y-24.961 E33.93723
G1 X380.899 Y-24.799 E34.21298
G1 X382.255 Y-24.372 E34.80246
G1 X384.151 Y-23.77 E35.62731
G1 X384.891 Y-23.503 E35.95351
G1 X385.674 Y-23.146 E36.31033
G1 X386.894 Y-22.47 E36.88867
G1 X388.776 Y-21.41 E37.7843
G1 X389.339 Y-21.069 E38.05723
G1 X389.873 Y-20.696 E38.32732
G1 X390.478 Y-20.207 E38.64988
G1 X392.824 Y-18.158 E39.94143
G1 X393.219 Y-17.794 E40.16415
G1 X393.757 Y-17.23 E40.48735
G1 X394.245 Y-16.634 E40.80675
G1 X396.125 Y-14.149 E42.0988
G1 X396.603 Y-13.461 E42.44617
G1 X396.935 Y-12.899 E42.71683
G1 X397.206 Y-12.368 E42.96402
G1 X398.547 Y-9.538 E44.26255
G1 X398.823 Y-8.898 E44.55155
G1 X399.04 Y-8.285 E44.82119
G1 X399.236 Y-7.588 E45.12141
G1 X399.969 Y-4.56 E46.41323
G1 X400.114 Y-3.847 E46.71493
G1 X400.187 Y-3.333 E46.9302
G1 X400.249 Y-2.495 E47.27862
G1 X400.35 Y.619 E48.57051
G1 X400.34 Y1.512 E48.94081
G1 X400.295 Y2.056 E49.16715
G1 X400.204 Y2.698 E49.43601
G1 X399.668 Y5.767 E50.72783
G1 X399.559 Y6.309 E50.95707
G1 X399.412 Y6.871 E51.19794
G1 X399.19 Y7.543 E51.49139
G1 X398.837 Y8.439 E51.89071
G1 X397.952 Y10.669 E52.88553
G1 X397.609 Y11.439 E53.23505
G1 X397.258 Y12.087 E53.54063
G1 X396.99 Y12.516 E53.75037
G1 X395.275 Y15.117 E55.04221
G1 X394.754 Y15.836 E55.41038
G1 X393.999 Y16.687 E55.8821
G1 X391.747 Y18.927 E57.19916
G1 X391.293 Y19.352 E57.45702
G1 X390.81 Y19.751 E57.71679
G1 X390.327 Y20.104 E57.96485
G1 X389.367 Y20.733 E58.44075
G1 X389.287 Y21.553 E58.78238
G1 X389.173 Y22.196 E59.05316
G1 X388.969 Y23.001 E59.3975
G1 X388.584 Y24.07 E59.86863
G1 X388.147 Y24.974 E60.28497
G1 X387.887 Y25.423 E60.50011
G1 X387.601 Y25.863 E60.71771
G1 X386.998 Y26.653 E61.1298
;WIDTH:4.51016
G1 X386.657 Y27.046 E61.34609
;WIDTH:4.52388
G1 X386.287 Y27.432 E61.5691
;WIDTH:4.54353
G1 X385.709 Y27.96 E61.89718
;WIDTH:4.55723
G1 X385.278 Y28.306 E62.12958
;WIDTH:4.57679
G1 X384.622 Y28.764 E62.46758
G1 X384.108 Y29.046 E62.71526
;WIDTH:4.54495
G1 X383.581 Y29.309 E62.96218
;WIDTH:4.56507
G1 X383.049 Y29.559 E63.20981
;WIDTH:4.60052
G1 X382.782 Y29.677 E63.33384
;WIDTH:4.63597
G1 X382.514 Y29.796 E63.45949
G1 X382.325 Y29.833 E63.54201
;WIDTH:4.59463
G1 X382.136 Y29.87 E63.62372
;WIDTH:4.5533
G1 X381.947 Y29.907 E63.70462
;WIDTH:4.51196
G1 X381.66 Y29.956 E63.8257
;WIDTH:4.46967
G1 X381.372 Y30.005 E63.94593
;WIDTH:4.42737
G1 X380.792 Y30.092 E64.18478
;WIDTH:4.38304
G1 X380.209 Y30.165 E64.42141
;WIDTH:4.42349
G1 X379.382 Y30.234 E64.75905
;WIDTH:4.46461
G1 X378.748 Y30.256 E65.01981
;WIDTH:4.49007
G1 X378.262 Y30.269 E65.22091
;WIDTH:4.51552
G1 X377.777 Y30.282 E65.42285
;WIDTH:4.54497
G1 X377.354 Y30.296 E65.60028
;WIDTH:4.57442
G1 X376.932 Y30.311 E65.77857
;WIDTH:4.61054
G1 X376.596 Y30.329 E65.92188
;WIDTH:4.64666
G1 X376.261 Y30.347 E66.066
;WIDTH:4.68278
G1 X375.926 Y30.365 E66.21135
;WIDTH:4.72821
G1 X375.617 Y30.388 E66.34703
;WIDTH:4.77365
G1 X375.309 Y30.411 E66.48371
;WIDTH:4.81909
G1 X375 Y30.434 E66.62226
G1 X374.691 Y30.411 E66.76081
;WIDTH:4.77365
G1 X374.383 Y30.388 E66.89749
;WIDTH:4.72821
G1 X374.074 Y30.365 E67.03317
;WIDTH:4.68278
G1 X373.766 Y30.348 E67.16682
;WIDTH:4.64905
G1 X373.457 Y30.332 E67.29982
;WIDTH:4.61532
G1 X373.149 Y30.315 E67.43135
;WIDTH:4.58159
G1 X372.686 Y30.298 E67.62731
;WIDTH:4.54855
G1 X372.223 Y30.282 E67.8217
;WIDTH:4.51552
G1 X371.738 Y30.269 E68.02364
;WIDTH:4.49007
G1 X371.252 Y30.256 E68.22474
;WIDTH:4.46461
G1 X370.605 Y30.234 E68.49084
;WIDTH:4.4226
G1 X369.795 Y30.165 E68.82151
;WIDTH:4.38288
G1 X369.211 Y30.092 E69.05853
;WIDTH:4.4221
G1 X368.676 Y30.013 E69.27848
;WIDTH:4.46693
G1 X368.365 Y29.96 E69.40823
;WIDTH:4.51175
G1 X368.054 Y29.907 E69.53942
;WIDTH:4.55316
G1 X367.865 Y29.87 E69.62032
;WIDTH:4.59456
G1 X367.675 Y29.833 E69.70245
;WIDTH:4.63596
G1 X367.486 Y29.796 E69.78497
G1 X367.218 Y29.677 E69.91062
;WIDTH:4.60051
G1 X366.951 Y29.559 E70.03465
;WIDTH:4.56506
G1 X366.419 Y29.309 E70.28228
;WIDTH:4.54495
G1 X365.892 Y29.046 E70.5292
;WIDTH:4.57679
G1 X365.378 Y28.764 E70.77688
G1 X364.722 Y28.306 E71.11488
;WIDTH:4.55723
G1 X364.291 Y27.96 E71.34728
;WIDTH:4.54353
G1 X364.017 Y27.71 E71.50272
G1 X366.469 Y24.409 F7800
;WIDTH:4.5
G1 X366.115 Y24.031 E2.21474
G1 X365.754 Y23.556 E2.46212
G1 X365.427 Y23.025 E2.7207
G1 X365.165 Y22.483 E2.97032
G1 X364.933 Y21.839 E3.25415
G1 X364.787 Y21.241 E3.50939
G1 X364.679 Y20.431 E3.84823
G1 X364.679 Y18.511 E4.64435
G1 X362.096 Y16.828 E5.92268
G1 X361.686 Y16.536 E6.13139
G1 X361.124 Y16.041 E6.44192
G1 X358.915 Y13.844 E7.73377
G1 X358.517 Y13.407 E7.97886
G1 X358.173 Y12.95 E8.21604
G1 X356.409 Y10.275 E9.54468
G1 X356.1 Y9.753 E9.79621
G1 X355.831 Y9.167 E10.06357
G1 X354.682 Y6.271 E11.35545
G1 X354.496 Y5.73 E11.59266
G1 X354.354 Y5.138 E11.84509
G1 X353.806 Y1.998 E13.16676
G1 X353.725 Y1.287 E13.46348
G1 X353.719 Y.751 E13.68575
G1 X353.82 Y-2.363 E14.97764
G1 X353.857 Y-2.866 E15.18677
G1 X353.935 Y-3.36 E15.39414
G1 X354.186 Y-4.422 E15.84663
G1 X354.721 Y-6.63 E16.78866
G1 X354.889 Y-7.201 E17.03546
G1 X355.134 Y-7.8 E17.30381
G1 X356.473 Y-10.624 E18.59974
G1 X356.768 Y-11.174 E18.85853
G1 X357.121 Y-11.693 E19.11879
G1 X359.001 Y-14.177 E20.41051
G1 X359.45 Y-14.706 E20.69822
G1 X359.853 Y-15.092 E20.92961
G1 X362.2 Y-17.141 E22.22148
G1 X362.845 Y-17.633 E22.55785
G1 X363.608 Y-18.081 E22.92473
G1 X365.937 Y-19.392 E24.03293
G1 X366.401 Y-19.628 E24.24878
G1 X366.877 Y-19.821 E24.46176
G1 X368.03 Y-20.191 E24.96386
G1 X370.052 Y-20.834 E25.84365
G1 X370.605 Y-20.982 E26.08102
G1 X371.276 Y-21.089 E26.36276
G1 X374.375 Y-21.407 E27.6545
G1 X375 Y-21.44 E27.91402
G1 X375.519 Y-21.417 E28.12943
G1 X378.724 Y-21.088 E29.46536
G1 X379.392 Y-20.982 E29.74581
G1 X379.948 Y-20.834 E29.98438
G1 X382.933 Y-19.885 E31.28315
G1 X383.502 Y-19.671 E31.53522
G1 X384.061 Y-19.394 E31.79391
G1 X386.779 Y-17.863 E33.08742
G1 X387.437 Y-17.435 E33.4129
G1 X388.32 Y-16.687 E33.89275
G1 X390.147 Y-15.092 E34.89838
G1 X390.548 Y-14.707 E35.12888
G1 X390.999 Y-14.177 E35.41744
G1 X392.879 Y-11.693 E36.70916
G1 X393.165 Y-11.28 E36.91746
G1 X393.449 Y-10.784 E37.15445
G1 X393.879 Y-9.882 E37.56879
G1 X394.866 Y-7.8 E38.52418
G1 X395.111 Y-7.201 E38.79253
G1 X395.279 Y-6.63 E39.03933
G1 X396.012 Y-3.602 E40.33115
G1 X396.143 Y-2.866 E40.64113
G1 X396.18 Y-2.363 E40.85026
G1 X396.281 Y.751 E42.14215
G1 X396.275 Y1.287 E42.36442
G1 X396.194 Y1.998 E42.66114
G1 X395.658 Y5.068 E43.95337
G1 X395.529 Y5.644 E44.19812
G1 X395.371 Y6.133 E44.4112
G1 X395.054 Y6.937 E44.76955
G1 X394.169 Y9.167 E45.76437
G1 X393.963 Y9.629 E45.97412
G1 X393.658 Y10.174 E46.23308
G1 X391.876 Y12.876 E47.57518
G1 X391.564 Y13.308 E47.79614
G1 X391.111 Y13.818 E48.07899
G1 X388.876 Y16.041 E49.38608
G1 X388.314 Y16.536 E49.69661
G1 X387.904 Y16.828 E49.90532
G1 X385.321 Y18.511 E51.18365
G1 X385.321 Y20.097 E51.84128
G1 X385.258 Y20.97 E52.20421
G1 X385.067 Y21.839 E52.57314
G1 X384.836 Y22.481 E52.85605
G1 X384.574 Y23.023 E53.10567
G1 X384.246 Y23.557 E53.36553
G1 X383.885 Y24.031 E53.61258
G1 X383.453 Y24.493 E53.87485
G1 X382.842 Y25.009 E54.20646
G1 X382.376 Y25.321 E54.439
G1 X381.83 Y25.615 E54.69613
G1 X381.181 Y25.878 E54.98649
G1 X380.514 Y26.063 E55.2735
G1 X379.815 Y26.174 E55.56697
G1 X379.315 Y26.202 E55.77462
G1 X378.748 Y26.203 E56.00973
G1 X370.785 Y26.203 E59.31157
G1 X370.187 Y26.174 E59.55982
G1 X369.515 Y26.07 E59.84178
G1 X368.819 Y25.878 E60.14115
G1 X368.17 Y25.615 E60.43151
G1 X367.624 Y25.321 E60.68864
G1 X367.158 Y25.009 E60.92118
G1 X366.918 Y24.806 E61.05152
G1 X366.918 Y25.989 F7800
G1 X369.359 Y25.989
G1 X369.359 Y21.535
;TYPE:External perimeter
G1 X369.298 Y21.486 E2.03244
G1 X368.999 Y21.073 E2.24386
G1 X368.801 Y20.552 E2.47497
G1 X368.75 Y20.097 E2.66482
G1 X368.75 Y15.876 E4.41505
G1 X367.3 Y15.309 E5.06062
G1 X366.929 Y15.118 E5.23364
G1 X364.319 Y13.417 E6.52542
G1 X363.995 Y13.155 E6.69819
G1 X361.786 Y10.958 E7.99004
G1 X361.522 Y10.635 E8.16302
G1 X359.807 Y8.034 E9.45486
G1 X359.61 Y7.652 E9.63308
G1 X358.465 Y4.769 E10.91934
G1 X358.352 Y4.368 E11.09209
G1 X357.817 Y1.299 E12.38384
G1 X357.787 Y.883 E12.55678
G1 X357.888 Y-2.231 E13.84867
G1 X357.963 Y-2.721 E14.05421
G1 X358.677 Y-5.672 E15.31314
G1 X358.816 Y-6.065 E15.48599
G1 X360.151 Y-8.88 E16.77783
G1 X360.367 Y-9.237 E16.95085
G1 X362.247 Y-11.721 E18.24257
G1 X362.666 Y-12.144 E18.48945
G1 X364.878 Y-14.075 E19.70697
G1 X365.218 Y-14.316 E19.87977
G1 X367.933 Y-15.845 E21.17179
G1 X368.315 Y-16.011 E21.34449
G1 X371.284 Y-16.954 E22.63618
G1 X371.692 Y-17.039 E22.80899
G1 X374.792 Y-17.358 E24.10119
G1 X375.173 Y-17.361 E24.25918
G1 X378.308 Y-17.039 E25.56594
G1 X378.89 Y-16.899 E25.81415
G1 X381.69 Y-16.009 E27.0324
G1 X382.067 Y-15.844 E27.20304
G1 X384.782 Y-14.316 E28.49485
G1 X385.122 Y-14.075 E28.66765
G1 X387.469 Y-12.026 E29.95952
G1 X387.903 Y-11.522 E30.23531
G1 X389.633 Y-9.237 E31.4237
G1 X389.932 Y-8.704 E31.67711
G1 X391.185 Y-6.062 E32.88957
G1 X391.323 Y-5.672 E33.06111
G1 X392.056 Y-2.644 E34.35293
G1 X392.112 Y-2.231 E34.52575
G1 X392.213 Y.883 E35.81764
G1 X392.183 Y1.299 E35.99058
G1 X391.648 Y4.368 E37.28233
G1 X391.466 Y4.942 E37.53202
G1 X390.385 Y7.665 E38.74682
G1 X390.193 Y8.034 E38.9193
G1 X388.478 Y10.635 E40.21114
G1 X388.214 Y10.958 E40.38412
G1 X386.005 Y13.155 E41.67597
G1 X385.681 Y13.417 E41.84874
G1 X383.071 Y15.118 E43.14052
G1 X382.7 Y15.309 E43.31354
G1 X381.25 Y15.876 E43.95911
G1 X381.25 Y20.097 E45.70934
G1 X381.199 Y20.552 E45.89919
G1 X381.001 Y21.072 E46.12991
G1 X380.702 Y21.486 E46.34166
G1 X380.292 Y21.824 E46.56199
G1 X379.87 Y22.024 E46.75563
G1 X379.415 Y22.123 E46.94871
G1 X378.748 Y22.132 E47.22531
G1 X370.785 Y22.132 E50.52715
G1 X370.239 Y22.058 E50.75562
G1 X369.841 Y21.886 E50.9354
G1 X368.832 Y18.015 F7800
G1 X364.894 Y18.395 F7800
G1 X364.894 Y25.989
G1 X385.106 Y25.989
G1 X389.665 Y31.284
;TYPE:Perimeter
;WIDTH:4.51016
G1 X389.487 Y31.342 E2.07782
;WIDTH:4.52388
G1 X388.986 Y31.529 E2.30086
;WIDTH:4.54353
G1 X388.045 Y31.914 E2.72695
;WIDTH:4.55723
G1 X387.37 Y32.173 E3.03095
;WIDTH:4.57679
G1 X386.459 Y32.501 E3.44001
G1 X385.922 Y32.736 E3.68765
;WIDTH:4.54495
G1 X385.392 Y32.993 E3.93458
;WIDTH:4.58016
G1 X384.73 Y33.335 E4.24963
;WIDTH:4.60806
G1 X384.45 Y33.501 E4.38818
;WIDTH:4.63597
G1 X384.169 Y33.666 E4.52781
G1 X383.753 Y33.972 E4.7491
G1 X383.017 Y33.883 E5.06677
G1 X382.824 Y33.894 E5.1496
;WIDTH:4.59463
G1 X382.632 Y33.904 E5.23117
;WIDTH:4.5533
G1 X382.44 Y33.914 E5.31193
;WIDTH:4.51196
G1 X382.125 Y33.937 E5.44328
;WIDTH:4.46704
G1 X381.81 Y33.961 E5.57321
;WIDTH:4.42213
G1 X381.275 Y34.014 E5.79187
;WIDTH:4.38304
G1 X380.691 Y34.084 E6.02875
;WIDTH:4.40732
G1 X380.078 Y34.158 E6.27895
;WIDTH:4.43525
G1 X379.466 Y34.232 E6.5305
;WIDTH:4.46461
G1 X378.959 Y34.281 E6.73987
;WIDTH:4.49007
G1 X378.475 Y34.319 E6.94069
;WIDTH:4.51552
G1 X377.99 Y34.357 E7.14318
;WIDTH:4.54855
G1 X377.607 Y34.395 E7.30467
;WIDTH:4.58159
G1 X377.223 Y34.434 E7.46792
;WIDTH:4.61532
G1 X376.97 Y34.472 E7.57701
;WIDTH:4.64905
G1 X376.716 Y34.511 E7.68747
;WIDTH:4.68278
G1 X376.462 Y34.55 E7.79881
;WIDTH:4.72821
G1 X376.141 Y34.627 E7.94336
;WIDTH:4.77365
G1 X375.82 Y34.703 E8.08934
;WIDTH:4.81909
G1 X375.499 Y34.78 E8.23695
G1 X375 Y34.978 E8.477
G1 X374.29 Y34.705 E8.81714
G1 X374.039 Y34.654 E8.93167
;WIDTH:4.77365
G1 X373.788 Y34.602 E9.0451
;WIDTH:4.72821
G1 X373.538 Y34.55 E9.15692
;WIDTH:4.68278
G1 X373.284 Y34.511 E9.26826
;WIDTH:4.64905
G1 X373.03 Y34.472 E9.37872
;WIDTH:4.61532
G1 X372.777 Y34.434 E9.48781
;WIDTH:4.58159
G1 X372.393 Y34.395 E9.65106
;WIDTH:4.54855
G1 X372.01 Y34.357 E9.81255
;WIDTH:4.51552
G1 X371.505 Y34.316 E10.02344
;WIDTH:4.49007
G1 X370.999 Y34.276 E10.23339
;WIDTH:4.46461
G1 X370.277 Y34.205 E10.53159
;WIDTH:4.4226
G1 X369.313 Y34.085 E10.92674
;WIDTH:4.38288
G1 X368.729 Y34.014 E11.16366
;WIDTH:4.42712
G1 X368.144 Y33.957 E11.40301
;WIDTH:4.46944
G1 X367.853 Y33.935 E11.52311
;WIDTH:4.51175
G1 X367.561 Y33.914 E11.64485
;WIDTH:4.55316
G1 X367.294 Y33.911 E11.75701
;WIDTH:4.59456
G1 X367.027 Y33.908 E11.8703
;WIDTH:4.63596
G1 X366.759 Y33.905 E11.98514
G1 X366.247 Y33.972 E12.2064
G1 X365.645 Y33.54 E12.5239
G1 X365.388 Y33.4 E12.6493
;WIDTH:4.60051
G1 X365.131 Y33.261 E12.77344
;WIDTH:4.56506
G1 X364.608 Y32.993 E13.02101
;WIDTH:4.54495
G1 X364.078 Y32.736 E13.26794
;WIDTH:4.57679
G1 X363.541 Y32.501 E13.51558
G1 X362.586 Y32.156 E13.94456
;WIDTH:4.55723
G1 X361.91 Y31.895 E14.24925
;WIDTH:4.54353
G1 X361.014 Y31.529 E14.65487
;WIDTH:4.52388
G1 X360.513 Y31.342 E14.87791
;WIDTH:4.51016
G1 X360.017 Y31.183 E15.09442
;WIDTH:4.5
G1 X359.53 Y31.048 E15.30397
G1 X358.676 Y30.873 E15.66544
G1 X358.008 Y30.79 E15.94455
G1 X357.729 Y30.443 E16.12917
G1 X357.321 Y29.988 E16.38258
G1 X356.949 Y29.619 E16.59984
G1 X356.565 Y29.273 E16.81417
G1 X355.77 Y28.661 E17.23018
G1 X354.939 Y28.082 E17.65014
G1 X354.366 Y27.666 E17.94375
G1 X353.576 Y27.066 E18.35509
G1 X353.065 Y26.703 E18.615
G1 X352.537 Y26.374 E18.87296
G1 X351.996 Y26.081 E19.12807
G1 X351.504 Y25.85 E19.35344
G1 X350.856 Y25.593 E19.64249
G1 X350.559 Y24.963 E19.93129
G1 X350.223 Y24.361 E20.21716
G1 X349.926 Y23.898 E20.44525
G1 X349.603 Y23.45 E20.67426
G1 X349.215 Y22.971 E20.92986
