; generated by PrusaSlicer 2.9.4 on 2026-05-17 at 15:14:08 UTC

; 

; external perimeters extrusion width = 4.50mm
; perimeters extrusion width = 4.50mm
; infill extrusion width = 4.50mm
; solid infill extrusion width = 4.50mm
; top infill extrusion width = 4.50mm
; first layer extrusion width = 4.50mm

M104 S200 ; set temperature
;TYPE:Custom
G28 ; home all axes
G1 Z5 F5000 ; lift nozzle
M109 S200 ; set temperature and wait for it to be reached
G21 ; set units to millimeters
G90 ; use absolute coordinates
M82 ; use absolute distances for extrusion
G92 E0
; Filament gcode
M107
;LAYER_CHANGE
;Z:2.5
;HEIGHT:2.5
G1 E-2 F2400
G92 E0
G1 Z2.5 F7800
G92 E0
G1 X374.264 Y-25.191
G1 E2 F2400
;TYPE:Perimeter
;WIDTH:4.23717
G1 F1800
G1 X374.26 Y-25.109 E2.03868
;WIDTH:4.28375
G1 X374.261 Y-24.256 E2.44566
;WIDTH:4.33033
G1 X374.261 Y-23.404 E2.85721
;WIDTH:4.35658
G1 X374.253 Y-22.827 E3.13788
;WIDTH:4.39524
G1 X374.251 Y-22.454 E3.32114
;WIDTH:4.4339
G1 X374.249 Y-22.08 E3.50673
G1 E1.50673 F2400
G92 E0
G1 X352.427 Y-12.649 F7800
G1 E2 F2400
;WIDTH:4.18494
G1 F1800
G1 X352.471 Y-12.621 E2.02423
;WIDTH:4.21927
G1 X353 Y-12.316 E2.31056
;WIDTH:4.25359
G1 X353.528 Y-12.012 E2.59891
;WIDTH:4.28791
G1 X354.057 Y-11.707 E2.89057
;WIDTH:4.3254
G1 X354.661 Y-11.349 E3.22929
;WIDTH:4.35581
G1 X354.871 Y-11.227 E3.34739
;WIDTH:4.38621
G1 X355.081 Y-11.105 E3.46643
G1 E1.46643 F2400
G92 E0
G1 X352.348 Y12.465 F7800
G1 E2 F2400
;WIDTH:4.15892
G1 F1800
G1 X352.354 Y12.461 E2.00333
;WIDTH:4.19315
G1 X352.882 Y12.156 E2.28722
;WIDTH:4.22739
G1 X353.409 Y11.85 E2.5736
;WIDTH:4.26162
G1 X353.937 Y11.545 E2.86281
;WIDTH:4.30031
G1 X354.548 Y11.202 E3.1986
;WIDTH:4.34138
G1 X354.78 Y11.069 E3.32815
;WIDTH:4.38245
G1 X355.013 Y10.936 E3.45953
;WIDTH:4.42352
G1 X355.245 Y10.803 E3.59188
G1 E1.59188 F2400
G92 E0
G1 X374.01 Y25.167 F7800
G1 E2 F2400
;WIDTH:4.1845
G1 F1800
G1 X374.01 Y25.159 E2.00372
;WIDTH:4.23151
G1 X374.01 Y24.297 E2.40926
;WIDTH:4.27853
G1 X374.01 Y23.434 E2.82044
;WIDTH:4.31203
G1 X374.018 Y22.798 E3.1262
;WIDTH:4.35578
G1 X374.02 Y22.469 E3.28619
;WIDTH:4.39952
G1 X374.023 Y22.14 E3.44802
;WIDTH:4.44327
G1 X374.025 Y21.811 E3.61168
G1 E1.61168 F2400
G92 E0
G1 X395.896 Y12.74 F7800
G1 E2 F2400
;WIDTH:4.23508
G1 F1800
G1 X395.888 Y12.735 E2.00444
;WIDTH:4.27927
G1 X395.165 Y12.316 E2.40266
;WIDTH:4.32346
G1 X394.442 Y11.898 E2.80534
;WIDTH:4.3574
G1 X393.849 Y11.544 E3.14132
;WIDTH:4.40163
G1 X393.56 Y11.374 E3.30633
;WIDTH:4.44587
G1 X393.27 Y11.204 E3.47365
;WIDTH:4.4901
G1 X392.981 Y11.033 E3.64269
G1 E1.64269 F2400
G92 E0
G1 X374.195 Y-2.851 F7800
G1 E2 F2400
;WIDTH:5.64281
G1 F1800
G1 X374.739 Y-2.578 E2.39572
G1 X375.578 Y-2.138 E3.01166
G1 X376.143 Y-1.768 E3.45076
G1 X376.662 Y-1.408 E3.86142
G1 X376.698 Y-.755 E4.28662
G1 X376.733 Y.143 E4.8709
G1 X376.694 Y.803 E5.30075
G1 X376.639 Y1.447 E5.72097
G1 X376.077 Y1.813 E6.15701
G1 X375.329 Y2.281 E6.73067
G1 X374.718 Y2.587 E7.17495
G1 X374.156 Y2.85 E7.57837
G1 X373.582 Y2.558 E7.99707
G1 X372.779 Y2.133 E8.58776
G1 X372.175 Y1.735 E9.05804
G1 X371.703 Y1.407 E9.43173
G1 X371.67 Y.813 E9.81852
G1 X371.633 Y-.142 E10.43988
G1 X371.675 Y-.883 E10.92242
G1 X371.719 Y-1.436 E11.28309
G1 X372.2 Y-1.752 E11.65726
G1 X373.027 Y-2.277 E12.29413
G1 X373.653 Y-2.593 E12.75004
G1 E10.75004 F2400
G92 E0
G1 X369.122 Y-5.156 F7800
G1 E2 F2400
;WIDTH:4.5
G1 F1800
G1 X370.289 Y-5.923 E2.70473
G1 X370.975 Y-6.321 E3.10496
G1 X371.789 Y-6.728 E3.56423
G1 X372.337 Y-6.988 E3.87032
G1 X372.891 Y-7.275 E4.18518
G1 X373.513 Y-7.627 E4.54585
G1 X374.212 Y-8.064 E4.96186
G1 X374.909 Y-7.624 E5.37782
G1 X375.53 Y-7.268 E5.73905
G1 X376.081 Y-6.978 E6.05327
G1 X377.366 Y-6.333 E6.77885
G1 X378.054 Y-5.937 E7.17945
G1 X378.794 Y-5.448 E7.62706
G1 X379.311 Y-5.089 E7.9447
G1 X379.835 Y-4.752 E8.2591
G1 X380.452 Y-4.387 E8.62087
G1 X381.191 Y-3.98 E9.04662
G1 X381.156 Y-3.154 E9.46383
G1 X381.157 Y-2.438 E9.82516
G1 X381.181 Y-1.815 E10.13979
G1 X381.26 Y-.397 E10.85649
G1 X381.26 Y.397 E11.25718
G1 X381.204 Y1.274 E11.70066
G1 X381.149 Y1.923 E12.02935
G1 X381.117 Y2.547 E12.34466
G1 X381.108 Y3.264 E12.70652
G1 X381.134 Y4.087 E13.12205
G1 X380.403 Y4.467 E13.53781
G1 X379.782 Y4.824 E13.89929
G1 X379.253 Y5.156 E14.21447
G1 X378.054 Y5.938 E14.93686
G1 X377.365 Y6.333 E15.33765
G1 X376.566 Y6.728 E15.78745
G1 X375.973 Y7.006 E16.11796
G1 X375.417 Y7.291 E16.43326
G1 X374.792 Y7.642 E16.795
G1 X374.117 Y8.059 E17.1954
G1 X373.448 Y7.633 E17.59565
G1 X372.828 Y7.273 E17.95745
G1 X372.276 Y6.981 E18.27259
G1 X370.974 Y6.32 E19.00947
G1 X370.288 Y5.923 E19.40945
G1 X369.525 Y5.415 E19.87203
G1 X369.006 Y5.055 E20.19078
G1 X368.481 Y4.717 E20.50588
G1 X367.865 Y4.353 E20.86696
G1 X367.179 Y3.987 E21.25934
G1 X367.212 Y3.21 E21.6518
G1 X367.211 Y2.494 E22.01313
G1 X367.187 Y1.87 E22.32826
G1 X367.105 Y.396 E23.07326
G1 X367.105 Y-.395 E23.47244
G1 X367.161 Y-1.322 E23.9411
G1 X367.21 Y-1.926 E24.24691
G1 X367.238 Y-2.549 E24.56162
G1 X367.244 Y-3.264 E24.92246
G1 X367.216 Y-4.056 E25.32239
G1 X367.919 Y-4.425 E25.72306
G1 X368.537 Y-4.785 E26.08399
G1 X368.616 Y-4.834 E26.1309
G1 E24.1309 F2400
G92 E0
G1 X362.814 Y-6.614 F7800
G1 E2 F2400
G1 F1800
G1 X362.958 Y-6.65 E2.07491
G1 X363.47 Y-6.802 E2.34444
G1 X364.361 Y-7.119 E2.82169
G1 X365.103 Y-7.438 E3.22928
G1 X365.724 Y-7.744 E3.57865
G1 X366.247 Y-8.034 E3.88044
G1 X366.887 Y-8.43 E4.26024
G1 X368.628 Y-9.575 E5.31181
G1 X369.181 Y-9.855 E5.62461
G1 X370.15 Y-10.337 E6.17077
G1 X370.785 Y-10.645 E6.52693
G1 X371.242 Y-10.892 E6.78908
G1 X371.755 Y-11.197 E7.09026
G1 X372.333 Y-11.578 E7.43962
G1 X372.982 Y-12.058 E7.84698
G1 X373.706 Y-12.667 E8.32441
G1 X374.226 Y-13.165 E8.68776
G1 X374.355 Y-13.032 E8.78126
G1 X374.743 Y-12.664 E9.05113
G1 X375.463 Y-12.051 E9.52833
G1 X376.11 Y-11.568 E9.93578
G1 X376.686 Y-11.184 E10.28513
G1 X377.198 Y-10.876 E10.58666
G1 X377.861 Y-10.52 E10.96642
G1 X379.699 Y-9.597 E12.00435
G1 X380.219 Y-9.258 E12.31761
G1 X381.11 Y-8.664 E12.85801
G1 X381.709 Y-8.256 E13.22375
G1 X382.15 Y-7.983 E13.48549
G1 X382.671 Y-7.69 E13.78714
G1 X383.29 Y-7.378 E14.13695
G1 X384.031 Y-7.054 E14.54508
G1 X384.921 Y-6.73 E15.02305
G1 X385.624 Y-6.524 E15.39274
G1 X385.57 Y-6.334 E15.49242
G1 X385.444 Y-5.814 E15.76243
G1 X385.271 Y-4.882 E16.2408
G1 X385.174 Y-4.079 E16.64898
G1 X385.128 Y-3.388 E16.99846
G1 X385.116 Y-2.79 E17.3003
G1 X385.138 Y-2.037 E17.68046
G1 X385.252 Y0 E18.71004
G1 X385.218 Y.619 E19.02289
G1 X385.146 Y1.686 E19.56257
G1 X385.089 Y2.425 E19.93661
G1 X385.073 Y2.944 E20.19865
G1 X385.078 Y3.543 E20.50094
G1 X385.116 Y4.236 E20.85119
G1 X385.204 Y5.041 E21.25985
G1 X385.368 Y5.977 E21.7394
G1 X385.534 Y6.667 E22.09754
G1 X385.365 Y6.709 E22.18542
G1 X384.85 Y6.859 E22.45611
G1 X383.954 Y7.173 E22.93524
G1 X383.209 Y7.489 E23.34362
G1 X382.585 Y7.794 E23.69412
G1 X382.06 Y8.082 E23.99631
G1 X381.417 Y8.477 E24.37713
G1 X379.699 Y9.596 E25.4118
G1 X379.144 Y9.875 E25.72528
G1 X378.18 Y10.348 E26.26717
G1 X377.509 Y10.669 E26.64254
G1 X377.051 Y10.915 E26.9049
G1 X376.535 Y11.218 E27.20687
G1 X375.954 Y11.598 E27.55721
G1 X375.301 Y12.077 E27.9659
G1 X374.573 Y12.687 E28.4452
G1 X374.083 Y13.151 E28.78575
G1 X373.987 Y13.051 E28.85571
G1 X373.6 Y12.68 E29.12625
G1 X372.88 Y12.061 E29.60542
G1 X372.233 Y11.573 E30.01439
G1 X371.657 Y11.186 E30.36458
G1 X371.145 Y10.875 E30.66689
G1 X370.482 Y10.515 E31.04761
G1 X368.629 Y9.575 E32.09616
G1 X368.112 Y9.235 E32.40843
G1 X367.209 Y8.631 E32.95667
G1 X366.609 Y8.223 E33.32283
G1 X366.167 Y7.95 E33.585
G1 X365.646 Y7.656 E33.88689
G1 X365.027 Y7.345 E34.23648
G1 X364.286 Y7.021 E34.64461
G1 X363.395 Y6.697 E35.12306
G1 X362.762 Y6.51 E35.45615
G1 X362.796 Y6.39 E35.51909
G1 X362.922 Y5.87 E35.7891
G1 X363.096 Y4.938 E36.26756
G1 X363.193 Y4.135 E36.67574
G1 X363.239 Y3.443 E37.02573
G1 X363.251 Y2.845 E37.32757
G1 X363.23 Y2.091 E37.70822
G1 X363.113 Y0 E38.76509
G1 X363.147 Y-.616 E39.07643
G1 X363.216 Y-1.706 E39.6276
G1 X363.267 Y-2.41 E39.9838
G1 X363.281 Y-2.928 E40.2453
G1 X363.274 Y-3.526 E40.5471
G1 X363.233 Y-4.217 E40.89642
G1 X363.141 Y-5.019 E41.3038
G1 X362.975 Y-5.951 E41.78153
G1 X362.955 Y-6.031 E41.82314
G1 E39.82314 F2400
G92 E0
G1 X358.34 Y-7.337 F7800
G1 E2 F2400
G1 F1800
G1 X358.123 Y-7.767 E2.24306
G1 X357.816 Y-8.296 E2.55172
G1 X357.445 Y-8.835 E2.88193
;WIDTH:4.48665
G1 X357.011 Y-9.378 E3.23154
;WIDTH:4.4638
G1 X356.514 Y-9.915 E3.59742
;WIDTH:4.44095
G1 X355.955 Y-10.434 E3.97662
;WIDTH:4.4181
G1 X355.081 Y-11.105 E4.52119
;WIDTH:4.39525
G1 X355.367 Y-10.971 E4.67636
;WIDTH:4.4181
G1 X356.097 Y-10.679 E5.06493
;WIDTH:4.44095
G1 X356.825 Y-10.451 E5.44417
;WIDTH:4.4638
G1 X357.538 Y-10.285 E5.81023
;WIDTH:4.48665
G1 X358.224 Y-10.176 E6.15958
;WIDTH:4.5
G1 X358.876 Y-10.122 E6.48974
G1 X359.488 Y-10.117 E6.79859
G1 X360.057 Y-10.146 E7.08611
G1 X361.062 Y-10.278 E7.59764
G1 X361.903 Y-10.471 E8.03308
G1 X362.603 Y-10.692 E8.40352
G1 X363.183 Y-10.92 E8.71802
G1 X363.668 Y-11.144 E8.98762
G1 X364.253 Y-11.459 E9.32292
G1 X364.71 Y-11.742 E9.59418
G1 X366.637 Y-13.009 E10.75801
G1 X367.976 Y-13.688 E11.51565
G1 X368.511 Y-13.945 E11.81517
G1 X368.965 Y-14.166 E12.06998
G1 X369.468 Y-14.445 E12.36025
G1 X370.07 Y-14.832 E12.72141
G1 X370.534 Y-15.175 E13.0126
G1 X371.051 Y-15.61 E13.35357
G1 X371.619 Y-16.166 E13.75468
G1 X372.229 Y-16.876 E14.22706
G1 X372.542 Y-17.301 E14.49342
G1 X372.854 Y-17.777 E14.78064
G1 X373.158 Y-18.308 E15.08942
G1 X373.443 Y-18.897 E15.41963
;WIDTH:4.49244
G1 X373.7 Y-19.543 E15.76981
;WIDTH:4.47913
G1 X373.922 Y-20.241 E16.13749
;WIDTH:4.46582
G1 X374.097 Y-20.985 E16.51987
;WIDTH:4.45251
G1 X374.249 Y-22.08 E17.07107
;WIDTH:4.4392
G1 X374.278 Y-21.764 E17.22875
;WIDTH:4.45251
G1 X374.395 Y-20.984 E17.62201
;WIDTH:4.46582
G1 X374.566 Y-20.24 E18.00394
;WIDTH:4.47913
G1 X374.784 Y-19.54 E18.37198
;WIDTH:4.49244
G1 X375.038 Y-18.893 E18.72208
;WIDTH:4.5
G1 X375.32 Y-18.302 E19.05254
G1 X375.622 Y-17.769 E19.36169
G1 X375.931 Y-17.292 E19.6485
G1 X376.548 Y-16.487 E20.16034
G1 X377.136 Y-15.856 E20.5956
G1 X377.677 Y-15.361 E20.96565
G1 X378.165 Y-14.972 E21.28059
G1 X378.601 Y-14.665 E21.54969
G1 X379.167 Y-14.316 E21.88526
G1 X379.64 Y-14.062 E22.1562
G1 X381.677 Y-13.038 E23.30675
G1 X382.896 Y-12.244 E24.0409
G1 X383.854 Y-11.589 E24.62655
G1 X384.348 Y-11.291 E24.91769
G1 X384.984 Y-10.961 E25.27928
G1 X385.513 Y-10.73 E25.57058
G1 X386.149 Y-10.498 E25.91222
G1 X386.916 Y-10.282 E26.31434
G1 X387.838 Y-10.108 E26.78784
G1 X388.363 Y-10.048 E27.0545
G1 X388.932 Y-10.015 E27.34213
G1 X389.545 Y-10.016 E27.65148
G1 X390.2 Y-10.062 E27.98284
;WIDTH:4.49493
G1 X390.89 Y-10.16 E28.33409
;WIDTH:4.48616
G1 X391.608 Y-10.315 E28.70348
;WIDTH:4.4774
G1 X392.343 Y-10.533 E29.08816
;WIDTH:4.46863
G1 X393.355 Y-10.94 E29.63426
;WIDTH:4.45986
G1 X393.109 Y-10.765 E29.78507
;WIDTH:4.46863
G1 X392.49 Y-10.274 E30.18063
;WIDTH:4.4774
G1 X391.93 Y-9.752 E30.56477
;WIDTH:4.48616
G1 X391.431 Y-9.213 E30.93415
;WIDTH:4.49493
G1 X390.997 Y-8.668 E31.28529
;WIDTH:4.5
G1 X390.624 Y-8.127 E31.61691
G1 X390.312 Y-7.599 E31.92641
G1 X390.051 Y-7.092 E32.21418
G1 X389.66 Y-6.154 E32.72702
G1 X389.404 Y-5.328 E33.16342
G1 X389.244 Y-4.612 E33.53366
G1 X389.15 Y-3.994 E33.84912
G1 X389.101 Y-3.462 E34.11873
G1 X389.08 Y-2.797 E34.45449
G1 X389.095 Y-2.259 E34.7261
G1 X389.222 Y0 E35.8679
G1 X389.142 Y1.436 E36.5937
G1 X389.048 Y2.625 E37.1956
G1 X389.035 Y3.202 E37.48686
G1 X389.067 Y3.919 E37.84905
G1 X389.13 Y4.494 E38.14096
G1 X389.246 Y5.162 E38.48311
G1 X389.442 Y5.936 E38.88604
G1 X389.751 Y6.824 E39.36052
G1 X389.962 Y7.31 E39.6279
G1 X390.218 Y7.821 E39.91633
G1 X390.526 Y8.353 E40.22655
G1 X390.892 Y8.9 E40.55869
;WIDTH:4.49809
G1 X391.32 Y9.452 E40.91101
;WIDTH:4.49609
G1 X391.812 Y10.001 E41.28267
;WIDTH:4.4941
G1 X392.367 Y10.532 E41.66972
;WIDTH:4.4921
G1 X392.981 Y11.033 E42.06884
G1 X392.244 Y10.743 E42.46773
;WIDTH:4.4941
G1 X391.509 Y10.518 E42.85506
;WIDTH:4.49609
G1 X390.79 Y10.356 E43.22663
;WIDTH:4.49809
G1 X390.099 Y10.253 E43.57902
;WIDTH:4.5
G1 X389.443 Y10.2 E43.91115
G1 X388.829 Y10.191 E44.22104
G1 X388.257 Y10.217 E44.51
G1 X387.247 Y10.344 E45.02371
G1 X386.401 Y10.534 E45.46128
G1 X385.699 Y10.753 E45.83238
G1 X385.115 Y10.979 E46.14839
G1 X384.628 Y11.202 E46.41869
G1 X384.041 Y11.515 E46.7544
G1 X383.581 Y11.797 E47.02669
G1 X381.677 Y13.038 E48.17362
G1 X380.368 Y13.696 E48.91297
G1 X379.795 Y13.968 E49.23306
G1 X379.316 Y14.197 E49.50099
G1 X378.81 Y14.475 E49.79234
G1 X378.205 Y14.861 E50.1545
G1 X377.739 Y15.203 E50.4462
G1 X377.218 Y15.638 E50.78872
G1 X376.645 Y16.195 E51.19199
G1 X376.031 Y16.907 E51.66645
G1 X375.716 Y17.332 E51.93341
G1 X375.401 Y17.81 E52.2223
G1 X375.095 Y18.343 E52.53245
G1 X374.809 Y18.935 E52.86424
;WIDTH:4.48895
G1 X374.549 Y19.583 E53.21561
;WIDTH:4.47753
G1 X374.325 Y20.284 E53.58488
;WIDTH:4.46611
G1 X374.147 Y21.03 E53.96861
;WIDTH:4.45469
G1 X374.025 Y21.811 E54.36296
G1 X373.914 Y21.028 E54.75749
;WIDTH:4.46611
G1 X373.746 Y20.28 E55.14106
;WIDTH:4.47753
G1 X373.531 Y19.576 E55.51042
;WIDTH:4.48895
G1 X373.28 Y18.925 E55.86154
;WIDTH:4.5
G1 X373.002 Y18.329 E56.19342
G1 X372.703 Y17.792 E56.50359
G1 X372.395 Y17.31 E56.79225
G1 X371.779 Y16.499 E57.30619
G1 X371.192 Y15.861 E57.7437
G1 X370.651 Y15.362 E58.11512
G1 X370.163 Y14.969 E58.43132
G1 X369.727 Y14.659 E58.70129
G1 X369.162 Y14.307 E59.03722
G1 X368.688 Y14.05 E59.30932
G1 X366.637 Y13.009 E60.47004
G1 X365.374 Y12.178 E61.233
G1 X364.893 Y11.848 E61.52737
G1 X364.465 Y11.556 E61.78884
G1 X363.971 Y11.258 E62.07998
G1 X363.334 Y10.929 E62.44178
G1 X362.805 Y10.697 E62.73328
G1 X362.168 Y10.466 E63.07522
G1 X361.401 Y10.25 E63.47734
G1 X360.479 Y10.076 E63.95084
G1 X359.954 Y10.017 E64.21745
G1 X359.385 Y9.984 E64.50508
G1 X358.771 Y9.986 E64.81494
G1 X358.117 Y10.037 E65.14598
;WIDTH:4.48494
G1 X357.428 Y10.138 E65.49606
;WIDTH:4.46959
G1 X356.712 Y10.296 E65.86324
;WIDTH:4.45423
G1 X355.98 Y10.517 E66.24466
;WIDTH:4.43888
G1 X355.245 Y10.803 E66.63653
G1 X355.865 Y10.316 E67.02826
;WIDTH:4.45423
G1 X356.427 Y9.797 E67.40985
;WIDTH:4.46959
G1 X356.927 Y9.261 E67.77692
;WIDTH:4.48494
G1 X357.365 Y8.719 E68.12725
;WIDTH:4.5
G1 X357.741 Y8.182 E68.45807
G1 X358.054 Y7.654 E68.76782
G1 X358.315 Y7.147 E69.05559
G1 X358.707 Y6.209 E69.56862
G1 X358.963 Y5.383 E70.00502
G1 X359.123 Y4.666 E70.37575
G1 X359.217 Y4.048 E70.69121
G1 X359.266 Y3.516 E70.96082
G1 X359.288 Y2.851 E71.29659
G1 X359.272 Y2.313 E71.56821
G1 X359.143 Y0 E72.73727
G1 X359.229 Y-1.53 E73.5106
G1 X359.272 Y-2.09 E73.79403
G1 X359.308 Y-2.593 E74.04852
G1 X359.317 Y-3.169 E74.33923
G1 X359.283 Y-3.883 E74.69996
G1 X359.218 Y-4.456 E74.99098
G1 X359.099 Y-5.122 E75.3324
G1 X358.902 Y-5.892 E75.73349
G1 X358.591 Y-6.776 E76.2064
G1 X358.585 Y-6.789 E76.21363
G1 E74.21363 F2400
G92 E0
G1 X393.355 Y-10.94 F7800
G1 E2 F2400
;WIDTH:4.45656
G1 F1800
G1 X393.574 Y-11.065 E2.12586
;WIDTH:4.42544
G1 X393.793 Y-11.19 E2.25072
;WIDTH:4.39431
G1 X394.545 Y-11.609 E2.67356
;WIDTH:4.35009
G1 X395.28 Y-12.032 E3.08533
;WIDTH:4.3059
G1 X396.015 Y-12.456 E3.49257
;WIDTH:4.26171
G1 X396.065 Y-12.482 E3.5193
G1 E1.5193 F2400
G92 E0
G1 X354.766 Y-5.623 F7800
G1 E2 F2400
;WIDTH:4.5
G1 F1800
G1 X354.453 Y-6.197 E2.32994
G1 X353.979 Y-6.854 E2.73877
G1 X353.353 Y-7.499 E3.19236
G1 X352.589 Y-8.074 E3.6749
G1 X352.039 Y-8.42 E4.00281
G1 X350.348 Y-9.458 E5.00412
G1 X348.73 Y-10.641 E6.01561
G1 X347.119 Y-12.031 E7.08939
G1 X345.626 Y-13.545 E8.16243
G1 X344.26 Y-15.173 E9.23489
G1 X343.029 Y-16.907 E10.30804
G1 X342.357 Y-18.036 E10.97108
G1 X342.745 Y-18.71 E11.36355
G1 X343.134 Y-18.706 E11.55987
G1 X344.098 Y-18.68 E12.04653
G1 X345.999 Y-18.507 E13.00983
G1 X348.09 Y-18.145 E14.08075
G1 X350.144 Y-17.616 E15.15112
G1 X352.151 Y-16.923 E16.22263
G1 X354.096 Y-16.069 E17.29462
G1 X355.888 Y-15.103 E18.32197
G1 X356.107 Y-14.98 E18.44873
G1 X356.742 Y-14.641 E18.81199
G1 X357.358 Y-14.393 E19.1471
G1 X358.228 Y-14.169 E19.60046
G1 X359.033 Y-14.082 E20.00907
G1 X359.741 Y-14.097 E20.36644
G1 X360.345 Y-14.176 E20.67384
G1 X360.849 Y-14.292 E20.93483
