DEF HOLLOW_BOX_CLEANED()
;FOLD INI
  ;FOLD BASISTECH INI
    BAS (#INITMOV,0)
  ;ENDFOLD (BASISTECH INI)
  ;FOLD USER INI
    ;WAAM-optimized initialization with weaving capability
  ;ENDFOLD (USER INI)
;ENDFOLD (INI)

BASE_DATA[10] = {FRAME: X 270.73, Y -630.81, Z 710.35, A 179.93, B -0.22, C -1.44}
TOOL_DATA[6] = {FRAME: X -14.67, Y -33.93, Z 286.30, A 0, B 0, C 0}
$BASE = BASE_DATA[10]
$TOOL = TOOL_DATA[6]

BAS (#VEL_PTP,100)
BAS (#ACC_PTP,100)
BAS (#VEL_CP,0.0050)
BAS (#ACC_CP,0.05)

$VEL.CP = 0.0050
$ACC.CP = 0.05
$VEL.ORI1 = 90
$VEL.ORI2 = 90
$ACC.ORI1 = 500
$ACC.ORI2 = 500
$ORI_TYPE = #VAR
$ADVANCE = 1
$APO.CDIS = 0.25

; Taught position mode - skipping HOME move
; Robot should already be at desired starting position
$OUT[1] = FALSE

;===========
; BEGIN WAAM PROCESS
;===========

; TAUGHT START POSITION MODE ENABLED
; Robot will read current position at startup as substrate origin
; X, Y and Z coordinates are offset
; Jog robot to desired starting point before running this program

; Read current robot position as taught starting point
TAUGHT_START = $POS_ACT

; First motion must be PTP to satisfy KUKA controller requirement
; Moving to taught position (already there, but satisfies KSS01443)
PTP TAUGHT_START

; SAFETY DELAY - 7.5 seconds before starting weld process
; This allows operator to verify position and move to safety
WAIT SEC 7.5

; First weld point offset from taught position: X=0.000, Y=0.000 (Z is absolute)

; Welding strategy: ALTERNATING (A->B, B->A, A->B...)
; Travel stabilization delay: 5.0s (wait after travel before Z lowers)
; ;LAYER_CHANGE
; ;Z:2
OFFSET_POS = {X 0.000, Y 0.000, Z 2.000, A 0, B 0, C 0}
TARGET_POS = TAUGHT_START
TARGET_POS.X = TAUGHT_START.X + OFFSET_POS.X
TARGET_POS.Y = TAUGHT_START.Y + OFFSET_POS.Y
TARGET_POS.Z = TAUGHT_START.Z + OFFSET_POS.Z
TARGET_POS.A = TAUGHT_START.A
TARGET_POS.B = TAUGHT_START.B
TARGET_POS.C = TAUGHT_START.C
LIN TARGET_POS C_DIS
$OUT[1] = TRUE
WAIT SEC 0.200
OFFSET_POS = {X -0.041, Y -0.012, Z 2.000, A 0, B 0, C 0}
TARGET_POS = TAUGHT_START
TARGET_POS.X = TAUGHT_START.X + OFFSET_POS.X
TARGET_POS.Y = TAUGHT_START.Y + OFFSET_POS.Y
TARGET_POS.Z = TAUGHT_START.Z + OFFSET_POS.Z
TARGET_POS.A = TAUGHT_START.A
TARGET_POS.B = TAUGHT_START.B
TARGET_POS.C = TAUGHT_START.C
LIN TARGET_POS C_DIS
CONTINUE
OFFSET_POS = {X -0.118, Y -0.035, Z 2.000, A 0, B 0, C 0}
TARGET_POS = TAUGHT_START
TARGET_POS.X = TAUGHT_START.X + OFFSET_POS.X
TARGET_POS.Y = TAUGHT_START.Y + OFFSET_POS.Y
TARGET_POS.Z = TAUGHT_START.Z + OFFSET_POS.Z
TARGET_POS.A = TAUGHT_START.A
TARGET_POS.B = TAUGHT_START.B
TARGET_POS.C = TAUGHT_START.C
LIN TARGET_POS C_DIS
CONTINUE
OFFSET_POS = {X -0.195, Y -0.058, Z 2.000, A 0, B 0, C 0}
TARGET_POS = TAUGHT_START
TARGET_POS.X = TAUGHT_START.X + OFFSET_POS.X
TARGET_POS.Y = TAUGHT_START.Y + OFFSET_POS.Y
TARGET_POS.Z = TAUGHT_START.Z + OFFSET_POS.Z
TARGET_POS.A = TAUGHT_START.A
TARGET_POS.B = TAUGHT_START.B
TARGET_POS.C = TAUGHT_START.C
LIN TARGET_POS C_DIS
CONTINUE
OFFSET_POS = {X -0.220, Y -0.134, Z 2.000, A 0, B 0, C 0}
TARGET_POS = TAUGHT_START
TARGET_POS.X = TAUGHT_START.X + OFFSET_POS.X
TARGET_POS.Y = TAUGHT_START.Y + OFFSET_POS.Y
TARGET_POS.Z = TAUGHT_START.Z + OFFSET_POS.Z
TARGET_POS.A = TAUGHT_START.A
TARGET_POS.B = TAUGHT_START.B
TARGET_POS.C = TAUGHT_START.C
LIN TARGET_POS C_DIS
CONTINUE
OFFSET_POS = {X -0.245, Y -0.210, Z 2.000, A 0, B 0, C 0}
TARGET_POS = TAUGHT_START
TARGET_POS.X = TAUGHT_START.X + OFFSET_POS.X
TARGET_POS.Y = TAUGHT_START.Y + OFFSET_POS.Y
TARGET_POS.Z = TAUGHT_START.Z + OFFSET_POS.Z
TARGET_POS.A = TAUGHT_START.A
TARGET_POS.B = TAUGHT_START.B
TARGET_POS.C = TAUGHT_START.C
LIN TARGET_POS C_DIS
CONTINUE
OFFSET_POS = {X -0.270, Y -0.287, Z 2.000, A 0, B 0, C 0}
TARGET_POS = TAUGHT_START
TARGET_POS.X = TAUGHT_START.X + OFFSET_POS.X
TARGET_POS.Y = TAUGHT_START.Y + OFFSET_POS.Y
TARGET_POS.Z = TAUGHT_START.Z + OFFSET_POS.Z
TARGET_POS.A = TAUGHT_START.A
TARGET_POS.B = TAUGHT_START.B
TARGET_POS.C = TAUGHT_START.C
LIN TARGET_POS C_DIS
CONTINUE
OFFSET_POS = {X -0.294, Y -0.363, Z 2.000, A 0, B 0, C 0}
TARGET_POS = TAUGHT_START
TARGET_POS.X = TAUGHT_START.X + OFFSET_POS.X
TARGET_POS.Y = TAUGHT_START.Y + OFFSET_POS.Y
TARGET_POS.Z = TAUGHT_START.Z + OFFSET_POS.Z
TARGET_POS.A = TAUGHT_START.A
TARGET_POS.B = TAUGHT_START.B
TARGET_POS.C = TAUGHT_START.C
LIN TARGET_POS C_DIS
CONTINUE
OFFSET_POS = {X -0.319, Y -0.439, Z 2.000, A 0, B 0, C 0}
TARGET_POS = TAUGHT_START
TARGET_POS.X = TAUGHT_START.X + OFFSET_POS.X
TARGET_POS.Y = TAUGHT_START.Y + OFFSET_POS.Y
TARGET_POS.Z = TAUGHT_START.Z + OFFSET_POS.Z
TARGET_POS.A = TAUGHT_START.A
TARGET_POS.B = TAUGHT_START.B
TARGET_POS.C = TAUGHT_START.C
LIN TARGET_POS C_DIS
CONTINUE
OFFSET_POS = {X -0.344, Y -0.516, Z 2.000, A 0, B 0, C 0}
TARGET_POS = TAUGHT_START
TARGET_POS.X = TAUGHT_START.X + OFFSET_POS.X
TARGET_POS.Y = TAUGHT_START.Y + OFFSET_POS.Y
TARGET_POS.Z = TAUGHT_START.Z + OFFSET_POS.Z
TARGET_POS.A = TAUGHT_START.A
TARGET_POS.B = TAUGHT_START.B
TARGET_POS.C = TAUGHT_START.C
LIN TARGET_POS C_DIS
CONTINUE
OFFSET_POS = {X -0.369, Y -0.592, Z 2.000, A 0, B 0, C 0}
TARGET_POS = TAUGHT_START
TARGET_POS.X = TAUGHT_START.X + OFFSET_POS.X
TARGET_POS.Y = TAUGHT_START.Y + OFFSET_POS.Y
TARGET_POS.Z = TAUGHT_START.Z + OFFSET_POS.Z
TARGET_POS.A = TAUGHT_START.A
TARGET_POS.B = TAUGHT_START.B
TARGET_POS.C = TAUGHT_START.C
LIN TARGET_POS C_DIS
CONTINUE
OFFSET_POS = {X -0.394, Y -0.668, Z 2.000, A 0, B 0, C 0}
TARGET_POS = TAUGHT_START
TARGET_POS.X = TAUGHT_START.X + OFFSET_POS.X
TARGET_POS.Y = TAUGHT_START.Y + OFFSET_POS.Y
TARGET_POS.Z = TAUGHT_START.Z + OFFSET_POS.Z
TARGET_POS.A = TAUGHT_START.A
TARGET_POS.B = TAUGHT_START.B
TARGET_POS.C = TAUGHT_START.C
LIN TARGET_POS C_DIS
CONTINUE
OFFSET_POS = {X -0.418, Y -0.745, Z 2.000, A 0, B 0, C 0}
TARGET_POS = TAUGHT_START
TARGET_POS.X = TAUGHT_START.X + OFFSET_POS.X
TARGET_POS.Y = TAUGHT_START.Y + OFFSET_POS.Y
TARGET_POS.Z = TAUGHT_START.Z + OFFSET_POS.Z
TARGET_POS.A = TAUGHT_START.A
TARGET_POS.B = TAUGHT_START.B
TARGET_POS.C = TAUGHT_START.C
LIN TARGET_POS C_DIS
CONTINUE
OFFSET_POS = {X -0.443, Y -0.821, Z 2.000, A 0, B 0, C 0}
TARGET_POS = TAUGHT_START
TARGET_POS.X = TAUGHT_START.X + OFFSET_POS.X
TARGET_POS.Y = TAUGHT_START.Y + OFFSET_POS.Y
TARGET_POS.Z = TAUGHT_START.Z + OFFSET_POS.Z
TARGET_POS.A = TAUGHT_START.A
TARGET_POS.B = TAUGHT_START.B
TARGET_POS.C = TAUGHT_START.C
LIN TARGET_POS C_DIS
CONTINUE
OFFSET_POS = {X -0.468, Y -0.897, Z 2.000, A 0, B 0, C 0}
TARGET_POS = TAUGHT_START
TARGET_POS.X = TAUGHT_START.X + OFFSET_POS.X
TARGET_POS.Y = TAUGHT_START.Y + OFFSET_POS.Y
TARGET_POS.Z = TAUGHT_START.Z + OFFSET_POS.Z
TARGET_POS.A = TAUGHT_START.A
TARGET_POS.B = TAUGHT_START.B
TARGET_POS.C = TAUGHT_START.C
LIN TARGET_POS C_DIS
CONTINUE
OFFSET_POS = {X -0.492, Y -1.108, Z 2.000, A 0, B 0, C 0}
TARGET_POS = TAUGHT_START
TARGET_POS.X = TAUGHT_START.X + OFFSET_POS.X
TARGET_POS.Y = TAUGHT_START.Y + OFFSET_POS.Y
TARGET_POS.Z = TAUGHT_START.Z + OFFSET_POS.Z
TARGET_POS.A = TAUGHT_START.A
TARGET_POS.B = TAUGHT_START.B
TARGET_POS.C = TAUGHT_START.C
LIN TARGET_POS C_DIS
CONTINUE
OFFSET_POS = {X -0.517, Y -1.318, Z 2.000, A 0, B 0, C 0}
TARGET_POS = TAUGHT_START
TARGET_POS.X = TAUGHT_START.X + OFFSET_POS.X
TARGET_POS.Y = TAUGHT_START.Y + OFFSET_POS.Y
TARGET_POS.Z = TAUGHT_START.Z + OFFSET_POS.Z
TARGET_POS.A = TAUGHT_START.A
TARGET_POS.B = TAUGHT_START.B
TARGET_POS.C = TAUGHT_START.C
LIN TARGET_POS C_DIS
CONTINUE
OFFSET_POS = {X -0.541, Y -1.529, Z 2.000, A 0, B 0, C 0}
TARGET_POS = TAUGHT_START
TARGET_POS.X = TAUGHT_START.X + OFFSET_POS.X
TARGET_POS.Y = TAUGHT_START.Y + OFFSET_POS.Y
TARGET_POS.Z = TAUGHT_START.Z + OFFSET_POS.Z
TARGET_POS.A = TAUGHT_START.A
TARGET_POS.B = TAUGHT_START.B
TARGET_POS.C = TAUGHT_START.C
LIN TARGET_POS C_DIS
CONTINUE
OFFSET_POS = {X -0.566, Y -1.739, Z 2.000, A 0, B 0, C 0}
TARGET_POS = TAUGHT_START
TARGET_POS.X = TAUGHT_START.X + OFFSET_POS.X
TARGET_POS.Y = TAUGHT_START.Y + OFFSET_POS.Y
TARGET_POS.Z = TAUGHT_START.Z + OFFSET_POS.Z
TARGET_POS.A = TAUGHT_START.A
TARGET_POS.B = TAUGHT_START.B
TARGET_POS.C = TAUGHT_START.C
LIN TARGET_POS C_DIS
CONTINUE
OFFSET_POS = {X -1.219, Y -53.164, Z 2.000, A 0, B 0, C 0}
TARGET_POS = TAUGHT_START
TARGET_POS.X = TAUGHT_START.X + OFFSET_POS.X
TARGET_POS.Y = TAUGHT_START.Y + OFFSET_POS.Y
TARGET_POS.Z = TAUGHT_START.Z + OFFSET_POS.Z
TARGET_POS.A = TAUGHT_START.A
TARGET_POS.B = TAUGHT_START.B
TARGET_POS.C = TAUGHT_START.C
LIN TARGET_POS C_DIS
CONTINUE
OFFSET_POS = {X -1.199, Y -53.375, Z 2.000, A 0, B 0, C 0}
TARGET_POS = TAUGHT_START
TARGET_POS.X = TAUGHT_START.X + OFFSET_POS.X
TARGET_POS.Y = TAUGHT_START.Y + OFFSET_POS.Y
TARGET_POS.Z = TAUGHT_START.Z + OFFSET_POS.Z
TARGET_POS.A = TAUGHT_START.A
TARGET_POS.B = TAUGHT_START.B
TARGET_POS.C = TAUGHT_START.C
LIN TARGET_POS C_DIS
CONTINUE
OFFSET_POS = {X -1.180, Y -53.586, Z 2.000, A 0, B 0, C 0}
TARGET_POS = TAUGHT_START
TARGET_POS.X = TAUGHT_START.X + OFFSET_POS.X
TARGET_POS.Y = TAUGHT_START.Y + OFFSET_POS.Y
TARGET_POS.Z = TAUGHT_START.Z + OFFSET_POS.Z
TARGET_POS.A = TAUGHT_START.A
TARGET_POS.B = TAUGHT_START.B
TARGET_POS.C = TAUGHT_START.C
LIN TARGET_POS C_DIS
CONTINUE
OFFSET_POS = {X -1.161, Y -53.797, Z 2.000, A 0, B 0, C 0}
TARGET_POS = TAUGHT_START
TARGET_POS.X = TAUGHT_START.X + OFFSET_POS.X
TARGET_POS.Y = TAUGHT_START.Y + OFFSET_POS.Y
TARGET_POS.Z = TAUGHT_START.Z + OFFSET_POS.Z
TARGET_POS.A = TAUGHT_START.A
TARGET_POS.B = TAUGHT_START.B
TARGET_POS.C = TAUGHT_START.C
LIN TARGET_POS C_DIS
CONTINUE
OFFSET_POS = {X -1.142, Y -54.008, Z 2.000, A 0, B 0, C 0}
TARGET_POS = TAUGHT_START
TARGET_POS.X = TAUGHT_START.X + OFFSET_POS.X
TARGET_POS.Y = TAUGHT_START.Y + OFFSET_POS.Y
TARGET_POS.Z = TAUGHT_START.Z + OFFSET_POS.Z
TARGET_POS.A = TAUGHT_START.A
TARGET_POS.B = TAUGHT_START.B
TARGET_POS.C = TAUGHT_START.C
LIN TARGET_POS C_DIS
CONTINUE
OFFSET_POS = {X -1.119, Y -54.085, Z 2.000, A 0, B 0, C 0}
TARGET_POS = TAUGHT_START
TARGET_POS.X = TAUGHT_START.X + OFFSET_POS.X
TARGET_POS.Y = TAUGHT_START.Y + OFFSET_POS.Y
TARGET_POS.Z = TAUGHT_START.Z + OFFSET_POS.Z
TARGET_POS.A = TAUGHT_START.A
TARGET_POS.B = TAUGHT_START.B
TARGET_POS.C = TAUGHT_START.C
LIN TARGET_POS C_DIS
CONTINUE
OFFSET_POS = {X -1.096, Y -54.162, Z 2.000, A 0, B 0, C 0}
TARGET_POS = TAUGHT_START
TARGET_POS.X = TAUGHT_START.X + OFFSET_POS.X
TARGET_POS.Y = TAUGHT_START.Y + OFFSET_POS.Y
TARGET_POS.Z = TAUGHT_START.Z + OFFSET_POS.Z
TARGET_POS.A = TAUGHT_START.A
TARGET_POS.B = TAUGHT_START.B
TARGET_POS.C = TAUGHT_START.C
LIN TARGET_POS C_DIS
CONTINUE
OFFSET_POS = {X -1.073, Y -54.239, Z 2.000, A 0, B 0, C 0}
TARGET_POS = TAUGHT_START
TARGET_POS.X = TAUGHT_START.X + OFFSET_POS.X
TARGET_POS.Y = TAUGHT_START.Y + OFFSET_POS.Y
TARGET_POS.Z = TAUGHT_START.Z + OFFSET_POS.Z
TARGET_POS.A = TAUGHT_START.A
TARGET_POS.B = TAUGHT_START.B
TARGET_POS.C = TAUGHT_START.C
LIN TARGET_POS C_DIS
CONTINUE
OFFSET_POS = {X -1.051, Y -54.316, Z 2.000, A 0, B 0, C 0}
TARGET_POS = TAUGHT_START
TARGET_POS.X = TAUGHT_START.X + OFFSET_POS.X
TARGET_POS.Y = TAUGHT_START.Y + OFFSET_POS.Y
TARGET_POS.Z = TAUGHT_START.Z + OFFSET_POS.Z
TARGET_POS.A = TAUGHT_START.A
TARGET_POS.B = TAUGHT_START.B
TARGET_POS.C = TAUGHT_START.C
LIN TARGET_POS C_DIS
CONTINUE
OFFSET_POS = {X -1.028, Y -54.393, Z 2.000, A 0, B 0, C 0}
TARGET_POS = TAUGHT_START
TARGET_POS.X = TAUGHT_START.X + OFFSET_POS.X
TARGET_POS.Y = TAUGHT_START.Y + OFFSET_POS.Y
TARGET_POS.Z = TAUGHT_START.Z + OFFSET_POS.Z
TARGET_POS.A = TAUGHT_START.A
TARGET_POS.B = TAUGHT_START.B
TARGET_POS.C = TAUGHT_START.C
LIN TARGET_POS C_DIS
CONTINUE
OFFSET_POS = {X -1.005, Y -54.470, Z 2.000, A 0, B 0, C 0}
TARGET_POS = TAUGHT_START
TARGET_POS.X = TAUGHT_START.X + OFFSET_POS.X
TARGET_POS.Y = TAUGHT_START.Y + OFFSET_POS.Y
TARGET_POS.Z = TAUGHT_START.Z + OFFSET_POS.Z
TARGET_POS.A = TAUGHT_START.A
TARGET_POS.B = TAUGHT_START.B
TARGET_POS.C = TAUGHT_START.C
LIN TARGET_POS C_DIS
CONTINUE
OFFSET_POS = {X -0.982, Y -54.547, Z 2.000, A 0, B 0, C 0}
TARGET_POS = TAUGHT_START
TARGET_POS.X = TAUGHT_START.X + OFFSET_POS.X
TARGET_POS.Y = TAUGHT_START.Y + OFFSET_POS.Y
TARGET_POS.Z = TAUGHT_START.Z + OFFSET_POS.Z
TARGET_POS.A = TAUGHT_START.A
TARGET_POS.B = TAUGHT_START.B
TARGET_POS.C = TAUGHT_START.C
LIN TARGET_POS C_DIS
CONTINUE
OFFSET_POS = {X -0.959, Y -54.624, Z 2.000, A 0, B 0, C 0}
TARGET_POS = TAUGHT_START
TARGET_POS.X = TAUGHT_START.X + OFFSET_POS.X
TARGET_POS.Y = TAUGHT_START.Y + OFFSET_POS.Y
TARGET_POS.Z = TAUGHT_START.Z + OFFSET_POS.Z
TARGET_POS.A = TAUGHT_START.A
TARGET_POS.B = TAUGHT_START.B
TARGET_POS.C = TAUGHT_START.C
LIN TARGET_POS C_DIS
CONTINUE
OFFSET_POS = {X -0.936, Y -54.701, Z 2.000, A 0, B 0, C 0}
TARGET_POS = TAUGHT_START
TARGET_POS.X = TAUGHT_START.X + OFFSET_POS.X
TARGET_POS.Y = TAUGHT_START.Y + OFFSET_POS.Y
TARGET_POS.Z = TAUGHT_START.Z + OFFSET_POS.Z
TARGET_POS.A = TAUGHT_START.A
TARGET_POS.B = TAUGHT_START.B
TARGET_POS.C = TAUGHT_START.C
LIN TARGET_POS C_DIS
CONTINUE
OFFSET_POS = {X -0.914, Y -54.778, Z 2.000, A 0, B 0, C 0}
TARGET_POS = TAUGHT_START
TARGET_POS.X = TAUGHT_START.X + OFFSET_POS.X
TARGET_POS.Y = TAUGHT_START.Y + OFFSET_POS.Y
TARGET_POS.Z = TAUGHT_START.Z + OFFSET_POS.Z
TARGET_POS.A = TAUGHT_START.A
TARGET_POS.B = TAUGHT_START.B
TARGET_POS.C = TAUGHT_START.C
LIN TARGET_POS C_DIS
CONTINUE
OFFSET_POS = {X -0.891, Y -54.855, Z 2.000, A 0, B 0, C 0}
TARGET_POS = TAUGHT_START
TARGET_POS.X = TAUGHT_START.X + OFFSET_POS.X
TARGET_POS.Y = TAUGHT_START.Y + OFFSET_POS.Y
TARGET_POS.Z = TAUGHT_START.Z + OFFSET_POS.Z
TARGET_POS.A = TAUGHT_START.A
TARGET_POS.B = TAUGHT_START.B
TARGET_POS.C = TAUGHT_START.C
LIN TARGET_POS C_DIS
CONTINUE
OFFSET_POS = {X -0.814, Y -54.880, Z 2.000, A 0, B 0, C 0}
TARGET_POS = TAUGHT_START
TARGET_POS.X = TAUGHT_START.X + OFFSET_POS.X
TARGET_POS.Y = TAUGHT_START.Y + OFFSET_POS.Y
TARGET_POS.Z = TAUGHT_START.Z + OFFSET_POS.Z
TARGET_POS.A = TAUGHT_START.A
TARGET_POS.B = TAUGHT_START.B
TARGET_POS.C = TAUGHT_START.C
LIN TARGET_POS C_DIS
CONTINUE
OFFSET_POS = {X -0.738, Y -54.904, Z 2.000, A 0, B 0, C 0}
TARGET_POS = TAUGHT_START
TARGET_POS.X = TAUGHT_START.X + OFFSET_POS.X
TARGET_POS.Y = TAUGHT_START.Y + OFFSET_POS.Y
TARGET_POS.Z = TAUGHT_START.Z + OFFSET_POS.Z
TARGET_POS.A = TAUGHT_START.A
TARGET_POS.B = TAUGHT_START.B
TARGET_POS.C = TAUGHT_START.C
LIN TARGET_POS C_DIS
CONTINUE
OFFSET_POS = {X -0.662, Y -54.929, Z 2.000, A 0, B 0, C 0}
TARGET_POS = TAUGHT_START
TARGET_POS.X = TAUGHT_START.X + OFFSET_POS.X
TARGET_POS.Y = TAUGHT_START.Y + OFFSET_POS.Y
TARGET_POS.Z = TAUGHT_START.Z + OFFSET_POS.Z
TARGET_POS.A = TAUGHT_START.A
TARGET_POS.B = TAUGHT_START.B
TARGET_POS.C = TAUGHT_START.C
LIN TARGET_POS C_DIS
CONTINUE
OFFSET_POS = {X -0.585, Y -54.954, Z 2.000, A 0, B 0, C 0}
TARGET_POS = TAUGHT_START
TARGET_POS.X = TAUGHT_START.X + OFFSET_POS.X
TARGET_POS.Y = TAUGHT_START.Y + OFFSET_POS.Y
TARGET_POS.Z = TAUGHT_START.Z + OFFSET_POS.Z
TARGET_POS.A = TAUGHT_START.A
TARGET_POS.B = TAUGHT_START.B
TARGET_POS.C = TAUGHT_START.C
LIN TARGET_POS C_DIS
CONTINUE
OFFSET_POS = {X -0.509, Y -54.979, Z 2.000, A 0, B 0, C 0}
TARGET_POS = TAUGHT_START
TARGET_POS.X = TAUGHT_START.X + OFFSET_POS.X
TARGET_POS.Y = TAUGHT_START.Y + OFFSET_POS.Y
TARGET_POS.Z = TAUGHT_START.Z + OFFSET_POS.Z
TARGET_POS.A = TAUGHT_START.A
TARGET_POS.B = TAUGHT_START.B
TARGET_POS.C = TAUGHT_START.C
LIN TARGET_POS C_DIS
CONTINUE
OFFSET_POS = {X -0.433, Y -55.004, Z 2.000, A 0, B 0, C 0}
TARGET_POS = TAUGHT_START
TARGET_POS.X = TAUGHT_START.X + OFFSET_POS.X
TARGET_POS.Y = TAUGHT_START.Y + OFFSET_POS.Y
TARGET_POS.Z = TAUGHT_START.Z + OFFSET_POS.Z
TARGET_POS.A = TAUGHT_START.A
TARGET_POS.B = TAUGHT_START.B
TARGET_POS.C = TAUGHT_START.C
LIN TARGET_POS C_DIS
CONTINUE
OFFSET_POS = {X -0.356, Y -55.028, Z 2.000, A 0, B 0, C 0}
TARGET_POS = TAUGHT_START
TARGET_POS.X = TAUGHT_START.X + OFFSET_POS.X
TARGET_POS.Y = TAUGHT_START.Y + OFFSET_POS.Y
TARGET_POS.Z = TAUGHT_START.Z + OFFSET_POS.Z
TARGET_POS.A = TAUGHT_START.A
TARGET_POS.B = TAUGHT_START.B
TARGET_POS.C = TAUGHT_START.C
LIN TARGET_POS C_DIS
CONTINUE
OFFSET_POS = {X -0.280, Y -55.053, Z 2.000, A 0, B 0, C 0}
TARGET_POS = TAUGHT_START
TARGET_POS.X = TAUGHT_START.X + OFFSET_POS.X
TARGET_POS.Y = TAUGHT_START.Y + OFFSET_POS.Y
TARGET_POS.Z = TAUGHT_START.Z + OFFSET_POS.Z
TARGET_POS.A = TAUGHT_START.A
TARGET_POS.B = TAUGHT_START.B
TARGET_POS.C = TAUGHT_START.C
LIN TARGET_POS C_DIS
CONTINUE
OFFSET_POS = {X -0.204, Y -55.078, Z 2.000, A 0, B 0, C 0}
TARGET_POS = TAUGHT_START
TARGET_POS.X = TAUGHT_START.X + OFFSET_POS.X
TARGET_POS.Y = TAUGHT_START.Y + OFFSET_POS.Y
TARGET_POS.Z = TAUGHT_START.Z + OFFSET_POS.Z
TARGET_POS.A = TAUGHT_START.A
TARGET_POS.B = TAUGHT_START.B
TARGET_POS.C = TAUGHT_START.C
LIN TARGET_POS C_DIS
CONTINUE
OFFSET_POS = {X -0.127, Y -55.103, Z 2.000, A 0, B 0, C 0}
TARGET_POS = TAUGHT_START
TARGET_POS.X = TAUGHT_START.X + OFFSET_POS.X
TARGET_POS.Y = TAUGHT_START.Y + OFFSET_POS.Y
TARGET_POS.Z = TAUGHT_START.Z + OFFSET_POS.Z
TARGET_POS.A = TAUGHT_START.A
TARGET_POS.B = TAUGHT_START.B
TARGET_POS.C = TAUGHT_START.C
LIN TARGET_POS C_DIS
CONTINUE
OFFSET_POS = {X -0.051, Y -55.127, Z 2.000, A 0, B 0, C 0}
TARGET_POS = TAUGHT_START
TARGET_POS.X = TAUGHT_START.X + OFFSET_POS.X
TARGET_POS.Y = TAUGHT_START.Y + OFFSET_POS.Y
TARGET_POS.Z = TAUGHT_START.Z + OFFSET_POS.Z
TARGET_POS.A = TAUGHT_START.A
TARGET_POS.B = TAUGHT_START.B
TARGET_POS.C = TAUGHT_START.C
LIN TARGET_POS C_DIS
CONTINUE
OFFSET_POS = {X 0.159, Y -55.152, Z 2.000, A 0, B 0, C 0}
TARGET_POS = TAUGHT_START
TARGET_POS.X = TAUGHT_START.X + OFFSET_POS.X
TARGET_POS.Y = TAUGHT_START.Y + OFFSET_POS.Y
TARGET_POS.Z = TAUGHT_START.Z + OFFSET_POS.Z
TARGET_POS.A = TAUGHT_START.A
TARGET_POS.B = TAUGHT_START.B
TARGET_POS.C = TAUGHT_START.C
LIN TARGET_POS C_DIS
CONTINUE
OFFSET_POS = {X 0.370, Y -55.176, Z 2.000, A 0, B 0, C 0}
TARGET_POS = TAUGHT_START
TARGET_POS.X = TAUGHT_START.X + OFFSET_POS.X
TARGET_POS.Y = TAUGHT_START.Y + OFFSET_POS.Y
TARGET_POS.Z = TAUGHT_START.Z + OFFSET_POS.Z
TARGET_POS.A = TAUGHT_START.A
TARGET_POS.B = TAUGHT_START.B
TARGET_POS.C = TAUGHT_START.C
LIN TARGET_POS C_DIS
CONTINUE
OFFSET_POS = {X 0.580, Y -55.201, Z 2.000, A 0, B 0, C 0}
TARGET_POS = TAUGHT_START
TARGET_POS.X = TAUGHT_START.X + OFFSET_POS.X
TARGET_POS.Y = TAUGHT_START.Y + OFFSET_POS.Y
TARGET_POS.Z = TAUGHT_START.Z + OFFSET_POS.Z
TARGET_POS.A = TAUGHT_START.A
TARGET_POS.B = TAUGHT_START.B
TARGET_POS.C = TAUGHT_START.C
LIN TARGET_POS C_DIS
CONTINUE
OFFSET_POS = {X 0.791, Y -55.225, Z 2.000, A 0, B 0, C 0}
TARGET_POS = TAUGHT_START
TARGET_POS.X = TAUGHT_START.X + OFFSET_POS.X
TARGET_POS.Y = TAUGHT_START.Y + OFFSET_POS.Y
TARGET_POS.Z = TAUGHT_START.Z + OFFSET_POS.Z
TARGET_POS.A = TAUGHT_START.A
TARGET_POS.B = TAUGHT_START.B
TARGET_POS.C = TAUGHT_START.C
LIN TARGET_POS C_DIS
CONTINUE
OFFSET_POS = {X 92.213, Y -56.386, Z 2.000, A 0, B 0, C 0}
TARGET_POS = TAUGHT_START
TARGET_POS.X = TAUGHT_START.X + OFFSET_POS.X
TARGET_POS.Y = TAUGHT_START.Y + OFFSET_POS.Y
TARGET_POS.Z = TAUGHT_START.Z + OFFSET_POS.Z
TARGET_POS.A = TAUGHT_START.A
TARGET_POS.B = TAUGHT_START.B
TARGET_POS.C = TAUGHT_START.C
LIN TARGET_POS C_DIS
CONTINUE
OFFSET_POS = {X 92.424, Y -56.367, Z 2.000, A 0, B 0, C 0}
TARGET_POS = TAUGHT_START
TARGET_POS.X = TAUGHT_START.X + OFFSET_POS.X
TARGET_POS.Y = TAUGHT_START.Y + OFFSET_POS.Y
TARGET_POS.Z = TAUGHT_START.Z + OFFSET_POS.Z
TARGET_POS.A = TAUGHT_START.A
TARGET_POS.B = TAUGHT_START.B
TARGET_POS.C = TAUGHT_START.C
LIN TARGET_POS C_DIS
CONTINUE
OFFSET_POS = {X 92.635, Y -56.347, Z 2.000, A 0, B 0, C 0}
TARGET_POS = TAUGHT_START
TARGET_POS.X = TAUGHT_START.X + OFFSET_POS.X
TARGET_POS.Y = TAUGHT_START.Y + OFFSET_POS.Y
TARGET_POS.Z = TAUGHT_START.Z + OFFSET_POS.Z
TARGET_POS.A = TAUGHT_START.A
TARGET_POS.B = TAUGHT_START.B
TARGET_POS.C = TAUGHT_START.C
LIN TARGET_POS C_DIS
CONTINUE
OFFSET_POS = {X 92.846, Y -56.328, Z 2.000, A 0, B 0, C 0}
TARGET_POS = TAUGHT_START
TARGET_POS.X = TAUGHT_START.X + OFFSET_POS.X
TARGET_POS.Y = TAUGHT_START.Y + OFFSET_POS.Y
TARGET_POS.Z = TAUGHT_START.Z + OFFSET_POS.Z
TARGET_POS.A = TAUGHT_START.A
TARGET_POS.B = TAUGHT_START.B
TARGET_POS.C = TAUGHT_START.C
LIN TARGET_POS C_DIS
CONTINUE
OFFSET_POS = {X 93.057, Y -56.309, Z 2.000, A 0, B 0, C 0}
TARGET_POS = TAUGHT_START
TARGET_POS.X = TAUGHT_START.X + OFFSET_POS.X
TARGET_POS.Y = TAUGHT_START.Y + OFFSET_POS.Y
TARGET_POS.Z = TAUGHT_START.Z + OFFSET_POS.Z
TARGET_POS.A = TAUGHT_START.A
TARGET_POS.B = TAUGHT_START.B
TARGET_POS.C = TAUGHT_START.C
LIN TARGET_POS C_DIS
CONTINUE
OFFSET_POS = {X 93.134, Y -56.286, Z 2.000, A 0, B 0, C 0}
TARGET_POS = TAUGHT_START
TARGET_POS.X = TAUGHT_START.X + OFFSET_POS.X
TARGET_POS.Y = TAUGHT_START.Y + OFFSET_POS.Y
TARGET_POS.Z = TAUGHT_START.Z + OFFSET_POS.Z
TARGET_POS.A = TAUGHT_START.A
TARGET_POS.B = TAUGHT_START.B
TARGET_POS.C = TAUGHT_START.C
LIN TARGET_POS C_DIS
CONTINUE
OFFSET_POS = {X 93.211, Y -56.263, Z 2.000, A 0, B 0, C 0}
TARGET_POS = TAUGHT_START
TARGET_POS.X = TAUGHT_START.X + OFFSET_POS.X
TARGET_POS.Y = TAUGHT_START.Y + OFFSET_POS.Y
TARGET_POS.Z = TAUGHT_START.Z + OFFSET_POS.Z
TARGET_POS.A = TAUGHT_START.A
TARGET_POS.B = TAUGHT_START.B
TARGET_POS.C = TAUGHT_START.C
LIN TARGET_POS C_DIS
CONTINUE
OFFSET_POS = {X 93.288, Y -56.241, Z 2.000, A 0, B 0, C 0}
TARGET_POS = TAUGHT_START
TARGET_POS.X = TAUGHT_START.X + OFFSET_POS.X
TARGET_POS.Y = TAUGHT_START.Y + OFFSET_POS.Y
TARGET_POS.Z = TAUGHT_START.Z + OFFSET_POS.Z
TARGET_POS.A = TAUGHT_START.A
TARGET_POS.B = TAUGHT_START.B
TARGET_POS.C = TAUGHT_START.C
LIN TARGET_POS C_DIS
CONTINUE
OFFSET_POS = {X 93.365, Y -56.218, Z 2.000, A 0, B 0, C 0}
TARGET_POS = TAUGHT_START
TARGET_POS.X = TAUGHT_START.X + OFFSET_POS.X
TARGET_POS.Y = TAUGHT_START.Y + OFFSET_POS.Y
TARGET_POS.Z = TAUGHT_START.Z + OFFSET_POS.Z
TARGET_POS.A = TAUGHT_START.A
TARGET_POS.B = TAUGHT_START.B
TARGET_POS.C = TAUGHT_START.C
LIN TARGET_POS C_DIS
CONTINUE
OFFSET_POS = {X 93.442, Y -56.195, Z 2.000, A 0, B 0, C 0}
TARGET_POS = TAUGHT_START
TARGET_POS.X = TAUGHT_START.X + OFFSET_POS.X
TARGET_POS.Y = TAUGHT_START.Y + OFFSET_POS.Y
TARGET_POS.Z = TAUGHT_START.Z + OFFSET_POS.Z
TARGET_POS.A = TAUGHT_START.A
TARGET_POS.B = TAUGHT_START.B
TARGET_POS.C = TAUGHT_START.C
LIN TARGET_POS C_DIS
CONTINUE
OFFSET_POS = {X 93.518, Y -56.172, Z 2.000, A 0, B 0, C 0}
TARGET_POS = TAUGHT_START
TARGET_POS.X = TAUGHT_START.X + OFFSET_POS.X
TARGET_POS.Y = TAUGHT_START.Y + OFFSET_POS.Y
TARGET_POS.Z = TAUGHT_START.Z + OFFSET_POS.Z
TARGET_POS.A = TAUGHT_START.A
TARGET_POS.B = TAUGHT_START.B
TARGET_POS.C = TAUGHT_START.C
LIN TARGET_POS C_DIS
CONTINUE
OFFSET_POS = {X 93.595, Y -56.149, Z 2.000, A 0, B 0, C 0}
TARGET_POS = TAUGHT_START
TARGET_POS.X = TAUGHT_START.X + OFFSET_POS.X
TARGET_POS.Y = TAUGHT_START.Y + OFFSET_POS.Y
TARGET_POS.Z = TAUGHT_START.Z + OFFSET_POS.Z
TARGET_POS.A = TAUGHT_START.A
TARGET_POS.B = TAUGHT_START.B
TARGET_POS.C = TAUGHT_START.C
LIN TARGET_POS C_DIS
CONTINUE
OFFSET_POS = {X 93.672, Y -56.126, Z 2.000, A 0, B 0, C 0}
TARGET_POS = TAUGHT_START
TARGET_POS.X = TAUGHT_START.X + OFFSET_POS.X
TARGET_POS.Y = TAUGHT_START.Y + OFFSET_POS.Y
TARGET_POS.Z = TAUGHT_START.Z + OFFSET_POS.Z
TARGET_POS.A = TAUGHT_START.A
TARGET_POS.B = TAUGHT_START.B
TARGET_POS.C = TAUGHT_START.C
LIN TARGET_POS C_DIS
CONTINUE
OFFSET_POS = {X 93.749, Y -56.104, Z 2.000, A 0, B 0, C 0}
TARGET_POS = TAUGHT_START
TARGET_POS.X = TAUGHT_START.X + OFFSET_POS.X
TARGET_POS.Y = TAUGHT_START.Y + OFFSET_POS.Y
TARGET_POS.Z = TAUGHT_START.Z + OFFSET_POS.Z
TARGET_POS.A = TAUGHT_START.A
TARGET_POS.B = TAUGHT_START.B
TARGET_POS.C = TAUGHT_START.C
LIN TARGET_POS C_DIS
CONTINUE
OFFSET_POS = {X 93.826, Y -56.081, Z 2.000, A 0, B 0, C 0}
TARGET_POS = TAUGHT_START
TARGET_POS.X = TAUGHT_START.X + OFFSET_POS.X
TARGET_POS.Y = TAUGHT_START.Y + OFFSET_POS.Y
TARGET_POS.Z = TAUGHT_START.Z + OFFSET_POS.Z
TARGET_POS.A = TAUGHT_START.A
TARGET_POS.B = TAUGHT_START.B
TARGET_POS.C = TAUGHT_START.C
LIN TARGET_POS C_DIS
CONTINUE
OFFSET_POS = {X 93.903, Y -56.058, Z 2.000, A 0, B 0, C 0}
TARGET_POS = TAUGHT_START
TARGET_POS.X = TAUGHT_START.X + OFFSET_POS.X
TARGET_POS.Y = TAUGHT_START.Y + OFFSET_POS.Y
TARGET_POS.Z = TAUGHT_START.Z + OFFSET_POS.Z
TARGET_POS.A = TAUGHT_START.A
TARGET_POS.B = TAUGHT_START.B
TARGET_POS.C = TAUGHT_START.C
LIN TARGET_POS C_DIS
CONTINUE
OFFSET_POS = {X 93.928, Y -55.982, Z 2.000, A 0, B 0, C 0}
TARGET_POS = TAUGHT_START
TARGET_POS.X = TAUGHT_START.X + OFFSET_POS.X
TARGET_POS.Y = TAUGHT_START.Y + OFFSET_POS.Y
TARGET_POS.Z = TAUGHT_START.Z + OFFSET_POS.Z
TARGET_POS.A = TAUGHT_START.A
TARGET_POS.B = TAUGHT_START.B
TARGET_POS.C = TAUGHT_START.C
LIN TARGET_POS C_DIS
CONTINUE
OFFSET_POS = {X 93.953, Y -55.905, Z 2.000, A 0, B 0, C 0}
TARGET_POS = TAUGHT_START
TARGET_POS.X = TAUGHT_START.X + OFFSET_POS.X
TARGET_POS.Y = TAUGHT_START.Y + OFFSET_POS.Y
TARGET_POS.Z = TAUGHT_START.Z + OFFSET_POS.Z
TARGET_POS.A = TAUGHT_START.A
TARGET_POS.B = TAUGHT_START.B
TARGET_POS.C = TAUGHT_START.C
LIN TARGET_POS C_DIS
CONTINUE
OFFSET_POS = {X 93.977, Y -55.829, Z 2.000, A 0, B 0, C 0}
TARGET_POS = TAUGHT_START
TARGET_POS.X = TAUGHT_START.X + OFFSET_POS.X
TARGET_POS.Y = TAUGHT_START.Y + OFFSET_POS.Y
TARGET_POS.Z = TAUGHT_START.Z + OFFSET_POS.Z
TARGET_POS.A = TAUGHT_START.A
TARGET_POS.B = TAUGHT_START.B
TARGET_POS.C = TAUGHT_START.C
LIN TARGET_POS C_DIS
CONTINUE
OFFSET_POS = {X 94.002, Y -55.753, Z 2.000, A 0, B 0, C 0}
TARGET_POS = TAUGHT_START
TARGET_POS.X = TAUGHT_START.X + OFFSET_POS.X
TARGET_POS.Y = TAUGHT_START.Y + OFFSET_POS.Y
TARGET_POS.Z = TAUGHT_START.Z + OFFSET_POS.Z
TARGET_POS.A = TAUGHT_START.A
TARGET_POS.B = TAUGHT_START.B
TARGET_POS.C = TAUGHT_START.C
LIN TARGET_POS C_DIS
CONTINUE
OFFSET_POS = {X 94.027, Y -55.676, Z 2.000, A 0, B 0, C 0}
TARGET_POS = TAUGHT_START
TARGET_POS.X = TAUGHT_START.X + OFFSET_POS.X
TARGET_POS.Y = TAUGHT_START.Y + OFFSET_POS.Y
TARGET_POS.Z = TAUGHT_START.Z + OFFSET_POS.Z
TARGET_POS.A = TAUGHT_START.A
TARGET_POS.B = TAUGHT_START.B
TARGET_POS.C = TAUGHT_START.C
LIN TARGET_POS C_DIS
CONTINUE
OFFSET_POS = {X 94.052, Y -55.600, Z 2.000, A 0, B 0, C 0}
TARGET_POS = TAUGHT_START
TARGET_POS.X = TAUGHT_START.X + OFFSET_POS.X
TARGET_POS.Y = TAUGHT_START.Y + OFFSET_POS.Y
TARGET_POS.Z = TAUGHT_START.Z + OFFSET_POS.Z
TARGET_POS.A = TAUGHT_START.A
TARGET_POS.B = TAUGHT_START.B
TARGET_POS.C = TAUGHT_START.C
LIN TARGET_POS C_DIS
CONTINUE
OFFSET_POS = {X 94.077, Y -55.524, Z 2.000, A 0, B 0, C 0}
TARGET_POS = TAUGHT_START
TARGET_POS.X = TAUGHT_START.X + OFFSET_POS.X
TARGET_POS.Y = TAUGHT_START.Y + OFFSET_POS.Y
TARGET_POS.Z = TAUGHT_START.Z + OFFSET_POS.Z
TARGET_POS.A = TAUGHT_START.A
TARGET_POS.B = TAUGHT_START.B
TARGET_POS.C = TAUGHT_START.C
LIN TARGET_POS C_DIS
CONTINUE
OFFSET_POS = {X 94.101, Y -55.447, Z 2.000, A 0, B 0, C 0}
TARGET_POS = TAUGHT_START
TARGET_POS.X = TAUGHT_START.X + OFFSET_POS.X
TARGET_POS.Y = TAUGHT_START.Y + OFFSET_POS.Y
TARGET_POS.Z = TAUGHT_START.Z + OFFSET_POS.Z
TARGET_POS.A = TAUGHT_START.A
TARGET_POS.B = TAUGHT_START.B
TARGET_POS.C = TAUGHT_START.C
LIN TARGET_POS C_DIS
CONTINUE
OFFSET_POS = {X 94.126, Y -55.371, Z 2.000, A 0, B 0, C 0}
TARGET_POS = TAUGHT_START
TARGET_POS.X = TAUGHT_START.X + OFFSET_POS.X
TARGET_POS.Y = TAUGHT_START.Y + OFFSET_POS.Y
TARGET_POS.Z = TAUGHT_START.Z + OFFSET_POS.Z
TARGET_POS.A = TAUGHT_START.A
TARGET_POS.B = TAUGHT_START.B
TARGET_POS.C = TAUGHT_START.C
LIN TARGET_POS C_DIS
CONTINUE
OFFSET_POS = {X 94.151, Y -55.294, Z 2.000, A 0, B 0, C 0}
TARGET_POS = TAUGHT_START
TARGET_POS.X = TAUGHT_START.X + OFFSET_POS.X
TARGET_POS.Y = TAUGHT_START.Y + OFFSET_POS.Y
TARGET_POS.Z = TAUGHT_START.Z + OFFSET_POS.Z
TARGET_POS.A = TAUGHT_START.A
TARGET_POS.B = TAUGHT_START.B
TARGET_POS.C = TAUGHT_START.C
LIN TARGET_POS C_DIS
CONTINUE
OFFSET_POS = {X 94.176, Y -55.218, Z 2.000, A 0, B 0, C 0}
TARGET_POS = TAUGHT_START
TARGET_POS.X = TAUGHT_START.X + OFFSET_POS.X
TARGET_POS.Y = TAUGHT_START.Y + OFFSET_POS.Y
TARGET_POS.Z = TAUGHT_START.Z + OFFSET_POS.Z
TARGET_POS.A = TAUGHT_START.A
TARGET_POS.B = TAUGHT_START.B
TARGET_POS.C = TAUGHT_START.C
LIN TARGET_POS C_DIS
CONTINUE
OFFSET_POS = {X 94.200, Y -55.008, Z 2.000, A 0, B 0, C 0}
TARGET_POS = TAUGHT_START
TARGET_POS.X = TAUGHT_START.X + OFFSET_POS.X
TARGET_POS.Y = TAUGHT_START.Y + OFFSET_POS.Y
TARGET_POS.Z = TAUGHT_START.Z + OFFSET_POS.Z
TARGET_POS.A = TAUGHT_START.A
TARGET_POS.B = TAUGHT_START.B
TARGET_POS.C = TAUGHT_START.C
LIN TARGET_POS C_DIS
CONTINUE
OFFSET_POS = {X 94.225, Y -54.797, Z 2.000, A 0, B 0, C 0}
TARGET_POS = TAUGHT_START
TARGET_POS.X = TAUGHT_START.X + OFFSET_POS.X
TARGET_POS.Y = TAUGHT_START.Y + OFFSET_POS.Y
TARGET_POS.Z = TAUGHT_START.Z + OFFSET_POS.Z
TARGET_POS.A = TAUGHT_START.A
TARGET_POS.B = TAUGHT_START.B
TARGET_POS.C = TAUGHT_START.C
LIN TARGET_POS C_DIS
CONTINUE
OFFSET_POS = {X 94.249, Y -54.587, Z 2.000, A 0, B 0, C 0}
TARGET_POS = TAUGHT_START
TARGET_POS.X = TAUGHT_START.X + OFFSET_POS.X
TARGET_POS.Y = TAUGHT_START.Y + OFFSET_POS.Y
TARGET_POS.Z = TAUGHT_START.Z + OFFSET_POS.Z
TARGET_POS.A = TAUGHT_START.A
TARGET_POS.B = TAUGHT_START.B
TARGET_POS.C = TAUGHT_START.C
LIN TARGET_POS C_DIS
CONTINUE
OFFSET_POS = {X 94.274, Y -54.376, Z 2.000, A 0, B 0, C 0}
TARGET_POS = TAUGHT_START
TARGET_POS.X = TAUGHT_START.X + OFFSET_POS.X
TARGET_POS.Y = TAUGHT_START.Y + OFFSET_POS.Y
TARGET_POS.Z = TAUGHT_START.Z + OFFSET_POS.Z
TARGET_POS.A = TAUGHT_START.A
TARGET_POS.B = TAUGHT_START.B
TARGET_POS.C = TAUGHT_START.C
LIN TARGET_POS C_DIS
CONTINUE
OFFSET_POS = {X 94.926, Y -2.951, Z 2.000, A 0, B 0, C 0}
TARGET_POS = TAUGHT_START
TARGET_POS.X = TAUGHT_START.X + OFFSET_POS.X
TARGET_POS.Y = TAUGHT_START.Y + OFFSET_POS.Y
TARGET_POS.Z = TAUGHT_START.Z + OFFSET_POS.Z
TARGET_POS.A = TAUGHT_START.A
TARGET_POS.B = TAUGHT_START.B
TARGET_POS.C = TAUGHT_START.C
LIN TARGET_POS C_DIS
CONTINUE
OFFSET_POS = {X 94.907, Y -2.740, Z 2.000, A 0, B 0, C 0}
TARGET_POS = TAUGHT_START
TARGET_POS.X = TAUGHT_START.X + OFFSET_POS.X
TARGET_POS.Y = TAUGHT_START.Y + OFFSET_POS.Y
TARGET_POS.Z = TAUGHT_START.Z + OFFSET_POS.Z
TARGET_POS.A = TAUGHT_START.A
TARGET_POS.B = TAUGHT_START.B
TARGET_POS.C = TAUGHT_START.C
LIN TARGET_POS C_DIS
CONTINUE
OFFSET_POS = {X 94.888, Y -2.529, Z 2.000, A 0, B 0, C 0}
TARGET_POS = TAUGHT_START
TARGET_POS.X = TAUGHT_START.X + OFFSET_POS.X
TARGET_POS.Y = TAUGHT_START.Y + OFFSET_POS.Y
TARGET_POS.Z = TAUGHT_START.Z + OFFSET_POS.Z
TARGET_POS.A = TAUGHT_START.A
TARGET_POS.B = TAUGHT_START.B
TARGET_POS.C = TAUGHT_START.C
LIN TARGET_POS C_DIS
CONTINUE
OFFSET_POS = {X 94.869, Y -2.318, Z 2.000, A 0, B 0, C 0}
TARGET_POS = TAUGHT_START
TARGET_POS.X = TAUGHT_START.X + OFFSET_POS.X
TARGET_POS.Y = TAUGHT_START.Y + OFFSET_POS.Y
TARGET_POS.Z = TAUGHT_START.Z + OFFSET_POS.Z
TARGET_POS.A = TAUGHT_START.A
TARGET_POS.B = TAUGHT_START.B
TARGET_POS.C = TAUGHT_START.C
LIN TARGET_POS C_DIS
CONTINUE
OFFSET_POS = {X 94.850, Y -2.107, Z 2.000, A 0, B 0, C 0}
TARGET_POS = TAUGHT_START
TARGET_POS.X = TAUGHT_START.X + OFFSET_POS.X
TARGET_POS.Y = TAUGHT_START.Y + OFFSET_POS.Y
TARGET_POS.Z = TAUGHT_START.Z + OFFSET_POS.Z
TARGET_POS.A = TAUGHT_START.A
TARGET_POS.B = TAUGHT_START.B
TARGET_POS.C = TAUGHT_START.C
LIN TARGET_POS C_DIS
CONTINUE
OFFSET_POS = {X 94.827, Y -2.030, Z 2.000, A 0, B 0, C 0}
TARGET_POS = TAUGHT_START
TARGET_POS.X = TAUGHT_START.X + OFFSET_POS.X
TARGET_POS.Y = TAUGHT_START.Y + OFFSET_POS.Y
TARGET_POS.Z = TAUGHT_START.Z + OFFSET_POS.Z
TARGET_POS.A = TAUGHT_START.A
TARGET_POS.B = TAUGHT_START.B
TARGET_POS.C = TAUGHT_START.C
LIN TARGET_POS C_DIS
CONTINUE
OFFSET_POS = {X 94.804, Y -1.953, Z 2.000, A 0, B 0, C 0}
TARGET_POS = TAUGHT_START
TARGET_POS.X = TAUGHT_START.X + OFFSET_POS.X
TARGET_POS.Y = TAUGHT_START.Y + OFFSET_POS.Y
TARGET_POS.Z = TAUGHT_START.Z + OFFSET_POS.Z
TARGET_POS.A = TAUGHT_START.A
TARGET_POS.B = TAUGHT_START.B
TARGET_POS.C = TAUGHT_START.C
LIN TARGET_POS C_DIS
CONTINUE
OFFSET_POS = {X 94.781, Y -1.876, Z 2.000, A 0, B 0, C 0}
TARGET_POS = TAUGHT_START
TARGET_POS.X = TAUGHT_START.X + OFFSET_POS.X
TARGET_POS.Y = TAUGHT_START.Y + OFFSET_POS.Y
TARGET_POS.Z = TAUGHT_START.Z + OFFSET_POS.Z
TARGET_POS.A = TAUGHT_START.A
TARGET_POS.B = TAUGHT_START.B
TARGET_POS.C = TAUGHT_START.C
LIN TARGET_POS C_DIS
CONTINUE
OFFSET_POS = {X 94.758, Y -1.799, Z 2.000, A 0, B 0, C 0}
TARGET_POS = TAUGHT_START
TARGET_POS.X = TAUGHT_START.X + OFFSET_POS.X
TARGET_POS.Y = TAUGHT_START.Y + OFFSET_POS.Y
TARGET_POS.Z = TAUGHT_START.Z + OFFSET_POS.Z
TARGET_POS.A = TAUGHT_START.A
TARGET_POS.B = TAUGHT_START.B
TARGET_POS.C = TAUGHT_START.C
LIN TARGET_POS C_DIS
CONTINUE
OFFSET_POS = {X 94.736, Y -1.722, Z 2.000, A 0, B 0, C 0}
TARGET_POS = TAUGHT_START
TARGET_POS.X = TAUGHT_START.X + OFFSET_POS.X
TARGET_POS.Y = TAUGHT_START.Y + OFFSET_POS.Y
TARGET_POS.Z = TAUGHT_START.Z + OFFSET_POS.Z
TARGET_POS.A = TAUGHT_START.A
TARGET_POS.B = TAUGHT_START.B
TARGET_POS.C = TAUGHT_START.C
LIN TARGET_POS C_DIS
CONTINUE
OFFSET_POS = {X 94.713, Y -1.645, Z 2.000, A 0, B 0, C 0}
TARGET_POS = TAUGHT_START
TARGET_POS.X = TAUGHT_START.X + OFFSET_POS.X
TARGET_POS.Y = TAUGHT_START.Y + OFFSET_POS.Y
TARGET_POS.Z = TAUGHT_START.Z + OFFSET_POS.Z
TARGET_POS.A = TAUGHT_START.A
TARGET_POS.B = TAUGHT_START.B
TARGET_POS.C = TAUGHT_START.C
LIN TARGET_POS C_DIS
CONTINUE
OFFSET_POS = {X 94.690, Y -1.568, Z 2.000, A 0, B 0, C 0}
TARGET_POS = TAUGHT_START
TARGET_POS.X = TAUGHT_START.X + OFFSET_POS.X
TARGET_POS.Y = TAUGHT_START.Y + OFFSET_POS.Y
TARGET_POS.Z = TAUGHT_START.Z + OFFSET_POS.Z
TARGET_POS.A = TAUGHT_START.A
TARGET_POS.B = TAUGHT_START.B
TARGET_POS.C = TAUGHT_START.C
LIN TARGET_POS C_DIS
CONTINUE
OFFSET_POS = {X 94.667, Y -1.492, Z 2.000, A 0, B 0, C 0}
TARGET_POS = TAUGHT_START
TARGET_POS.X = TAUGHT_START.X + OFFSET_POS.X
TARGET_POS.Y = TAUGHT_START.Y + OFFSET_POS.Y
TARGET_POS.Z = TAUGHT_START.Z + OFFSET_POS.Z
TARGET_POS.A = TAUGHT_START.A
TARGET_POS.B = TAUGHT_START.B
TARGET_POS.C = TAUGHT_START.C
LIN TARGET_POS C_DIS
CONTINUE
OFFSET_POS = {X 94.644, Y -1.415, Z 2.000, A 0, B 0, C 0}
TARGET_POS = TAUGHT_START
TARGET_POS.X = TAUGHT_START.X + OFFSET_POS.X
TARGET_POS.Y = TAUGHT_START.Y + OFFSET_POS.Y
TARGET_POS.Z = TAUGHT_START.Z + OFFSET_POS.Z
TARGET_POS.A = TAUGHT_START.A
TARGET_POS.B = TAUGHT_START.B
TARGET_POS.C = TAUGHT_START.C
LIN TARGET_POS C_DIS
CONTINUE
OFFSET_POS = {X 94.621, Y -1.338, Z 2.000, A 0, B 0, C 0}
TARGET_POS = TAUGHT_START
TARGET_POS.X = TAUGHT_START.X + OFFSET_POS.X
TARGET_POS.Y = TAUGHT_START.Y + OFFSET_POS.Y
TARGET_POS.Z = TAUGHT_START.Z + OFFSET_POS.Z
TARGET_POS.A = TAUGHT_START.A
TARGET_POS.B = TAUGHT_START.B
TARGET_POS.C = TAUGHT_START.C
LIN TARGET_POS C_DIS
CONTINUE
OFFSET_POS = {X 94.599, Y -1.261, Z 2.000, A 0, B 0, C 0}
TARGET_POS = TAUGHT_START
TARGET_POS.X = TAUGHT_START.X + OFFSET_POS.X
TARGET_POS.Y = TAUGHT_START.Y + OFFSET_POS.Y
TARGET_POS.Z = TAUGHT_START.Z + OFFSET_POS.Z
TARGET_POS.A = TAUGHT_START.A
TARGET_POS.B = TAUGHT_START.B
TARGET_POS.C = TAUGHT_START.C
LIN TARGET_POS C_DIS
CONTINUE
OFFSET_POS = {X 94.522, Y -1.236, Z 2.000, A 0, B 0, C 0}
TARGET_POS = TAUGHT_START
TARGET_POS.X = TAUGHT_START.X + OFFSET_POS.X
TARGET_POS.Y = TAUGHT_START.Y + OFFSET_POS.Y
TARGET_POS.Z = TAUGHT_START.Z + OFFSET_POS.Z
TARGET_POS.A = TAUGHT_START.A
TARGET_POS.B = TAUGHT_START.B
TARGET_POS.C = TAUGHT_START.C
LIN TARGET_POS C_DIS
CONTINUE
OFFSET_POS = {X 94.446, Y -1.211, Z 2.000, A 0, B 0, C 0}
TARGET_POS = TAUGHT_START
TARGET_POS.X = TAUGHT_START.X + OFFSET_POS.X
TARGET_POS.Y = TAUGHT_START.Y + OFFSET_POS.Y
TARGET_POS.Z = TAUGHT_START.Z + OFFSET_POS.Z
TARGET_POS.A = TAUGHT_START.A
TARGET_POS.B = TAUGHT_START.B
TARGET_POS.C = TAUGHT_START.C
LIN TARGET_POS C_DIS
CONTINUE
OFFSET_POS = {X 94.370, Y -1.186, Z 2.000, A 0, B 0, C 0}
TARGET_POS = TAUGHT_START
TARGET_POS.X = TAUGHT_START.X + OFFSET_POS.X
TARGET_POS.Y = TAUGHT_START.Y + OFFSET_POS.Y
TARGET_POS.Z = TAUGHT_START.Z + OFFSET_POS.Z
TARGET_POS.A = TAUGHT_START.A
TARGET_POS.B = TAUGHT_START.B
TARGET_POS.C = TAUGHT_START.C
LIN TARGET_POS C_DIS
CONTINUE
OFFSET_POS = {X 94.293, Y -1.162, Z 2.000, A 0, B 0, C 0}
TARGET_POS = TAUGHT_START
TARGET_POS.X = TAUGHT_START.X + OFFSET_POS.X
TARGET_POS.Y = TAUGHT_START.Y + OFFSET_POS.Y
TARGET_POS.Z = TAUGHT_START.Z + OFFSET_POS.Z
TARGET_POS.A = TAUGHT_START.A
TARGET_POS.B = TAUGHT_START.B
TARGET_POS.C = TAUGHT_START.C
LIN TARGET_POS C_DIS
CONTINUE
OFFSET_POS = {X 94.217, Y -1.137, Z 2.000, A 0, B 0, C 0}
TARGET_POS = TAUGHT_START
TARGET_POS.X = TAUGHT_START.X + OFFSET_POS.X
TARGET_POS.Y = TAUGHT_START.Y + OFFSET_POS.Y
TARGET_POS.Z = TAUGHT_START.Z + OFFSET_POS.Z
TARGET_POS.A = TAUGHT_START.A
TARGET_POS.B = TAUGHT_START.B
TARGET_POS.C = TAUGHT_START.C
LIN TARGET_POS C_DIS
CONTINUE
OFFSET_POS = {X 94.141, Y -1.112, Z 2.000, A 0, B 0, C 0}
TARGET_POS = TAUGHT_START
TARGET_POS.X = TAUGHT_START.X + OFFSET_POS.X
TARGET_POS.Y = TAUGHT_START.Y + OFFSET_POS.Y
TARGET_POS.Z = TAUGHT_START.Z + OFFSET_POS.Z
TARGET_POS.A = TAUGHT_START.A
TARGET_POS.B = TAUGHT_START.B
TARGET_POS.C = TAUGHT_START.C
LIN TARGET_POS C_DIS
CONTINUE
OFFSET_POS = {X 94.064, Y -1.087, Z 2.000, A 0, B 0, C 0}
TARGET_POS = TAUGHT_START
TARGET_POS.X = TAUGHT_START.X + OFFSET_POS.X
TARGET_POS.Y = TAUGHT_START.Y + OFFSET_POS.Y
TARGET_POS.Z = TAUGHT_START.Z + OFFSET_POS.Z
TARGET_POS.A = TAUGHT_START.A
TARGET_POS.B = TAUGHT_START.B
TARGET_POS.C = TAUGHT_START.C
LIN TARGET_POS C_DIS
CONTINUE
OFFSET_POS = {X 93.988, Y -1.062, Z 2.000, A 0, B 0, C 0}
TARGET_POS = TAUGHT_START
TARGET_POS.X = TAUGHT_START.X + OFFSET_POS.X
TARGET_POS.Y = TAUGHT_START.Y + OFFSET_POS.Y
TARGET_POS.Z = TAUGHT_START.Z + OFFSET_POS.Z
TARGET_POS.A = TAUGHT_START.A
TARGET_POS.B = TAUGHT_START.B
TARGET_POS.C = TAUGHT_START.C
LIN TARGET_POS C_DIS
CONTINUE
OFFSET_POS = {X 93.912, Y -1.038, Z 2.000, A 0, B 0, C 0}
TARGET_POS = TAUGHT_START
TARGET_POS.X = TAUGHT_START.X + OFFSET_POS.X
TARGET_POS.Y = TAUGHT_START.Y + OFFSET_POS.Y
TARGET_POS.Z = TAUGHT_START.Z + OFFSET_POS.Z
TARGET_POS.A = TAUGHT_START.A
TARGET_POS.B = TAUGHT_START.B
TARGET_POS.C = TAUGHT_START.C
LIN TARGET_POS C_DIS
CONTINUE
OFFSET_POS = {X 93.835, Y -1.013, Z 2.000, A 0, B 0, C 0}
TARGET_POS = TAUGHT_START
TARGET_POS.X = TAUGHT_START.X + OFFSET_POS.X
TARGET_POS.Y = TAUGHT_START.Y + OFFSET_POS.Y
TARGET_POS.Z = TAUGHT_START.Z + OFFSET_POS.Z
TARGET_POS.A = TAUGHT_START.A
TARGET_POS.B = TAUGHT_START.B
TARGET_POS.C = TAUGHT_START.C
LIN TARGET_POS C_DIS
CONTINUE
OFFSET_POS = {X 93.759, Y -0.988, Z 2.000, A 0, B 0, C 0}
TARGET_POS = TAUGHT_START
TARGET_POS.X = TAUGHT_START.X + OFFSET_POS.X
TARGET_POS.Y = TAUGHT_START.Y + OFFSET_POS.Y
TARGET_POS.Z = TAUGHT_START.Z + OFFSET_POS.Z
TARGET_POS.A = TAUGHT_START.A
TARGET_POS.B = TAUGHT_START.B
TARGET_POS.C = TAUGHT_START.C
LIN TARGET_POS C_DIS
CONTINUE
OFFSET_POS = {X 93.548, Y -0.964, Z 2.000, A 0, B 0, C 0}
TARGET_POS = TAUGHT_START
TARGET_POS.X = TAUGHT_START.X + OFFSET_POS.X
TARGET_POS.Y = TAUGHT_START.Y + OFFSET_POS.Y
TARGET_POS.Z = TAUGHT_START.Z + OFFSET_POS.Z
TARGET_POS.A = TAUGHT_START.A
TARGET_POS.B = TAUGHT_START.B
TARGET_POS.C = TAUGHT_START.C
LIN TARGET_POS C_DIS
CONTINUE
OFFSET_POS = {X 93.338, Y -0.939, Z 2.000, A 0, B 0, C 0}
TARGET_POS = TAUGHT_START
TARGET_POS.X = TAUGHT_START.X + OFFSET_POS.X
TARGET_POS.Y = TAUGHT_START.Y + OFFSET_POS.Y
TARGET_POS.Z = TAUGHT_START.Z + OFFSET_POS.Z
TARGET_POS.A = TAUGHT_START.A
TARGET_POS.B = TAUGHT_START.B
TARGET_POS.C = TAUGHT_START.C
LIN TARGET_POS C_DIS
CONTINUE
OFFSET_POS = {X 93.127, Y -0.915, Z 2.000, A 0, B 0, C 0}
TARGET_POS = TAUGHT_START
TARGET_POS.X = TAUGHT_START.X + OFFSET_POS.X
TARGET_POS.Y = TAUGHT_START.Y + OFFSET_POS.Y
TARGET_POS.Z = TAUGHT_START.Z + OFFSET_POS.Z
TARGET_POS.A = TAUGHT_START.A
TARGET_POS.B = TAUGHT_START.B
TARGET_POS.C = TAUGHT_START.C
LIN TARGET_POS C_DIS
CONTINUE
OFFSET_POS = {X 92.917, Y -0.890, Z 2.000, A 0, B 0, C 0}
TARGET_POS = TAUGHT_START
TARGET_POS.X = TAUGHT_START.X + OFFSET_POS.X
TARGET_POS.Y = TAUGHT_START.Y + OFFSET_POS.Y
TARGET_POS.Z = TAUGHT_START.Z + OFFSET_POS.Z
TARGET_POS.A = TAUGHT_START.A
TARGET_POS.B = TAUGHT_START.B
TARGET_POS.C = TAUGHT_START.C
LIN TARGET_POS C_DIS
CONTINUE
OFFSET_POS = {X 1.495, Y 0.270, Z 2.000, A 0, B 0, C 0}
TARGET_POS = TAUGHT_START
TARGET_POS.X = TAUGHT_START.X + OFFSET_POS.X
TARGET_POS.Y = TAUGHT_START.Y + OFFSET_POS.Y
TARGET_POS.Z = TAUGHT_START.Z + OFFSET_POS.Z
TARGET_POS.A = TAUGHT_START.A
TARGET_POS.B = TAUGHT_START.B
TARGET_POS.C = TAUGHT_START.C
LIN TARGET_POS C_DIS
CONTINUE
OFFSET_POS = {X 1.284, Y 0.251, Z 2.000, A 0, B 0, C 0}
TARGET_POS = TAUGHT_START
TARGET_POS.X = TAUGHT_START.X + OFFSET_POS.X
TARGET_POS.Y = TAUGHT_START.Y + OFFSET_POS.Y
TARGET_POS.Z = TAUGHT_START.Z + OFFSET_POS.Z
TARGET_POS.A = TAUGHT_START.A
TARGET_POS.B = TAUGHT_START.B
TARGET_POS.C = TAUGHT_START.C
LIN TARGET_POS C_DIS
CONTINUE
OFFSET_POS = {X 1.073, Y 0.232, Z 2.000, A 0, B 0, C 0}
TARGET_POS = TAUGHT_START
TARGET_POS.X = TAUGHT_START.X + OFFSET_POS.X
TARGET_POS.Y = TAUGHT_START.Y + OFFSET_POS.Y
TARGET_POS.Z = TAUGHT_START.Z + OFFSET_POS.Z
TARGET_POS.A = TAUGHT_START.A
TARGET_POS.B = TAUGHT_START.B
TARGET_POS.C = TAUGHT_START.C
LIN TARGET_POS C_DIS
CONTINUE
OFFSET_POS = {X 0.862, Y 0.213, Z 2.000, A 0, B 0, C 0}
TARGET_POS = TAUGHT_START
TARGET_POS.X = TAUGHT_START.X + OFFSET_POS.X
TARGET_POS.Y = TAUGHT_START.Y + OFFSET_POS.Y
TARGET_POS.Z = TAUGHT_START.Z + OFFSET_POS.Z
TARGET_POS.A = TAUGHT_START.A
TARGET_POS.B = TAUGHT_START.B
TARGET_POS.C = TAUGHT_START.C
LIN TARGET_POS C_DIS
CONTINUE
OFFSET_POS = {X 0.651, Y 0.194, Z 2.000, A 0, B 0, C 0}
TARGET_POS = TAUGHT_START
TARGET_POS.X = TAUGHT_START.X + OFFSET_POS.X
TARGET_POS.Y = TAUGHT_START.Y + OFFSET_POS.Y
TARGET_POS.Z = TAUGHT_START.Z + OFFSET_POS.Z
TARGET_POS.A = TAUGHT_START.A
TARGET_POS.B = TAUGHT_START.B
TARGET_POS.C = TAUGHT_START.C
LIN TARGET_POS C_DIS
CONTINUE
OFFSET_POS = {X 0.575, Y 0.171, Z 2.000, A 0, B 0, C 0}
TARGET_POS = TAUGHT_START
TARGET_POS.X = TAUGHT_START.X + OFFSET_POS.X
TARGET_POS.Y = TAUGHT_START.Y + OFFSET_POS.Y
TARGET_POS.Z = TAUGHT_START.Z + OFFSET_POS.Z
TARGET_POS.A = TAUGHT_START.A
TARGET_POS.B = TAUGHT_START.B
TARGET_POS.C = TAUGHT_START.C
LIN TARGET_POS C_DIS
$OUT[1] = FALSE
WAIT SEC 0.200
WAIT SEC 55.00
; ;LAYER_CHANGE
; ;Z:4
OFFSET_POS = {X 0.575, Y 0.171, Z 4.000, A 0, B 0, C 0}
TARGET_POS = TAUGHT_START
TARGET_POS.X = TAUGHT_START.X + OFFSET_POS.X
TARGET_POS.Y = TAUGHT_START.Y + OFFSET_POS.Y
TARGET_POS.Z = TAUGHT_START.Z + OFFSET_POS.Z
TARGET_POS.A = TAUGHT_START.A
TARGET_POS.B = TAUGHT_START.B
TARGET_POS.C = TAUGHT_START.C
LIN TARGET_POS C_DIS
$OUT[1] = TRUE
WAIT SEC 0.200
OFFSET_POS = {X 0.651, Y 0.194, Z 4.000, A 0, B 0, C 0}
TARGET_POS = TAUGHT_START
TARGET_POS.X = TAUGHT_START.X + OFFSET_POS.X
TARGET_POS.Y = TAUGHT_START.Y + OFFSET_POS.Y
TARGET_POS.Z = TAUGHT_START.Z + OFFSET_POS.Z
TARGET_POS.A = TAUGHT_START.A
TARGET_POS.B = TAUGHT_START.B
TARGET_POS.C = TAUGHT_START.C
LIN TARGET_POS C_DIS
CONTINUE
OFFSET_POS = {X 0.862, Y 0.213, Z 4.000, A 0, B 0, C 0}
TARGET_POS = TAUGHT_START
TARGET_POS.X = TAUGHT_START.X + OFFSET_POS.X
TARGET_POS.Y = TAUGHT_START.Y + OFFSET_POS.Y
TARGET_POS.Z = TAUGHT_START.Z + OFFSET_POS.Z
TARGET_POS.A = TAUGHT_START.A
TARGET_POS.B = TAUGHT_START.B
TARGET_POS.C = TAUGHT_START.C
LIN TARGET_POS C_DIS
CONTINUE
OFFSET_POS = {X 1.073, Y 0.232, Z 4.000, A 0, B 0, C 0}
TARGET_POS = TAUGHT_START
TARGET_POS.X = TAUGHT_START.X + OFFSET_POS.X
TARGET_POS.Y = TAUGHT_START.Y + OFFSET_POS.Y
TARGET_POS.Z = TAUGHT_START.Z + OFFSET_POS.Z
TARGET_POS.A = TAUGHT_START.A
TARGET_POS.B = TAUGHT_START.B
TARGET_POS.C = TAUGHT_START.C
LIN TARGET_POS C_DIS
CONTINUE
OFFSET_POS = {X 1.284, Y 0.251, Z 4.000, A 0, B 0, C 0}
TARGET_POS = TAUGHT_START
TARGET_POS.X = TAUGHT_START.X + OFFSET_POS.X
TARGET_POS.Y = TAUGHT_START.Y + OFFSET_POS.Y
TARGET_POS.Z = TAUGHT_START.Z + OFFSET_POS.Z
TARGET_POS.A = TAUGHT_START.A
TARGET_POS.B = TAUGHT_START.B
TARGET_POS.C = TAUGHT_START.C
LIN TARGET_POS C_DIS
CONTINUE
OFFSET_POS = {X 1.495, Y 0.270, Z 4.000, A 0, B 0, C 0}
TARGET_POS = TAUGHT_START
TARGET_POS.X = TAUGHT_START.X + OFFSET_POS.X
TARGET_POS.Y = TAUGHT_START.Y + OFFSET_POS.Y
TARGET_POS.Z = TAUGHT_START.Z + OFFSET_POS.Z
TARGET_POS.A = TAUGHT_START.A
TARGET_POS.B = TAUGHT_START.B
TARGET_POS.C = TAUGHT_START.C
LIN TARGET_POS C_DIS
CONTINUE
OFFSET_POS = {X 92.917, Y -0.890, Z 4.000, A 0, B 0, C 0}
TARGET_POS = TAUGHT_START
TARGET_POS.X = TAUGHT_START.X + OFFSET_POS.X
TARGET_POS.Y = TAUGHT_START.Y + OFFSET_POS.Y
TARGET_POS.Z = TAUGHT_START.Z + OFFSET_POS.Z
TARGET_POS.A = TAUGHT_START.A
TARGET_POS.B = TAUGHT_START.B
TARGET_POS.C = TAUGHT_START.C
LIN TARGET_POS C_DIS
CONTINUE
OFFSET_POS = {X 93.127, Y -0.915, Z 4.000, A 0, B 0, C 0}
TARGET_POS = TAUGHT_START
TARGET_POS.X = TAUGHT_START.X + OFFSET_POS.X
TARGET_POS.Y = TAUGHT_START.Y + OFFSET_POS.Y
TARGET_POS.Z = TAUGHT_START.Z + OFFSET_POS.Z
TARGET_POS.A = TAUGHT_START.A
TARGET_POS.B = TAUGHT_START.B
TARGET_POS.C = TAUGHT_START.C
LIN TARGET_POS C_DIS
CONTINUE
OFFSET_POS = {X 93.338, Y -0.939, Z 4.000, A 0, B 0, C 0}
TARGET_POS = TAUGHT_START
TARGET_POS.X = TAUGHT_START.X + OFFSET_POS.X
TARGET_POS.Y = TAUGHT_START.Y + OFFSET_POS.Y
TARGET_POS.Z = TAUGHT_START.Z + OFFSET_POS.Z
TARGET_POS.A = TAUGHT_START.A
TARGET_POS.B = TAUGHT_START.B
TARGET_POS.C = TAUGHT_START.C
LIN TARGET_POS C_DIS
CONTINUE
OFFSET_POS = {X 93.548, Y -0.964, Z 4.000, A 0, B 0, C 0}
TARGET_POS = TAUGHT_START
TARGET_POS.X = TAUGHT_START.X + OFFSET_POS.X
TARGET_POS.Y = TAUGHT_START.Y + OFFSET_POS.Y
TARGET_POS.Z = TAUGHT_START.Z + OFFSET_POS.Z
TARGET_POS.A = TAUGHT_START.A
TARGET_POS.B = TAUGHT_START.B
TARGET_POS.C = TAUGHT_START.C
LIN TARGET_POS C_DIS
CONTINUE
OFFSET_POS = {X 93.759, Y -0.988, Z 4.000, A 0, B 0, C 0}
TARGET_POS = TAUGHT_START
TARGET_POS.X = TAUGHT_START.X + OFFSET_POS.X
TARGET_POS.Y = TAUGHT_START.Y + OFFSET_POS.Y
TARGET_POS.Z = TAUGHT_START.Z + OFFSET_POS.Z
TARGET_POS.A = TAUGHT_START.A
TARGET_POS.B = TAUGHT_START.B
TARGET_POS.C = TAUGHT_START.C
LIN TARGET_POS C_DIS
CONTINUE
OFFSET_POS = {X 93.835, Y -1.013, Z 4.000, A 0, B 0, C 0}
TARGET_POS = TAUGHT_START
TARGET_POS.X = TAUGHT_START.X + OFFSET_POS.X
TARGET_POS.Y = TAUGHT_START.Y + OFFSET_POS.Y
TARGET_POS.Z = TAUGHT_START.Z + OFFSET_POS.Z
TARGET_POS.A = TAUGHT_START.A
TARGET_POS.B = TAUGHT_START.B
TARGET_POS.C = TAUGHT_START.C
LIN TARGET_POS C_DIS
CONTINUE
OFFSET_POS = {X 93.912, Y -1.038, Z 4.000, A 0, B 0, C 0}
TARGET_POS = TAUGHT_START
TARGET_POS.X = TAUGHT_START.X + OFFSET_POS.X
TARGET_POS.Y = TAUGHT_START.Y + OFFSET_POS.Y
TARGET_POS.Z = TAUGHT_START.Z + OFFSET_POS.Z
TARGET_POS.A = TAUGHT_START.A
TARGET_POS.B = TAUGHT_START.B
TARGET_POS.C = TAUGHT_START.C
LIN TARGET_POS C_DIS
CONTINUE
OFFSET_POS = {X 93.988, Y -1.062, Z 4.000, A 0, B 0, C 0}
TARGET_POS = TAUGHT_START
TARGET_POS.X = TAUGHT_START.X + OFFSET_POS.X
TARGET_POS.Y = TAUGHT_START.Y + OFFSET_POS.Y
TARGET_POS.Z = TAUGHT_START.Z + OFFSET_POS.Z
TARGET_POS.A = TAUGHT_START.A
TARGET_POS.B = TAUGHT_START.B
TARGET_POS.C = TAUGHT_START.C
LIN TARGET_POS C_DIS
CONTINUE
OFFSET_POS = {X 94.064, Y -1.087, Z 4.000, A 0, B 0, C 0}
TARGET_POS = TAUGHT_START
TARGET_POS.X = TAUGHT_START.X + OFFSET_POS.X
TARGET_POS.Y = TAUGHT_START.Y + OFFSET_POS.Y
TARGET_POS.Z = TAUGHT_START.Z + OFFSET_POS.Z
TARGET_POS.A = TAUGHT_START.A
TARGET_POS.B = TAUGHT_START.B
TARGET_POS.C = TAUGHT_START.C
LIN TARGET_POS C_DIS
CONTINUE
OFFSET_POS = {X 94.141, Y -1.112, Z 4.000, A 0, B 0, C 0}
TARGET_POS = TAUGHT_START
TARGET_POS.X = TAUGHT_START.X + OFFSET_POS.X
TARGET_POS.Y = TAUGHT_START.Y + OFFSET_POS.Y
TARGET_POS.Z = TAUGHT_START.Z + OFFSET_POS.Z
TARGET_POS.A = TAUGHT_START.A
TARGET_POS.B = TAUGHT_START.B
TARGET_POS.C = TAUGHT_START.C
LIN TARGET_POS C_DIS
CONTINUE
OFFSET_POS = {X 94.217, Y -1.137, Z 4.000, A 0, B 0, C 0}
TARGET_POS = TAUGHT_START
TARGET_POS.X = TAUGHT_START.X + OFFSET_POS.X
TARGET_POS.Y = TAUGHT_START.Y + OFFSET_POS.Y
TARGET_POS.Z = TAUGHT_START.Z + OFFSET_POS.Z
TARGET_POS.A = TAUGHT_START.A
TARGET_POS.B = TAUGHT_START.B
TARGET_POS.C = TAUGHT_START.C
LIN TARGET_POS C_DIS
CONTINUE
OFFSET_POS = {X 94.293, Y -1.162, Z 4.000, A 0, B 0, C 0}
TARGET_POS = TAUGHT_START
TARGET_POS.X = TAUGHT_START.X + OFFSET_POS.X
TARGET_POS.Y = TAUGHT_START.Y + OFFSET_POS.Y
TARGET_POS.Z = TAUGHT_START.Z + OFFSET_POS.Z
TARGET_POS.A = TAUGHT_START.A
TARGET_POS.B = TAUGHT_START.B
TARGET_POS.C = TAUGHT_START.C
LIN TARGET_POS C_DIS
CONTINUE
OFFSET_POS = {X 94.370, Y -1.186, Z 4.000, A 0, B 0, C 0}
TARGET_POS = TAUGHT_START
TARGET_POS.X = TAUGHT_START.X + OFFSET_POS.X
TARGET_POS.Y = TAUGHT_START.Y + OFFSET_POS.Y
TARGET_POS.Z = TAUGHT_START.Z + OFFSET_POS.Z
TARGET_POS.A = TAUGHT_START.A
TARGET_POS.B = TAUGHT_START.B
TARGET_POS.C = TAUGHT_START.C
LIN TARGET_POS C_DIS
CONTINUE
OFFSET_POS = {X 94.446, Y -1.211, Z 4.000, A 0, B 0, C 0}
TARGET_POS = TAUGHT_START
TARGET_POS.X = TAUGHT_START.X + OFFSET_POS.X
TARGET_POS.Y = TAUGHT_START.Y + OFFSET_POS.Y
TARGET_POS.Z = TAUGHT_START.Z + OFFSET_POS.Z
TARGET_POS.A = TAUGHT_START.A
TARGET_POS.B = TAUGHT_START.B
TARGET_POS.C = TAUGHT_START.C
LIN TARGET_POS C_DIS
CONTINUE
OFFSET_POS = {X 94.522, Y -1.236, Z 4.000, A 0, B 0, C 0}
TARGET_POS = TAUGHT_START
TARGET_POS.X = TAUGHT_START.X + OFFSET_POS.X
TARGET_POS.Y = TAUGHT_START.Y + OFFSET_POS.Y
TARGET_POS.Z = TAUGHT_START.Z + OFFSET_POS.Z
TARGET_POS.A = TAUGHT_START.A
TARGET_POS.B = TAUGHT_START.B
TARGET_POS.C = TAUGHT_START.C
LIN TARGET_POS C_DIS
CONTINUE
OFFSET_POS = {X 94.599, Y -1.261, Z 4.000, A 0, B 0, C 0}
TARGET_POS = TAUGHT_START
TARGET_POS.X = TAUGHT_START.X + OFFSET_POS.X
TARGET_POS.Y = TAUGHT_START.Y + OFFSET_POS.Y
TARGET_POS.Z = TAUGHT_START.Z + OFFSET_POS.Z
TARGET_POS.A = TAUGHT_START.A
TARGET_POS.B = TAUGHT_START.B
TARGET_POS.C = TAUGHT_START.C
LIN TARGET_POS C_DIS
CONTINUE
OFFSET_POS = {X 94.621, Y -1.338, Z 4.000, A 0, B 0, C 0}
TARGET_POS = TAUGHT_START
TARGET_POS.X = TAUGHT_START.X + OFFSET_POS.X
TARGET_POS.Y = TAUGHT_START.Y + OFFSET_POS.Y
TARGET_POS.Z = TAUGHT_START.Z + OFFSET_POS.Z
TARGET_POS.A = TAUGHT_START.A
TARGET_POS.B = TAUGHT_START.B
TARGET_POS.C = TAUGHT_START.C
LIN TARGET_POS C_DIS
CONTINUE
OFFSET_POS = {X 94.644, Y -1.415, Z 4.000, A 0, B 0, C 0}
TARGET_POS = TAUGHT_START
TARGET_POS.X = TAUGHT_START.X + OFFSET_POS.X
TARGET_POS.Y = TAUGHT_START.Y + OFFSET_POS.Y
TARGET_POS.Z = TAUGHT_START.Z + OFFSET_POS.Z
TARGET_POS.A = TAUGHT_START.A
TARGET_POS.B = TAUGHT_START.B
TARGET_POS.C = TAUGHT_START.C
LIN TARGET_POS C_DIS
CONTINUE
OFFSET_POS = {X 94.667, Y -1.492, Z 4.000, A 0, B 0, C 0}
TARGET_POS = TAUGHT_START
TARGET_POS.X = TAUGHT_START.X + OFFSET_POS.X
TARGET_POS.Y = TAUGHT_START.Y + OFFSET_POS.Y
TARGET_POS.Z = TAUGHT_START.Z + OFFSET_POS.Z
TARGET_POS.A = TAUGHT_START.A
TARGET_POS.B = TAUGHT_START.B
TARGET_POS.C = TAUGHT_START.C
LIN TARGET_POS C_DIS
CONTINUE
OFFSET_POS = {X 94.690, Y -1.568, Z 4.000, A 0, B 0, C 0}
TARGET_POS = TAUGHT_START
TARGET_POS.X = TAUGHT_START.X + OFFSET_POS.X
TARGET_POS.Y = TAUGHT_START.Y + OFFSET_POS.Y
TARGET_POS.Z = TAUGHT_START.Z + OFFSET_POS.Z
TARGET_POS.A = TAUGHT_START.A
TARGET_POS.B = TAUGHT_START.B
TARGET_POS.C = TAUGHT_START.C
LIN TARGET_POS C_DIS
CONTINUE
OFFSET_POS = {X 94.713, Y -1.645, Z 4.000, A 0, B 0, C 0}
TARGET_POS = TAUGHT_START
TARGET_POS.X = TAUGHT_START.X + OFFSET_POS.X
TARGET_POS.Y = TAUGHT_START.Y + OFFSET_POS.Y
TARGET_POS.Z = TAUGHT_START.Z + OFFSET_POS.Z
TARGET_POS.A = TAUGHT_START.A
TARGET_POS.B = TAUGHT_START.B
TARGET_POS.C = TAUGHT_START.C
LIN TARGET_POS C_DIS
CONTINUE
OFFSET_POS = {X 94.736, Y -1.722, Z 4.000, A 0, B 0, C 0}
TARGET_POS = TAUGHT_START
TARGET_POS.X = TAUGHT_START.X + OFFSET_POS.X
TARGET_POS.Y = TAUGHT_START.Y + OFFSET_POS.Y
TARGET_POS.Z = TAUGHT_START.Z + OFFSET_POS.Z
TARGET_POS.A = TAUGHT_START.A
TARGET_POS.B = TAUGHT_START.B
TARGET_POS.C = TAUGHT_START.C
LIN TARGET_POS C_DIS
CONTINUE
OFFSET_POS = {X 94.758, Y -1.799, Z 4.000, A 0, B 0, C 0}
TARGET_POS = TAUGHT_START
TARGET_POS.X = TAUGHT_START.X + OFFSET_POS.X
TARGET_POS.Y = TAUGHT_START.Y + OFFSET_POS.Y
TARGET_POS.Z = TAUGHT_START.Z + OFFSET_POS.Z
TARGET_POS.A = TAUGHT_START.A
TARGET_POS.B = TAUGHT_START.B
TARGET_POS.C = TAUGHT_START.C
LIN TARGET_POS C_DIS
CONTINUE
OFFSET_POS = {X 94.781, Y -1.876, Z 4.000, A 0, B 0, C 0}
TARGET_POS = TAUGHT_START
TARGET_POS.X = TAUGHT_START.X + OFFSET_POS.X
TARGET_POS.Y = TAUGHT_START.Y + OFFSET_POS.Y
TARGET_POS.Z = TAUGHT_START.Z + OFFSET_POS.Z
TARGET_POS.A = TAUGHT_START.A
TARGET_POS.B = TAUGHT_START.B
TARGET_POS.C = TAUGHT_START.C
LIN TARGET_POS C_DIS
CONTINUE
OFFSET_POS = {X 94.804, Y -1.953, Z 4.000, A 0, B 0, C 0}
TARGET_POS = TAUGHT_START
TARGET_POS.X = TAUGHT_START.X + OFFSET_POS.X
TARGET_POS.Y = TAUGHT_START.Y + OFFSET_POS.Y
TARGET_POS.Z = TAUGHT_START.Z + OFFSET_POS.Z
TARGET_POS.A = TAUGHT_START.A
TARGET_POS.B = TAUGHT_START.B
TARGET_POS.C = TAUGHT_START.C
LIN TARGET_POS C_DIS
CONTINUE
OFFSET_POS = {X 94.827, Y -2.030, Z 4.000, A 0, B 0, C 0}
TARGET_POS = TAUGHT_START
TARGET_POS.X = TAUGHT_START.X + OFFSET_POS.X
TARGET_POS.Y = TAUGHT_START.Y + OFFSET_POS.Y
TARGET_POS.Z = TAUGHT_START.Z + OFFSET_POS.Z
TARGET_POS.A = TAUGHT_START.A
TARGET_POS.B = TAUGHT_START.B
TARGET_POS.C = TAUGHT_START.C
LIN TARGET_POS C_DIS
CONTINUE
OFFSET_POS = {X 94.850, Y -2.107, Z 4.000, A 0, B 0, C 0}
TARGET_POS = TAUGHT_START
TARGET_POS.X = TAUGHT_START.X + OFFSET_POS.X
TARGET_POS.Y = TAUGHT_START.Y + OFFSET_POS.Y
TARGET_POS.Z = TAUGHT_START.Z + OFFSET_POS.Z
TARGET_POS.A = TAUGHT_START.A
TARGET_POS.B = TAUGHT_START.B
TARGET_POS.C = TAUGHT_START.C
LIN TARGET_POS C_DIS
CONTINUE
OFFSET_POS = {X 94.869, Y -2.318, Z 4.000, A 0, B 0, C 0}
TARGET_POS = TAUGHT_START
TARGET_POS.X = TAUGHT_START.X + OFFSET_POS.X
TARGET_POS.Y = TAUGHT_START.Y + OFFSET_POS.Y
TARGET_POS.Z = TAUGHT_START.Z + OFFSET_POS.Z
TARGET_POS.A = TAUGHT_START.A
TARGET_POS.B = TAUGHT_START.B
TARGET_POS.C = TAUGHT_START.C
LIN TARGET_POS C_DIS
CONTINUE
OFFSET_POS = {X 94.888, Y -2.529, Z 4.000, A 0, B 0, C 0}
TARGET_POS = TAUGHT_START
TARGET_POS.X = TAUGHT_START.X + OFFSET_POS.X
TARGET_POS.Y = TAUGHT_START.Y + OFFSET_POS.Y
TARGET_POS.Z = TAUGHT_START.Z + OFFSET_POS.Z
TARGET_POS.A = TAUGHT_START.A
TARGET_POS.B = TAUGHT_START.B
TARGET_POS.C = TAUGHT_START.C
LIN TARGET_POS C_DIS
CONTINUE
OFFSET_POS = {X 94.907, Y -2.740, Z 4.000, A 0, B 0, C 0}
TARGET_POS = TAUGHT_START
TARGET_POS.X = TAUGHT_START.X + OFFSET_POS.X
TARGET_POS.Y = TAUGHT_START.Y + OFFSET_POS.Y
TARGET_POS.Z = TAUGHT_START.Z + OFFSET_POS.Z
TARGET_POS.A = TAUGHT_START.A
TARGET_POS.B = TAUGHT_START.B
TARGET_POS.C = TAUGHT_START.C
LIN TARGET_POS C_DIS
CONTINUE
OFFSET_POS = {X 94.926, Y -2.951, Z 4.000, A 0, B 0, C 0}
TARGET_POS = TAUGHT_START
TARGET_POS.X = TAUGHT_START.X + OFFSET_POS.X
TARGET_POS.Y = TAUGHT_START.Y + OFFSET_POS.Y
TARGET_POS.Z = TAUGHT_START.Z + OFFSET_POS.Z
TARGET_POS.A = TAUGHT_START.A
TARGET_POS.B = TAUGHT_START.B
TARGET_POS.C = TAUGHT_START.C
LIN TARGET_POS C_DIS
CONTINUE
OFFSET_POS = {X 94.274, Y -54.376, Z 4.000, A 0, B 0, C 0}
TARGET_POS = TAUGHT_START
TARGET_POS.X = TAUGHT_START.X + OFFSET_POS.X
TARGET_POS.Y = TAUGHT_START.Y + OFFSET_POS.Y
TARGET_POS.Z = TAUGHT_START.Z + OFFSET_POS.Z
TARGET_POS.A = TAUGHT_START.A
TARGET_POS.B = TAUGHT_START.B
TARGET_POS.C = TAUGHT_START.C
LIN TARGET_POS C_DIS
CONTINUE
OFFSET_POS = {X 94.249, Y -54.587, Z 4.000, A 0, B 0, C 0}
TARGET_POS = TAUGHT_START
TARGET_POS.X = TAUGHT_START.X + OFFSET_POS.X
TARGET_POS.Y = TAUGHT_START.Y + OFFSET_POS.Y
TARGET_POS.Z = TAUGHT_START.Z + OFFSET_POS.Z
TARGET_POS.A = TAUGHT_START.A
TARGET_POS.B = TAUGHT_START.B
TARGET_POS.C = TAUGHT_START.C
LIN TARGET_POS C_DIS
CONTINUE
OFFSET_POS = {X 94.225, Y -54.797, Z 4.000, A 0, B 0, C 0}
TARGET_POS = TAUGHT_START
TARGET_POS.X = TAUGHT_START.X + OFFSET_POS.X
TARGET_POS.Y = TAUGHT_START.Y + OFFSET_POS.Y
TARGET_POS.Z = TAUGHT_START.Z + OFFSET_POS.Z
TARGET_POS.A = TAUGHT_START.A
TARGET_POS.B = TAUGHT_START.B
TARGET_POS.C = TAUGHT_START.C
LIN TARGET_POS C_DIS
CONTINUE
OFFSET_POS = {X 94.200, Y -55.008, Z 4.000, A 0, B 0, C 0}
TARGET_POS = TAUGHT_START
TARGET_POS.X = TAUGHT_START.X + OFFSET_POS.X
TARGET_POS.Y = TAUGHT_START.Y + OFFSET_POS.Y
TARGET_POS.Z = TAUGHT_START.Z + OFFSET_POS.Z
TARGET_POS.A = TAUGHT_START.A
TARGET_POS.B = TAUGHT_START.B
TARGET_POS.C = TAUGHT_START.C
LIN TARGET_POS C_DIS
CONTINUE
OFFSET_POS = {X 94.176, Y -55.218, Z 4.000, A 0, B 0, C 0}
TARGET_POS = TAUGHT_START
TARGET_POS.X = TAUGHT_START.X + OFFSET_POS.X
TARGET_POS.Y = TAUGHT_START.Y + OFFSET_POS.Y
TARGET_POS.Z = TAUGHT_START.Z + OFFSET_POS.Z
TARGET_POS.A = TAUGHT_START.A
TARGET_POS.B = TAUGHT_START.B
TARGET_POS.C = TAUGHT_START.C
LIN TARGET_POS C_DIS
CONTINUE
OFFSET_POS = {X 94.151, Y -55.294, Z 4.000, A 0, B 0, C 0}
TARGET_POS = TAUGHT_START
TARGET_POS.X = TAUGHT_START.X + OFFSET_POS.X
TARGET_POS.Y = TAUGHT_START.Y + OFFSET_POS.Y
TARGET_POS.Z = TAUGHT_START.Z + OFFSET_POS.Z
TARGET_POS.A = TAUGHT_START.A
TARGET_POS.B = TAUGHT_START.B
TARGET_POS.C = TAUGHT_START.C
LIN TARGET_POS C_DIS
CONTINUE
OFFSET_POS = {X 94.126, Y -55.371, Z 4.000, A 0, B 0, C 0}
TARGET_POS = TAUGHT_START
TARGET_POS.X = TAUGHT_START.X + OFFSET_POS.X
TARGET_POS.Y = TAUGHT_START.Y + OFFSET_POS.Y
TARGET_POS.Z = TAUGHT_START.Z + OFFSET_POS.Z
TARGET_POS.A = TAUGHT_START.A
TARGET_POS.B = TAUGHT_START.B
TARGET_POS.C = TAUGHT_START.C
LIN TARGET_POS C_DIS
CONTINUE
OFFSET_POS = {X 94.101, Y -55.447, Z 4.000, A 0, B 0, C 0}
TARGET_POS = TAUGHT_START
TARGET_POS.X = TAUGHT_START.X + OFFSET_POS.X
TARGET_POS.Y = TAUGHT_START.Y + OFFSET_POS.Y
TARGET_POS.Z = TAUGHT_START.Z + OFFSET_POS.Z
TARGET_POS.A = TAUGHT_START.A
TARGET_POS.B = TAUGHT_START.B
TARGET_POS.C = TAUGHT_START.C
LIN TARGET_POS C_DIS
CONTINUE
OFFSET_POS = {X 94.077, Y -55.524, Z 4.000, A 0, B 0, C 0}
TARGET_POS = TAUGHT_START
TARGET_POS.X = TAUGHT_START.X + OFFSET_POS.X
TARGET_POS.Y = TAUGHT_START.Y + OFFSET_POS.Y
TARGET_POS.Z = TAUGHT_START.Z + OFFSET_POS.Z
TARGET_POS.A = TAUGHT_START.A
TARGET_POS.B = TAUGHT_START.B
TARGET_POS.C = TAUGHT_START.C
LIN TARGET_POS C_DIS
CONTINUE
OFFSET_POS = {X 94.052, Y -55.600, Z 4.000, A 0, B 0, C 0}
TARGET_POS = TAUGHT_START
TARGET_POS.X = TAUGHT_START.X + OFFSET_POS.X
TARGET_POS.Y = TAUGHT_START.Y + OFFSET_POS.Y
TARGET_POS.Z = TAUGHT_START.Z + OFFSET_POS.Z
TARGET_POS.A = TAUGHT_START.A
TARGET_POS.B = TAUGHT_START.B
TARGET_POS.C = TAUGHT_START.C
LIN TARGET_POS C_DIS
CONTINUE
OFFSET_POS = {X 94.027, Y -55.676, Z 4.000, A 0, B 0, C 0}
TARGET_POS = TAUGHT_START
TARGET_POS.X = TAUGHT_START.X + OFFSET_POS.X
TARGET_POS.Y = TAUGHT_START.Y + OFFSET_POS.Y
TARGET_POS.Z = TAUGHT_START.Z + OFFSET_POS.Z
TARGET_POS.A = TAUGHT_START.A
TARGET_POS.B = TAUGHT_START.B
TARGET_POS.C = TAUGHT_START.C
LIN TARGET_POS C_DIS
CONTINUE
OFFSET_POS = {X 94.002, Y -55.753, Z 4.000, A 0, B 0, C 0}
TARGET_POS = TAUGHT_START
TARGET_POS.X = TAUGHT_START.X + OFFSET_POS.X
TARGET_POS.Y = TAUGHT_START.Y + OFFSET_POS.Y
TARGET_POS.Z = TAUGHT_START.Z + OFFSET_POS.Z
TARGET_POS.A = TAUGHT_START.A
TARGET_POS.B = TAUGHT_START.B
TARGET_POS.C = TAUGHT_START.C
LIN TARGET_POS C_DIS
CONTINUE
OFFSET_POS = {X 93.977, Y -55.829, Z 4.000, A 0, B 0, C 0}
TARGET_POS = TAUGHT_START
TARGET_POS.X = TAUGHT_START.X + OFFSET_POS.X
TARGET_POS.Y = TAUGHT_START.Y + OFFSET_POS.Y
TARGET_POS.Z = TAUGHT_START.Z + OFFSET_POS.Z
TARGET_POS.A = TAUGHT_START.A
TARGET_POS.B = TAUGHT_START.B
TARGET_POS.C = TAUGHT_START.C
LIN TARGET_POS C_DIS
CONTINUE
OFFSET_POS = {X 93.953, Y -55.905, Z 4.000, A 0, B 0, C 0}
TARGET_POS = TAUGHT_START
TARGET_POS.X = TAUGHT_START.X + OFFSET_POS.X
TARGET_POS.Y = TAUGHT_START.Y + OFFSET_POS.Y
TARGET_POS.Z = TAUGHT_START.Z + OFFSET_POS.Z
TARGET_POS.A = TAUGHT_START.A
TARGET_POS.B = TAUGHT_START.B
TARGET_POS.C = TAUGHT_START.C
LIN TARGET_POS C_DIS
CONTINUE
OFFSET_POS = {X 93.928, Y -55.982, Z 4.000, A 0, B 0, C 0}
TARGET_POS = TAUGHT_START
TARGET_POS.X = TAUGHT_START.X + OFFSET_POS.X
TARGET_POS.Y = TAUGHT_START.Y + OFFSET_POS.Y
TARGET_POS.Z = TAUGHT_START.Z + OFFSET_POS.Z
TARGET_POS.A = TAUGHT_START.A
TARGET_POS.B = TAUGHT_START.B
TARGET_POS.C = TAUGHT_START.C
LIN TARGET_POS C_DIS
CONTINUE
OFFSET_POS = {X 93.903, Y -56.058, Z 4.000, A 0, B 0, C 0}
TARGET_POS = TAUGHT_START
TARGET_POS.X = TAUGHT_START.X + OFFSET_POS.X
TARGET_POS.Y = TAUGHT_START.Y + OFFSET_POS.Y
TARGET_POS.Z = TAUGHT_START.Z + OFFSET_POS.Z
TARGET_POS.A = TAUGHT_START.A
TARGET_POS.B = TAUGHT_START.B
TARGET_POS.C = TAUGHT_START.C
LIN TARGET_POS C_DIS
CONTINUE
OFFSET_POS = {X 93.826, Y -56.081, Z 4.000, A 0, B 0, C 0}
TARGET_POS = TAUGHT_START
TARGET_POS.X = TAUGHT_START.X + OFFSET_POS.X
TARGET_POS.Y = TAUGHT_START.Y + OFFSET_POS.Y
TARGET_POS.Z = TAUGHT_START.Z + OFFSET_POS.Z
TARGET_POS.A = TAUGHT_START.A
TARGET_POS.B = TAUGHT_START.B
TARGET_POS.C = TAUGHT_START.C
LIN TARGET_POS C_DIS
CONTINUE
OFFSET_POS = {X 93.749, Y -56.104, Z 4.000, A 0, B 0, C 0}
TARGET_POS = TAUGHT_START
TARGET_POS.X = TAUGHT_START.X + OFFSET_POS.X
TARGET_POS.Y = TAUGHT_START.Y + OFFSET_POS.Y
TARGET_POS.Z = TAUGHT_START.Z + OFFSET_POS.Z
TARGET_POS.A = TAUGHT_START.A
TARGET_POS.B = TAUGHT_START.B
TARGET_POS.C = TAUGHT_START.C
LIN TARGET_POS C_DIS
CONTINUE
OFFSET_POS = {X 93.672, Y -56.126, Z 4.000, A 0, B 0, C 0}
TARGET_POS = TAUGHT_START
TARGET_POS.X = TAUGHT_START.X + OFFSET_POS.X
TARGET_POS.Y = TAUGHT_START.Y + OFFSET_POS.Y
TARGET_POS.Z = TAUGHT_START.Z + OFFSET_POS.Z
TARGET_POS.A = TAUGHT_START.A
TARGET_POS.B = TAUGHT_START.B
TARGET_POS.C = TAUGHT_START.C
LIN TARGET_POS C_DIS
CONTINUE
OFFSET_POS = {X 93.595, Y -56.149, Z 4.000, A 0, B 0, C 0}
TARGET_POS = TAUGHT_START
TARGET_POS.X = TAUGHT_START.X + OFFSET_POS.X
TARGET_POS.Y = TAUGHT_START.Y + OFFSET_POS.Y
TARGET_POS.Z = TAUGHT_START.Z + OFFSET_POS.Z
TARGET_POS.A = TAUGHT_START.A
TARGET_POS.B = TAUGHT_START.B
TARGET_POS.C = TAUGHT_START.C
LIN TARGET_POS C_DIS
CONTINUE
OFFSET_POS = {X 93.518, Y -56.172, Z 4.000, A 0, B 0, C 0}
TARGET_POS = TAUGHT_START
TARGET_POS.X = TAUGHT_START.X + OFFSET_POS.X
TARGET_POS.Y = TAUGHT_START.Y + OFFSET_POS.Y
TARGET_POS.Z = TAUGHT_START.Z + OFFSET_POS.Z
TARGET_POS.A = TAUGHT_START.A
TARGET_POS.B = TAUGHT_START.B
TARGET_POS.C = TAUGHT_START.C
LIN TARGET_POS C_DIS
CONTINUE
OFFSET_POS = {X 93.442, Y -56.195, Z 4.000, A 0, B 0, C 0}
TARGET_POS = TAUGHT_START
TARGET_POS.X = TAUGHT_START.X + OFFSET_POS.X
TARGET_POS.Y = TAUGHT_START.Y + OFFSET_POS.Y
TARGET_POS.Z = TAUGHT_START.Z + OFFSET_POS.Z
TARGET_POS.A = TAUGHT_START.A
TARGET_POS.B = TAUGHT_START.B
TARGET_POS.C = TAUGHT_START.C
LIN TARGET_POS C_DIS
CONTINUE
OFFSET_POS = {X 93.365, Y -56.218, Z 4.000, A 0, B 0, C 0}
TARGET_POS = TAUGHT_START
TARGET_POS.X = TAUGHT_START.X + OFFSET_POS.X
TARGET_POS.Y = TAUGHT_START.Y + OFFSET_POS.Y
TARGET_POS.Z = TAUGHT_START.Z + OFFSET_POS.Z
TARGET_POS.A = TAUGHT_START.A
TARGET_POS.B = TAUGHT_START.B
TARGET_POS.C = TAUGHT_START.C
LIN TARGET_POS C_DIS
CONTINUE
OFFSET_POS = {X 93.288, Y -56.241, Z 4.000, A 0, B 0, C 0}
TARGET_POS = TAUGHT_START
TARGET_POS.X = TAUGHT_START.X + OFFSET_POS.X
TARGET_POS.Y = TAUGHT_START.Y + OFFSET_POS.Y
TARGET_POS.Z = TAUGHT_START.Z + OFFSET_POS.Z
TARGET_POS.A = TAUGHT_START.A
TARGET_POS.B = TAUGHT_START.B
TARGET_POS.C = TAUGHT_START.C
LIN TARGET_POS C_DIS
CONTINUE
OFFSET_POS = {X 93.211, Y -56.263, Z 4.000, A 0, B 0, C 0}
TARGET_POS = TAUGHT_START
TARGET_POS.X = TAUGHT_START.X + OFFSET_POS.X
TARGET_POS.Y = TAUGHT_START.Y + OFFSET_POS.Y
TARGET_POS.Z = TAUGHT_START.Z + OFFSET_POS.Z
TARGET_POS.A = TAUGHT_START.A
TARGET_POS.B = TAUGHT_START.B
TARGET_POS.C = TAUGHT_START.C
LIN TARGET_POS C_DIS
CONTINUE
OFFSET_POS = {X 93.134, Y -56.286, Z 4.000, A 0, B 0, C 0}
TARGET_POS = TAUGHT_START
TARGET_POS.X = TAUGHT_START.X + OFFSET_POS.X
TARGET_POS.Y = TAUGHT_START.Y + OFFSET_POS.Y
TARGET_POS.Z = TAUGHT_START.Z + OFFSET_POS.Z
TARGET_POS.A = TAUGHT_START.A
TARGET_POS.B = TAUGHT_START.B
TARGET_POS.C = TAUGHT_START.C
LIN TARGET_POS C_DIS
CONTINUE
OFFSET_POS = {X 93.057, Y -56.309, Z 4.000, A 0, B 0, C 0}
TARGET_POS = TAUGHT_START
TARGET_POS.X = TAUGHT_START.X + OFFSET_POS.X
TARGET_POS.Y = TAUGHT_START.Y + OFFSET_POS.Y
TARGET_POS.Z = TAUGHT_START.Z + OFFSET_POS.Z
TARGET_POS.A = TAUGHT_START.A
TARGET_POS.B = TAUGHT_START.B
TARGET_POS.C = TAUGHT_START.C
LIN TARGET_POS C_DIS
CONTINUE
OFFSET_POS = {X 92.846, Y -56.328, Z 4.000, A 0, B 0, C 0}
TARGET_POS = TAUGHT_START
TARGET_POS.X = TAUGHT_START.X + OFFSET_POS.X
TARGET_POS.Y = TAUGHT_START.Y + OFFSET_POS.Y
TARGET_POS.Z = TAUGHT_START.Z + OFFSET_POS.Z
TARGET_POS.A = TAUGHT_START.A
TARGET_POS.B = TAUGHT_START.B
TARGET_POS.C = TAUGHT_START.C
LIN TARGET_POS C_DIS
CONTINUE
OFFSET_POS = {X 92.635, Y -56.347, Z 4.000, A 0, B 0, C 0}
TARGET_POS = TAUGHT_START
TARGET_POS.X = TAUGHT_START.X + OFFSET_POS.X
TARGET_POS.Y = TAUGHT_START.Y + OFFSET_POS.Y
TARGET_POS.Z = TAUGHT_START.Z + OFFSET_POS.Z
TARGET_POS.A = TAUGHT_START.A
TARGET_POS.B = TAUGHT_START.B
TARGET_POS.C = TAUGHT_START.C
LIN TARGET_POS C_DIS
CONTINUE
OFFSET_POS = {X 92.424, Y -56.367, Z 4.000, A 0, B 0, C 0}
TARGET_POS = TAUGHT_START
TARGET_POS.X = TAUGHT_START.X + OFFSET_POS.X
TARGET_POS.Y = TAUGHT_START.Y + OFFSET_POS.Y
TARGET_POS.Z = TAUGHT_START.Z + OFFSET_POS.Z
TARGET_POS.A = TAUGHT_START.A
TARGET_POS.B = TAUGHT_START.B
TARGET_POS.C = TAUGHT_START.C
LIN TARGET_POS C_DIS
CONTINUE
OFFSET_POS = {X 92.213, Y -56.386, Z 4.000, A 0, B 0, C 0}
TARGET_POS = TAUGHT_START
TARGET_POS.X = TAUGHT_START.X + OFFSET_POS.X
TARGET_POS.Y = TAUGHT_START.Y + OFFSET_POS.Y
TARGET_POS.Z = TAUGHT_START.Z + OFFSET_POS.Z
TARGET_POS.A = TAUGHT_START.A
TARGET_POS.B = TAUGHT_START.B
TARGET_POS.C = TAUGHT_START.C
LIN TARGET_POS C_DIS
CONTINUE
OFFSET_POS = {X 0.791, Y -55.225, Z 4.000, A 0, B 0, C 0}
TARGET_POS = TAUGHT_START
TARGET_POS.X = TAUGHT_START.X + OFFSET_POS.X
TARGET_POS.Y = TAUGHT_START.Y + OFFSET_POS.Y
TARGET_POS.Z = TAUGHT_START.Z + OFFSET_POS.Z
TARGET_POS.A = TAUGHT_START.A
TARGET_POS.B = TAUGHT_START.B
TARGET_POS.C = TAUGHT_START.C
LIN TARGET_POS C_DIS
CONTINUE
OFFSET_POS = {X 0.580, Y -55.201, Z 4.000, A 0, B 0, C 0}
TARGET_POS = TAUGHT_START
TARGET_POS.X = TAUGHT_START.X + OFFSET_POS.X
TARGET_POS.Y = TAUGHT_START.Y + OFFSET_POS.Y
TARGET_POS.Z = TAUGHT_START.Z + OFFSET_POS.Z
TARGET_POS.A = TAUGHT_START.A
TARGET_POS.B = TAUGHT_START.B
TARGET_POS.C = TAUGHT_START.C
LIN TARGET_POS C_DIS
CONTINUE
OFFSET_POS = {X 0.370, Y -55.176, Z 4.000, A 0, B 0, C 0}
TARGET_POS = TAUGHT_START
TARGET_POS.X = TAUGHT_START.X + OFFSET_POS.X
TARGET_POS.Y = TAUGHT_START.Y + OFFSET_POS.Y
TARGET_POS.Z = TAUGHT_START.Z + OFFSET_POS.Z
TARGET_POS.A = TAUGHT_START.A
TARGET_POS.B = TAUGHT_START.B
TARGET_POS.C = TAUGHT_START.C
LIN TARGET_POS C_DIS
CONTINUE
OFFSET_POS = {X 0.159, Y -55.152, Z 4.000, A 0, B 0, C 0}
TARGET_POS = TAUGHT_START
TARGET_POS.X = TAUGHT_START.X + OFFSET_POS.X
TARGET_POS.Y = TAUGHT_START.Y + OFFSET_POS.Y
TARGET_POS.Z = TAUGHT_START.Z + OFFSET_POS.Z
TARGET_POS.A = TAUGHT_START.A
TARGET_POS.B = TAUGHT_START.B
TARGET_POS.C = TAUGHT_START.C
LIN TARGET_POS C_DIS
CONTINUE
OFFSET_POS = {X -0.051, Y -55.127, Z 4.000, A 0, B 0, C 0}
TARGET_POS = TAUGHT_START
TARGET_POS.X = TAUGHT_START.X + OFFSET_POS.X
TARGET_POS.Y = TAUGHT_START.Y + OFFSET_POS.Y
TARGET_POS.Z = TAUGHT_START.Z + OFFSET_POS.Z
TARGET_POS.A = TAUGHT_START.A
TARGET_POS.B = TAUGHT_START.B
TARGET_POS.C = TAUGHT_START.C
LIN TARGET_POS C_DIS
CONTINUE
OFFSET_POS = {X -0.127, Y -55.103, Z 4.000, A 0, B 0, C 0}
TARGET_POS = TAUGHT_START
TARGET_POS.X = TAUGHT_START.X + OFFSET_POS.X
TARGET_POS.Y = TAUGHT_START.Y + OFFSET_POS.Y
TARGET_POS.Z = TAUGHT_START.Z + OFFSET_POS.Z
TARGET_POS.A = TAUGHT_START.A
TARGET_POS.B = TAUGHT_START.B
TARGET_POS.C = TAUGHT_START.C
LIN TARGET_POS C_DIS
CONTINUE
OFFSET_POS = {X -0.204, Y -55.078, Z 4.000, A 0, B 0, C 0}
TARGET_POS = TAUGHT_START
TARGET_POS.X = TAUGHT_START.X + OFFSET_POS.X
TARGET_POS.Y = TAUGHT_START.Y + OFFSET_POS.Y
TARGET_POS.Z = TAUGHT_START.Z + OFFSET_POS.Z
TARGET_POS.A = TAUGHT_START.A
TARGET_POS.B = TAUGHT_START.B
TARGET_POS.C = TAUGHT_START.C
LIN TARGET_POS C_DIS
CONTINUE
OFFSET_POS = {X -0.280, Y -55.053, Z 4.000, A 0, B 0, C 0}
TARGET_POS = TAUGHT_START
TARGET_POS.X = TAUGHT_START.X + OFFSET_POS.X
TARGET_POS.Y = TAUGHT_START.Y + OFFSET_POS.Y
TARGET_POS.Z = TAUGHT_START.Z + OFFSET_POS.Z
TARGET_POS.A = TAUGHT_START.A
TARGET_POS.B = TAUGHT_START.B
TARGET_POS.C = TAUGHT_START.C
LIN TARGET_POS C_DIS
CONTINUE
OFFSET_POS = {X -0.356, Y -55.028, Z 4.000, A 0, B 0, C 0}
TARGET_POS = TAUGHT_START
TARGET_POS.X = TAUGHT_START.X + OFFSET_POS.X
TARGET_POS.Y = TAUGHT_START.Y + OFFSET_POS.Y
TARGET_POS.Z = TAUGHT_START.Z + OFFSET_POS.Z
TARGET_POS.A = TAUGHT_START.A
TARGET_POS.B = TAUGHT_START.B
TARGET_POS.C = TAUGHT_START.C
LIN TARGET_POS C_DIS
CONTINUE
OFFSET_POS = {X -0.433, Y -55.004, Z 4.000, A 0, B 0, C 0}
TARGET_POS = TAUGHT_START
TARGET_POS.X = TAUGHT_START.X + OFFSET_POS.X
TARGET_POS.Y = TAUGHT_START.Y + OFFSET_POS.Y
TARGET_POS.Z = TAUGHT_START.Z + OFFSET_POS.Z
TARGET_POS.A = TAUGHT_START.A
TARGET_POS.B = TAUGHT_START.B
TARGET_POS.C = TAUGHT_START.C
LIN TARGET_POS C_DIS
CONTINUE
OFFSET_POS = {X -0.509, Y -54.979, Z 4.000, A 0, B 0, C 0}
TARGET_POS = TAUGHT_START
TARGET_POS.X = TAUGHT_START.X + OFFSET_POS.X
TARGET_POS.Y = TAUGHT_START.Y + OFFSET_POS.Y
TARGET_POS.Z = TAUGHT_START.Z + OFFSET_POS.Z
TARGET_POS.A = TAUGHT_START.A
TARGET_POS.B = TAUGHT_START.B
TARGET_POS.C = TAUGHT_START.C
LIN TARGET_POS C_DIS
CONTINUE
OFFSET_POS = {X -0.585, Y -54.954, Z 4.000, A 0, B 0, C 0}
TARGET_POS = TAUGHT_START
TARGET_POS.X = TAUGHT_START.X + OFFSET_POS.X
TARGET_POS.Y = TAUGHT_START.Y + OFFSET_POS.Y
TARGET_POS.Z = TAUGHT_START.Z + OFFSET_POS.Z
TARGET_POS.A = TAUGHT_START.A
TARGET_POS.B = TAUGHT_START.B
TARGET_POS.C = TAUGHT_START.C
LIN TARGET_POS C_DIS
CONTINUE
OFFSET_POS = {X -0.662, Y -54.929, Z 4.000, A 0, B 0, C 0}
TARGET_POS = TAUGHT_START
TARGET_POS.X = TAUGHT_START.X + OFFSET_POS.X
TARGET_POS.Y = TAUGHT_START.Y + OFFSET_POS.Y
TARGET_POS.Z = TAUGHT_START.Z + OFFSET_POS.Z
TARGET_POS.A = TAUGHT_START.A
TARGET_POS.B = TAUGHT_START.B
TARGET_POS.C = TAUGHT_START.C
LIN TARGET_POS C_DIS
CONTINUE
OFFSET_POS = {X -0.738, Y -54.904, Z 4.000, A 0, B 0, C 0}
TARGET_POS = TAUGHT_START
TARGET_POS.X = TAUGHT_START.X + OFFSET_POS.X
TARGET_POS.Y = TAUGHT_START.Y + OFFSET_POS.Y
TARGET_POS.Z = TAUGHT_START.Z + OFFSET_POS.Z
TARGET_POS.A = TAUGHT_START.A
TARGET_POS.B = TAUGHT_START.B
TARGET_POS.C = TAUGHT_START.C
LIN TARGET_POS C_DIS
CONTINUE
OFFSET_POS = {X -0.814, Y -54.880, Z 4.000, A 0, B 0, C 0}
TARGET_POS = TAUGHT_START
TARGET_POS.X = TAUGHT_START.X + OFFSET_POS.X
TARGET_POS.Y = TAUGHT_START.Y + OFFSET_POS.Y
TARGET_POS.Z = TAUGHT_START.Z + OFFSET_POS.Z
TARGET_POS.A = TAUGHT_START.A
TARGET_POS.B = TAUGHT_START.B
TARGET_POS.C = TAUGHT_START.C
LIN TARGET_POS C_DIS
CONTINUE
OFFSET_POS = {X -0.891, Y -54.855, Z 4.000, A 0, B 0, C 0}
TARGET_POS = TAUGHT_START
TARGET_POS.X = TAUGHT_START.X + OFFSET_POS.X
TARGET_POS.Y = TAUGHT_START.Y + OFFSET_POS.Y
TARGET_POS.Z = TAUGHT_START.Z + OFFSET_POS.Z
TARGET_POS.A = TAUGHT_START.A
TARGET_POS.B = TAUGHT_START.B
TARGET_POS.C = TAUGHT_START.C
LIN TARGET_POS C_DIS
CONTINUE
OFFSET_POS = {X -0.914, Y -54.778, Z 4.000, A 0, B 0, C 0}
TARGET_POS = TAUGHT_START
TARGET_POS.X = TAUGHT_START.X + OFFSET_POS.X
TARGET_POS.Y = TAUGHT_START.Y + OFFSET_POS.Y
TARGET_POS.Z = TAUGHT_START.Z + OFFSET_POS.Z
TARGET_POS.A = TAUGHT_START.A
TARGET_POS.B = TAUGHT_START.B
TARGET_POS.C = TAUGHT_START.C
LIN TARGET_POS C_DIS
CONTINUE
OFFSET_POS = {X -0.936, Y -54.701, Z 4.000, A 0, B 0, C 0}
TARGET_POS = TAUGHT_START
TARGET_POS.X = TAUGHT_START.X + OFFSET_POS.X
TARGET_POS.Y = TAUGHT_START.Y + OFFSET_POS.Y
TARGET_POS.Z = TAUGHT_START.Z + OFFSET_POS.Z
TARGET_POS.A = TAUGHT_START.A
TARGET_POS.B = TAUGHT_START.B
TARGET_POS.C = TAUGHT_START.C
LIN TARGET_POS C_DIS
CONTINUE
OFFSET_POS = {X -0.959, Y -54.624, Z 4.000, A 0, B 0, C 0}
TARGET_POS = TAUGHT_START
TARGET_POS.X = TAUGHT_START.X + OFFSET_POS.X
TARGET_POS.Y = TAUGHT_START.Y + OFFSET_POS.Y
TARGET_POS.Z = TAUGHT_START.Z + OFFSET_POS.Z
TARGET_POS.A = TAUGHT_START.A
TARGET_POS.B = TAUGHT_START.B
TARGET_POS.C = TAUGHT_START.C
LIN TARGET_POS C_DIS
CONTINUE
OFFSET_POS = {X -0.982, Y -54.547, Z 4.000, A 0, B 0, C 0}
TARGET_POS = TAUGHT_START
TARGET_POS.X = TAUGHT_START.X + OFFSET_POS.X
TARGET_POS.Y = TAUGHT_START.Y + OFFSET_POS.Y
TARGET_POS.Z = TAUGHT_START.Z + OFFSET_POS.Z
TARGET_POS.A = TAUGHT_START.A
TARGET_POS.B = TAUGHT_START.B
TARGET_POS.C = TAUGHT_START.C
LIN TARGET_POS C_DIS
CONTINUE
OFFSET_POS = {X -1.005, Y -54.470, Z 4.000, A 0, B 0, C 0}
TARGET_POS = TAUGHT_START
TARGET_POS.X = TAUGHT_START.X + OFFSET_POS.X
TARGET_POS.Y = TAUGHT_START.Y + OFFSET_POS.Y
TARGET_POS.Z = TAUGHT_START.Z + OFFSET_POS.Z
TARGET_POS.A = TAUGHT_START.A
TARGET_POS.B = TAUGHT_START.B
TARGET_POS.C = TAUGHT_START.C
LIN TARGET_POS C_DIS
CONTINUE
OFFSET_POS = {X -1.028, Y -54.393, Z 4.000, A 0, B 0, C 0}
TARGET_POS = TAUGHT_START
TARGET_POS.X = TAUGHT_START.X + OFFSET_POS.X
TARGET_POS.Y = TAUGHT_START.Y + OFFSET_POS.Y
TARGET_POS.Z = TAUGHT_START.Z + OFFSET_POS.Z
TARGET_POS.A = TAUGHT_START.A
TARGET_POS.B = TAUGHT_START.B
TARGET_POS.C = TAUGHT_START.C
LIN TARGET_POS C_DIS
CONTINUE
OFFSET_POS = {X -1.051, Y -54.316, Z 4.000, A 0, B 0, C 0}
TARGET_POS = TAUGHT_START
TARGET_POS.X = TAUGHT_START.X + OFFSET_POS.X
TARGET_POS.Y = TAUGHT_START.Y + OFFSET_POS.Y
TARGET_POS.Z = TAUGHT_START.Z + OFFSET_POS.Z
TARGET_POS.A = TAUGHT_START.A
TARGET_POS.B = TAUGHT_START.B
TARGET_POS.C = TAUGHT_START.C
LIN TARGET_POS C_DIS
CONTINUE
OFFSET_POS = {X -1.073, Y -54.239, Z 4.000, A 0, B 0, C 0}
TARGET_POS = TAUGHT_START
TARGET_POS.X = TAUGHT_START.X + OFFSET_POS.X
TARGET_POS.Y = TAUGHT_START.Y + OFFSET_POS.Y
TARGET_POS.Z = TAUGHT_START.Z + OFFSET_POS.Z
TARGET_POS.A = TAUGHT_START.A
TARGET_POS.B = TAUGHT_START.B
TARGET_POS.C = TAUGHT_START.C
LIN TARGET_POS C_DIS
CONTINUE
OFFSET_POS = {X -1.096, Y -54.162, Z 4.000, A 0, B 0, C 0}
TARGET_POS = TAUGHT_START
TARGET_POS.X = TAUGHT_START.X + OFFSET_POS.X
TARGET_POS.Y = TAUGHT_START.Y + OFFSET_POS.Y
TARGET_POS.Z = TAUGHT_START.Z + OFFSET_POS.Z
TARGET_POS.A = TAUGHT_START.A
TARGET_POS.B = TAUGHT_START.B
TARGET_POS.C = TAUGHT_START.C
LIN TARGET_POS C_DIS
CONTINUE
OFFSET_POS = {X -1.119, Y -54.085, Z 4.000, A 0, B 0, C 0}
TARGET_POS = TAUGHT_START
TARGET_POS.X = TAUGHT_START.X + OFFSET_POS.X
TARGET_POS.Y = TAUGHT_START.Y + OFFSET_POS.Y
TARGET_POS.Z = TAUGHT_START.Z + OFFSET_POS.Z
TARGET_POS.A = TAUGHT_START.A
TARGET_POS.B = TAUGHT_START.B
TARGET_POS.C = TAUGHT_START.C
LIN TARGET_POS C_DIS
CONTINUE
OFFSET_POS = {X -1.142, Y -54.008, Z 4.000, A 0, B 0, C 0}
TARGET_POS = TAUGHT_START
TARGET_POS.X = TAUGHT_START.X + OFFSET_POS.X
TARGET_POS.Y = TAUGHT_START.Y + OFFSET_POS.Y
TARGET_POS.Z = TAUGHT_START.Z + OFFSET_POS.Z
TARGET_POS.A = TAUGHT_START.A
TARGET_POS.B = TAUGHT_START.B
TARGET_POS.C = TAUGHT_START.C
LIN TARGET_POS C_DIS
CONTINUE
OFFSET_POS = {X -1.161, Y -53.797, Z 4.000, A 0, B 0, C 0}
TARGET_POS = TAUGHT_START
TARGET_POS.X = TAUGHT_START.X + OFFSET_POS.X
TARGET_POS.Y = TAUGHT_START.Y + OFFSET_POS.Y
TARGET_POS.Z = TAUGHT_START.Z + OFFSET_POS.Z
TARGET_POS.A = TAUGHT_START.A
TARGET_POS.B = TAUGHT_START.B
TARGET_POS.C = TAUGHT_START.C
LIN TARGET_POS C_DIS
CONTINUE
OFFSET_POS = {X -1.180, Y -53.586, Z 4.000, A 0, B 0, C 0}
TARGET_POS = TAUGHT_START
TARGET_POS.X = TAUGHT_START.X + OFFSET_POS.X
TARGET_POS.Y = TAUGHT_START.Y + OFFSET_POS.Y
TARGET_POS.Z = TAUGHT_START.Z + OFFSET_POS.Z
TARGET_POS.A = TAUGHT_START.A
TARGET_POS.B = TAUGHT_START.B
TARGET_POS.C = TAUGHT_START.C
LIN TARGET_POS C_DIS
CONTINUE
OFFSET_POS = {X -1.199, Y -53.375, Z 4.000, A 0, B 0, C 0}
TARGET_POS = TAUGHT_START
TARGET_POS.X = TAUGHT_START.X + OFFSET_POS.X
TARGET_POS.Y = TAUGHT_START.Y + OFFSET_POS.Y
TARGET_POS.Z = TAUGHT_START.Z + OFFSET_POS.Z
TARGET_POS.A = TAUGHT_START.A
TARGET_POS.B = TAUGHT_START.B
TARGET_POS.C = TAUGHT_START.C
LIN TARGET_POS C_DIS
CONTINUE
OFFSET_POS = {X -1.219, Y -53.164, Z 4.000, A 0, B 0, C 0}
TARGET_POS = TAUGHT_START
TARGET_POS.X = TAUGHT_START.X + OFFSET_POS.X
TARGET_POS.Y = TAUGHT_START.Y + OFFSET_POS.Y
TARGET_POS.Z = TAUGHT_START.Z + OFFSET_POS.Z
TARGET_POS.A = TAUGHT_START.A
TARGET_POS.B = TAUGHT_START.B
TARGET_POS.C = TAUGHT_START.C
LIN TARGET_POS C_DIS
CONTINUE
OFFSET_POS = {X -0.566, Y -1.739, Z 4.000, A 0, B 0, C 0}
TARGET_POS = TAUGHT_START
TARGET_POS.X = TAUGHT_START.X + OFFSET_POS.X
TARGET_POS.Y = TAUGHT_START.Y + OFFSET_POS.Y
TARGET_POS.Z = TAUGHT_START.Z + OFFSET_POS.Z
TARGET_POS.A = TAUGHT_START.A
TARGET_POS.B = TAUGHT_START.B
TARGET_POS.C = TAUGHT_START.C
LIN TARGET_POS C_DIS
CONTINUE
OFFSET_POS = {X -0.541, Y -1.529, Z 4.000, A 0, B 0, C 0}
TARGET_POS = TAUGHT_START
TARGET_POS.X = TAUGHT_START.X + OFFSET_POS.X
TARGET_POS.Y = TAUGHT_START.Y + OFFSET_POS.Y
TARGET_POS.Z = TAUGHT_START.Z + OFFSET_POS.Z
TARGET_POS.A = TAUGHT_START.A
TARGET_POS.B = TAUGHT_START.B
TARGET_POS.C = TAUGHT_START.C
LIN TARGET_POS C_DIS
CONTINUE
OFFSET_POS = {X -0.517, Y -1.318, Z 4.000, A 0, B 0, C 0}
TARGET_POS = TAUGHT_START
TARGET_POS.X = TAUGHT_START.X + OFFSET_POS.X
TARGET_POS.Y = TAUGHT_START.Y + OFFSET_POS.Y
TARGET_POS.Z = TAUGHT_START.Z + OFFSET_POS.Z
TARGET_POS.A = TAUGHT_START.A
TARGET_POS.B = TAUGHT_START.B
TARGET_POS.C = TAUGHT_START.C
LIN TARGET_POS C_DIS
CONTINUE
OFFSET_POS = {X -0.492, Y -1.108, Z 4.000, A 0, B 0, C 0}
TARGET_POS = TAUGHT_START
TARGET_POS.X = TAUGHT_START.X + OFFSET_POS.X
TARGET_POS.Y = TAUGHT_START.Y + OFFSET_POS.Y
TARGET_POS.Z = TAUGHT_START.Z + OFFSET_POS.Z
TARGET_POS.A = TAUGHT_START.A
TARGET_POS.B = TAUGHT_START.B
TARGET_POS.C = TAUGHT_START.C
LIN TARGET_POS C_DIS
CONTINUE
OFFSET_POS = {X -0.468, Y -0.897, Z 4.000, A 0, B 0, C 0}
TARGET_POS = TAUGHT_START
TARGET_POS.X = TAUGHT_START.X + OFFSET_POS.X
TARGET_POS.Y = TAUGHT_START.Y + OFFSET_POS.Y
TARGET_POS.Z = TAUGHT_START.Z + OFFSET_POS.Z
TARGET_POS.A = TAUGHT_START.A
TARGET_POS.B = TAUGHT_START.B
TARGET_POS.C = TAUGHT_START.C
LIN TARGET_POS C_DIS
CONTINUE
OFFSET_POS = {X -0.443, Y -0.821, Z 4.000, A 0, B 0, C 0}
TARGET_POS = TAUGHT_START
TARGET_POS.X = TAUGHT_START.X + OFFSET_POS.X
TARGET_POS.Y = TAUGHT_START.Y + OFFSET_POS.Y
TARGET_POS.Z = TAUGHT_START.Z + OFFSET_POS.Z
TARGET_POS.A = TAUGHT_START.A
TARGET_POS.B = TAUGHT_START.B
TARGET_POS.C = TAUGHT_START.C
LIN TARGET_POS C_DIS
CONTINUE
OFFSET_POS = {X -0.418, Y -0.745, Z 4.000, A 0, B 0, C 0}
TARGET_POS = TAUGHT_START
TARGET_POS.X = TAUGHT_START.X + OFFSET_POS.X
TARGET_POS.Y = TAUGHT_START.Y + OFFSET_POS.Y
TARGET_POS.Z = TAUGHT_START.Z + OFFSET_POS.Z
TARGET_POS.A = TAUGHT_START.A
TARGET_POS.B = TAUGHT_START.B
TARGET_POS.C = TAUGHT_START.C
LIN TARGET_POS C_DIS
CONTINUE
OFFSET_POS = {X -0.394, Y -0.668, Z 4.000, A 0, B 0, C 0}
TARGET_POS = TAUGHT_START
TARGET_POS.X = TAUGHT_START.X + OFFSET_POS.X
TARGET_POS.Y = TAUGHT_START.Y + OFFSET_POS.Y
TARGET_POS.Z = TAUGHT_START.Z + OFFSET_POS.Z
TARGET_POS.A = TAUGHT_START.A
TARGET_POS.B = TAUGHT_START.B
TARGET_POS.C = TAUGHT_START.C
LIN TARGET_POS C_DIS
CONTINUE
OFFSET_POS = {X -0.369, Y -0.592, Z 4.000, A 0, B 0, C 0}
TARGET_POS = TAUGHT_START
TARGET_POS.X = TAUGHT_START.X + OFFSET_POS.X
TARGET_POS.Y = TAUGHT_START.Y + OFFSET_POS.Y
TARGET_POS.Z = TAUGHT_START.Z + OFFSET_POS.Z
TARGET_POS.A = TAUGHT_START.A
TARGET_POS.B = TAUGHT_START.B
TARGET_POS.C = TAUGHT_START.C
LIN TARGET_POS C_DIS
CONTINUE
OFFSET_POS = {X -0.344, Y -0.516, Z 4.000, A 0, B 0, C 0}
TARGET_POS = TAUGHT_START
TARGET_POS.X = TAUGHT_START.X + OFFSET_POS.X
TARGET_POS.Y = TAUGHT_START.Y + OFFSET_POS.Y
TARGET_POS.Z = TAUGHT_START.Z + OFFSET_POS.Z
TARGET_POS.A = TAUGHT_START.A
TARGET_POS.B = TAUGHT_START.B
TARGET_POS.C = TAUGHT_START.C
LIN TARGET_POS C_DIS
CONTINUE
OFFSET_POS = {X -0.319, Y -0.439, Z 4.000, A 0, B 0, C 0}
TARGET_POS = TAUGHT_START
TARGET_POS.X = TAUGHT_START.X + OFFSET_POS.X
TARGET_POS.Y = TAUGHT_START.Y + OFFSET_POS.Y
TARGET_POS.Z = TAUGHT_START.Z + OFFSET_POS.Z
TARGET_POS.A = TAUGHT_START.A
TARGET_POS.B = TAUGHT_START.B
TARGET_POS.C = TAUGHT_START.C
LIN TARGET_POS C_DIS
CONTINUE
OFFSET_POS = {X -0.294, Y -0.363, Z 4.000, A 0, B 0, C 0}
TARGET_POS = TAUGHT_START
TARGET_POS.X = TAUGHT_START.X + OFFSET_POS.X
TARGET_POS.Y = TAUGHT_START.Y + OFFSET_POS.Y
TARGET_POS.Z = TAUGHT_START.Z + OFFSET_POS.Z
TARGET_POS.A = TAUGHT_START.A
TARGET_POS.B = TAUGHT_START.B
TARGET_POS.C = TAUGHT_START.C
LIN TARGET_POS C_DIS
CONTINUE
OFFSET_POS = {X -0.270, Y -0.287, Z 4.000, A 0, B 0, C 0}
TARGET_POS = TAUGHT_START
TARGET_POS.X = TAUGHT_START.X + OFFSET_POS.X
TARGET_POS.Y = TAUGHT_START.Y + OFFSET_POS.Y
TARGET_POS.Z = TAUGHT_START.Z + OFFSET_POS.Z
TARGET_POS.A = TAUGHT_START.A
TARGET_POS.B = TAUGHT_START.B
TARGET_POS.C = TAUGHT_START.C
LIN TARGET_POS C_DIS
CONTINUE
OFFSET_POS = {X -0.245, Y -0.210, Z 4.000, A 0, B 0, C 0}
TARGET_POS = TAUGHT_START
TARGET_POS.X = TAUGHT_START.X + OFFSET_POS.X
TARGET_POS.Y = TAUGHT_START.Y + OFFSET_POS.Y
TARGET_POS.Z = TAUGHT_START.Z + OFFSET_POS.Z
TARGET_POS.A = TAUGHT_START.A
TARGET_POS.B = TAUGHT_START.B
TARGET_POS.C = TAUGHT_START.C
LIN TARGET_POS C_DIS
CONTINUE
OFFSET_POS = {X -0.220, Y -0.134, Z 4.000, A 0, B 0, C 0}
TARGET_POS = TAUGHT_START
TARGET_POS.X = TAUGHT_START.X + OFFSET_POS.X
TARGET_POS.Y = TAUGHT_START.Y + OFFSET_POS.Y
TARGET_POS.Z = TAUGHT_START.Z + OFFSET_POS.Z
TARGET_POS.A = TAUGHT_START.A
TARGET_POS.B = TAUGHT_START.B
TARGET_POS.C = TAUGHT_START.C
LIN TARGET_POS C_DIS
CONTINUE
OFFSET_POS = {X -0.195, Y -0.058, Z 4.000, A 0, B 0, C 0}
TARGET_POS = TAUGHT_START
TARGET_POS.X = TAUGHT_START.X + OFFSET_POS.X
TARGET_POS.Y = TAUGHT_START.Y + OFFSET_POS.Y
TARGET_POS.Z = TAUGHT_START.Z + OFFSET_POS.Z
TARGET_POS.A = TAUGHT_START.A
TARGET_POS.B = TAUGHT_START.B
TARGET_POS.C = TAUGHT_START.C
LIN TARGET_POS C_DIS
CONTINUE
OFFSET_POS = {X -0.118, Y -0.035, Z 4.000, A 0, B 0, C 0}
TARGET_POS = TAUGHT_START
TARGET_POS.X = TAUGHT_START.X + OFFSET_POS.X
TARGET_POS.Y = TAUGHT_START.Y + OFFSET_POS.Y
TARGET_POS.Z = TAUGHT_START.Z + OFFSET_POS.Z
TARGET_POS.A = TAUGHT_START.A
TARGET_POS.B = TAUGHT_START.B
TARGET_POS.C = TAUGHT_START.C
LIN TARGET_POS C_DIS
CONTINUE
OFFSET_POS = {X -0.041, Y -0.012, Z 4.000, A 0, B 0, C 0}
TARGET_POS = TAUGHT_START
TARGET_POS.X = TAUGHT_START.X + OFFSET_POS.X
TARGET_POS.Y = TAUGHT_START.Y + OFFSET_POS.Y
TARGET_POS.Z = TAUGHT_START.Z + OFFSET_POS.Z
TARGET_POS.A = TAUGHT_START.A
TARGET_POS.B = TAUGHT_START.B
TARGET_POS.C = TAUGHT_START.C
LIN TARGET_POS C_DIS
CONTINUE
OFFSET_POS = {X 0.000, Y 0.000, Z 4.000, A 0, B 0, C 0}
TARGET_POS = TAUGHT_START
TARGET_POS.X = TAUGHT_START.X + OFFSET_POS.X
TARGET_POS.Y = TAUGHT_START.Y + OFFSET_POS.Y
TARGET_POS.Z = TAUGHT_START.Z + OFFSET_POS.Z
TARGET_POS.A = TAUGHT_START.A
TARGET_POS.B = TAUGHT_START.B
TARGET_POS.C = TAUGHT_START.C
LIN TARGET_POS C_DIS
$OUT[1] = FALSE
WAIT SEC 0.200
WAIT SEC 55.00
; ;LAYER_CHANGE
; ;Z:6
OFFSET_POS = {X 0.000, Y 0.000, Z 6.000, A 0, B 0, C 0}
TARGET_POS = TAUGHT_START
TARGET_POS.X = TAUGHT_START.X + OFFSET_POS.X
TARGET_POS.Y = TAUGHT_START.Y + OFFSET_POS.Y
TARGET_POS.Z = TAUGHT_START.Z + OFFSET_POS.Z
TARGET_POS.A = TAUGHT_START.A
TARGET_POS.B = TAUGHT_START.B
TARGET_POS.C = TAUGHT_START.C
LIN TARGET_POS C_DIS
$OUT[1] = TRUE
WAIT SEC 0.200
OFFSET_POS = {X -0.041, Y -0.012, Z 6.000, A 0, B 0, C 0}
TARGET_POS = TAUGHT_START
TARGET_POS.X = TAUGHT_START.X + OFFSET_POS.X
TARGET_POS.Y = TAUGHT_START.Y + OFFSET_POS.Y
TARGET_POS.Z = TAUGHT_START.Z + OFFSET_POS.Z
TARGET_POS.A = TAUGHT_START.A
TARGET_POS.B = TAUGHT_START.B
TARGET_POS.C = TAUGHT_START.C
LIN TARGET_POS C_DIS
CONTINUE
OFFSET_POS = {X -0.118, Y -0.035, Z 6.000, A 0, B 0, C 0}
TARGET_POS = TAUGHT_START
TARGET_POS.X = TAUGHT_START.X + OFFSET_POS.X
TARGET_POS.Y = TAUGHT_START.Y + OFFSET_POS.Y
TARGET_POS.Z = TAUGHT_START.Z + OFFSET_POS.Z
TARGET_POS.A = TAUGHT_START.A
TARGET_POS.B = TAUGHT_START.B
TARGET_POS.C = TAUGHT_START.C
LIN TARGET_POS C_DIS
CONTINUE
OFFSET_POS = {X -0.195, Y -0.058, Z 6.000, A 0, B 0, C 0}
TARGET_POS = TAUGHT_START
TARGET_POS.X = TAUGHT_START.X + OFFSET_POS.X
TARGET_POS.Y = TAUGHT_START.Y + OFFSET_POS.Y
TARGET_POS.Z = TAUGHT_START.Z + OFFSET_POS.Z
TARGET_POS.A = TAUGHT_START.A
TARGET_POS.B = TAUGHT_START.B
TARGET_POS.C = TAUGHT_START.C
LIN TARGET_POS C_DIS
CONTINUE
OFFSET_POS = {X -0.220, Y -0.134, Z 6.000, A 0, B 0, C 0}
TARGET_POS = TAUGHT_START
TARGET_POS.X = TAUGHT_START.X + OFFSET_POS.X
TARGET_POS.Y = TAUGHT_START.Y + OFFSET_POS.Y
TARGET_POS.Z = TAUGHT_START.Z + OFFSET_POS.Z
TARGET_POS.A = TAUGHT_START.A
TARGET_POS.B = TAUGHT_START.B
TARGET_POS.C = TAUGHT_START.C
LIN TARGET_POS C_DIS
CONTINUE
OFFSET_POS = {X -0.245, Y -0.210, Z 6.000, A 0, B 0, C 0}
TARGET_POS = TAUGHT_START
TARGET_POS.X = TAUGHT_START.X + OFFSET_POS.X
TARGET_POS.Y = TAUGHT_START.Y + OFFSET_POS.Y
TARGET_POS.Z = TAUGHT_START.Z + OFFSET_POS.Z
TARGET_POS.A = TAUGHT_START.A
TARGET_POS.B = TAUGHT_START.B
TARGET_POS.C = TAUGHT_START.C
LIN TARGET_POS C_DIS
CONTINUE
OFFSET_POS = {X -0.270, Y -0.287, Z 6.000, A 0, B 0, C 0}
TARGET_POS = TAUGHT_START
TARGET_POS.X = TAUGHT_START.X + OFFSET_POS.X
TARGET_POS.Y = TAUGHT_START.Y + OFFSET_POS.Y
TARGET_POS.Z = TAUGHT_START.Z + OFFSET_POS.Z
TARGET_POS.A = TAUGHT_START.A
TARGET_POS.B = TAUGHT_START.B
TARGET_POS.C = TAUGHT_START.C
LIN TARGET_POS C_DIS
CONTINUE
OFFSET_POS = {X -0.294, Y -0.363, Z 6.000, A 0, B 0, C 0}
TARGET_POS = TAUGHT_START
TARGET_POS.X = TAUGHT_START.X + OFFSET_POS.X
TARGET_POS.Y = TAUGHT_START.Y + OFFSET_POS.Y
TARGET_POS.Z = TAUGHT_START.Z + OFFSET_POS.Z
TARGET_POS.A = TAUGHT_START.A
TARGET_POS.B = TAUGHT_START.B
TARGET_POS.C = TAUGHT_START.C
LIN TARGET_POS C_DIS
CONTINUE
OFFSET_POS = {X -0.319, Y -0.439, Z 6.000, A 0, B 0, C 0}
TARGET_POS = TAUGHT_START
TARGET_POS.X = TAUGHT_START.X + OFFSET_POS.X
TARGET_POS.Y = TAUGHT_START.Y + OFFSET_POS.Y
TARGET_POS.Z = TAUGHT_START.Z + OFFSET_POS.Z
TARGET_POS.A = TAUGHT_START.A
TARGET_POS.B = TAUGHT_START.B
TARGET_POS.C = TAUGHT_START.C
LIN TARGET_POS C_DIS
CONTINUE
OFFSET_POS = {X -0.344, Y -0.516, Z 6.000, A 0, B 0, C 0}
TARGET_POS = TAUGHT_START
TARGET_POS.X = TAUGHT_START.X + OFFSET_POS.X
TARGET_POS.Y = TAUGHT_START.Y + OFFSET_POS.Y
TARGET_POS.Z = TAUGHT_START.Z + OFFSET_POS.Z
TARGET_POS.A = TAUGHT_START.A
TARGET_POS.B = TAUGHT_START.B
TARGET_POS.C = TAUGHT_START.C
LIN TARGET_POS C_DIS
CONTINUE
OFFSET_POS = {X -0.369, Y -0.592, Z 6.000, A 0, B 0, C 0}
TARGET_POS = TAUGHT_START
TARGET_POS.X = TAUGHT_START.X + OFFSET_POS.X
TARGET_POS.Y = TAUGHT_START.Y + OFFSET_POS.Y
TARGET_POS.Z = TAUGHT_START.Z + OFFSET_POS.Z
TARGET_POS.A = TAUGHT_START.A
TARGET_POS.B = TAUGHT_START.B
TARGET_POS.C = TAUGHT_START.C
LIN TARGET_POS C_DIS
CONTINUE
OFFSET_POS = {X -0.394, Y -0.668, Z 6.000, A 0, B 0, C 0}
TARGET_POS = TAUGHT_START
TARGET_POS.X = TAUGHT_START.X + OFFSET_POS.X
TARGET_POS.Y = TAUGHT_START.Y + OFFSET_POS.Y
TARGET_POS.Z = TAUGHT_START.Z + OFFSET_POS.Z
TARGET_POS.A = TAUGHT_START.A
TARGET_POS.B = TAUGHT_START.B
TARGET_POS.C = TAUGHT_START.C
LIN TARGET_POS C_DIS
CONTINUE
OFFSET_POS = {X -0.418, Y -0.745, Z 6.000, A 0, B 0, C 0}
TARGET_POS = TAUGHT_START
TARGET_POS.X = TAUGHT_START.X + OFFSET_POS.X
TARGET_POS.Y = TAUGHT_START.Y + OFFSET_POS.Y
TARGET_POS.Z = TAUGHT_START.Z + OFFSET_POS.Z
TARGET_POS.A = TAUGHT_START.A
TARGET_POS.B = TAUGHT_START.B
TARGET_POS.C = TAUGHT_START.C
LIN TARGET_POS C_DIS
CONTINUE
OFFSET_POS = {X -0.443, Y -0.821, Z 6.000, A 0, B 0, C 0}
TARGET_POS = TAUGHT_START
TARGET_POS.X = TAUGHT_START.X + OFFSET_POS.X
TARGET_POS.Y = TAUGHT_START.Y + OFFSET_POS.Y
TARGET_POS.Z = TAUGHT_START.Z + OFFSET_POS.Z
TARGET_POS.A = TAUGHT_START.A
TARGET_POS.B = TAUGHT_START.B
TARGET_POS.C = TAUGHT_START.C
LIN TARGET_POS C_DIS
CONTINUE
OFFSET_POS = {X -0.468, Y -0.897, Z 6.000, A 0, B 0, C 0}
TARGET_POS = TAUGHT_START
TARGET_POS.X = TAUGHT_START.X + OFFSET_POS.X
TARGET_POS.Y = TAUGHT_START.Y + OFFSET_POS.Y
TARGET_POS.Z = TAUGHT_START.Z + OFFSET_POS.Z
TARGET_POS.A = TAUGHT_START.A
TARGET_POS.B = TAUGHT_START.B
TARGET_POS.C = TAUGHT_START.C
LIN TARGET_POS C_DIS
CONTINUE
OFFSET_POS = {X -0.492, Y -1.108, Z 6.000, A 0, B 0, C 0}
TARGET_POS = TAUGHT_START
TARGET_POS.X = TAUGHT_START.X + OFFSET_POS.X
TARGET_POS.Y = TAUGHT_START.Y + OFFSET_POS.Y
TARGET_POS.Z = TAUGHT_START.Z + OFFSET_POS.Z
TARGET_POS.A = TAUGHT_START.A
TARGET_POS.B = TAUGHT_START.B
TARGET_POS.C = TAUGHT_START.C
LIN TARGET_POS C_DIS
CONTINUE
OFFSET_POS = {X -0.517, Y -1.318, Z 6.000, A 0, B 0, C 0}
TARGET_POS = TAUGHT_START
TARGET_POS.X = TAUGHT_START.X + OFFSET_POS.X
TARGET_POS.Y = TAUGHT_START.Y + OFFSET_POS.Y
TARGET_POS.Z = TAUGHT_START.Z + OFFSET_POS.Z
TARGET_POS.A = TAUGHT_START.A
TARGET_POS.B = TAUGHT_START.B
TARGET_POS.C = TAUGHT_START.C
LIN TARGET_POS C_DIS
CONTINUE
OFFSET_POS = {X -0.541, Y -1.529, Z 6.000, A 0, B 0, C 0}
TARGET_POS = TAUGHT_START
TARGET_POS.X = TAUGHT_START.X + OFFSET_POS.X
TARGET_POS.Y = TAUGHT_START.Y + OFFSET_POS.Y
TARGET_POS.Z = TAUGHT_START.Z + OFFSET_POS.Z
TARGET_POS.A = TAUGHT_START.A
TARGET_POS.B = TAUGHT_START.B
TARGET_POS.C = TAUGHT_START.C
LIN TARGET_POS C_DIS
CONTINUE
OFFSET_POS = {X -0.566, Y -1.739, Z 6.000, A 0, B 0, C 0}
TARGET_POS = TAUGHT_START
TARGET_POS.X = TAUGHT_START.X + OFFSET_POS.X
TARGET_POS.Y = TAUGHT_START.Y + OFFSET_POS.Y
TARGET_POS.Z = TAUGHT_START.Z + OFFSET_POS.Z
TARGET_POS.A = TAUGHT_START.A
TARGET_POS.B = TAUGHT_START.B
TARGET_POS.C = TAUGHT_START.C
LIN TARGET_POS C_DIS
CONTINUE
OFFSET_POS = {X -1.219, Y -53.164, Z 6.000, A 0, B 0, C 0}
TARGET_POS = TAUGHT_START
TARGET_POS.X = TAUGHT_START.X + OFFSET_POS.X
TARGET_POS.Y = TAUGHT_START.Y + OFFSET_POS.Y
TARGET_POS.Z = TAUGHT_START.Z + OFFSET_POS.Z
TARGET_POS.A = TAUGHT_START.A
TARGET_POS.B = TAUGHT_START.B
TARGET_POS.C = TAUGHT_START.C
LIN TARGET_POS C_DIS
CONTINUE
OFFSET_POS = {X -1.199, Y -53.375, Z 6.000, A 0, B 0, C 0}
TARGET_POS = TAUGHT_START
TARGET_POS.X = TAUGHT_START.X + OFFSET_POS.X
TARGET_POS.Y = TAUGHT_START.Y + OFFSET_POS.Y
TARGET_POS.Z = TAUGHT_START.Z + OFFSET_POS.Z
TARGET_POS.A = TAUGHT_START.A
TARGET_POS.B = TAUGHT_START.B
TARGET_POS.C = TAUGHT_START.C
LIN TARGET_POS C_DIS
CONTINUE
OFFSET_POS = {X -1.180, Y -53.586, Z 6.000, A 0, B 0, C 0}
TARGET_POS = TAUGHT_START
TARGET_POS.X = TAUGHT_START.X + OFFSET_POS.X
TARGET_POS.Y = TAUGHT_START.Y + OFFSET_POS.Y
TARGET_POS.Z = TAUGHT_START.Z + OFFSET_POS.Z
TARGET_POS.A = TAUGHT_START.A
TARGET_POS.B = TAUGHT_START.B
TARGET_POS.C = TAUGHT_START.C
LIN TARGET_POS C_DIS
CONTINUE
OFFSET_POS = {X -1.161, Y -53.797, Z 6.000, A 0, B 0, C 0}
TARGET_POS = TAUGHT_START
TARGET_POS.X = TAUGHT_START.X + OFFSET_POS.X
TARGET_POS.Y = TAUGHT_START.Y + OFFSET_POS.Y
TARGET_POS.Z = TAUGHT_START.Z + OFFSET_POS.Z
TARGET_POS.A = TAUGHT_START.A
TARGET_POS.B = TAUGHT_START.B
TARGET_POS.C = TAUGHT_START.C
LIN TARGET_POS C_DIS
CONTINUE
OFFSET_POS = {X -1.142, Y -54.008, Z 6.000, A 0, B 0, C 0}
TARGET_POS = TAUGHT_START
TARGET_POS.X = TAUGHT_START.X + OFFSET_POS.X
TARGET_POS.Y = TAUGHT_START.Y + OFFSET_POS.Y
TARGET_POS.Z = TAUGHT_START.Z + OFFSET_POS.Z
TARGET_POS.A = TAUGHT_START.A
TARGET_POS.B = TAUGHT_START.B
TARGET_POS.C = TAUGHT_START.C
LIN TARGET_POS C_DIS
CONTINUE
OFFSET_POS = {X -1.119, Y -54.085, Z 6.000, A 0, B 0, C 0}
TARGET_POS = TAUGHT_START
TARGET_POS.X = TAUGHT_START.X + OFFSET_POS.X
TARGET_POS.Y = TAUGHT_START.Y + OFFSET_POS.Y
TARGET_POS.Z = TAUGHT_START.Z + OFFSET_POS.Z
TARGET_POS.A = TAUGHT_START.A
TARGET_POS.B = TAUGHT_START.B
TARGET_POS.C = TAUGHT_START.C
LIN TARGET_POS C_DIS
CONTINUE
OFFSET_POS = {X -1.096, Y -54.162, Z 6.000, A 0, B 0, C 0}
TARGET_POS = TAUGHT_START
TARGET_POS.X = TAUGHT_START.X + OFFSET_POS.X
TARGET_POS.Y = TAUGHT_START.Y + OFFSET_POS.Y
TARGET_POS.Z = TAUGHT_START.Z + OFFSET_POS.Z
TARGET_POS.A = TAUGHT_START.A
TARGET_POS.B = TAUGHT_START.B
TARGET_POS.C = TAUGHT_START.C
LIN TARGET_POS C_DIS
CONTINUE
OFFSET_POS = {X -1.073, Y -54.239, Z 6.000, A 0, B 0, C 0}
TARGET_POS = TAUGHT_START
TARGET_POS.X = TAUGHT_START.X + OFFSET_POS.X
TARGET_POS.Y = TAUGHT_START.Y + OFFSET_POS.Y
TARGET_POS.Z = TAUGHT_START.Z + OFFSET_POS.Z
TARGET_POS.A = TAUGHT_START.A
TARGET_POS.B = TAUGHT_START.B
TARGET_POS.C = TAUGHT_START.C
LIN TARGET_POS C_DIS
CONTINUE
OFFSET_POS = {X -1.051, Y -54.316, Z 6.000, A 0, B 0, C 0}
TARGET_POS = TAUGHT_START
TARGET_POS.X = TAUGHT_START.X + OFFSET_POS.X
TARGET_POS.Y = TAUGHT_START.Y + OFFSET_POS.Y
TARGET_POS.Z = TAUGHT_START.Z + OFFSET_POS.Z
TARGET_POS.A = TAUGHT_START.A
TARGET_POS.B = TAUGHT_START.B
TARGET_POS.C = TAUGHT_START.C
LIN TARGET_POS C_DIS
CONTINUE
OFFSET_POS = {X -1.028, Y -54.393, Z 6.000, A 0, B 0, C 0}
TARGET_POS = TAUGHT_START
TARGET_POS.X = TAUGHT_START.X + OFFSET_POS.X
TARGET_POS.Y = TAUGHT_START.Y + OFFSET_POS.Y
TARGET_POS.Z = TAUGHT_START.Z + OFFSET_POS.Z
TARGET_POS.A = TAUGHT_START.A
TARGET_POS.B = TAUGHT_START.B
TARGET_POS.C = TAUGHT_START.C
LIN TARGET_POS C_DIS
CONTINUE
OFFSET_POS = {X -1.005, Y -54.470, Z 6.000, A 0, B 0, C 0}
TARGET_POS = TAUGHT_START
TARGET_POS.X = TAUGHT_START.X + OFFSET_POS.X
TARGET_POS.Y = TAUGHT_START.Y + OFFSET_POS.Y
TARGET_POS.Z = TAUGHT_START.Z + OFFSET_POS.Z
TARGET_POS.A = TAUGHT_START.A
TARGET_POS.B = TAUGHT_START.B
TARGET_POS.C = TAUGHT_START.C
LIN TARGET_POS C_DIS
CONTINUE
OFFSET_POS = {X -0.982, Y -54.547, Z 6.000, A 0, B 0, C 0}
TARGET_POS = TAUGHT_START
TARGET_POS.X = TAUGHT_START.X + OFFSET_POS.X
TARGET_POS.Y = TAUGHT_START.Y + OFFSET_POS.Y
TARGET_POS.Z = TAUGHT_START.Z + OFFSET_POS.Z
TARGET_POS.A = TAUGHT_START.A
TARGET_POS.B = TAUGHT_START.B
TARGET_POS.C = TAUGHT_START.C
LIN TARGET_POS C_DIS
CONTINUE
OFFSET_POS = {X -0.959, Y -54.624, Z 6.000, A 0, B 0, C 0}
TARGET_POS = TAUGHT_START
TARGET_POS.X = TAUGHT_START.X + OFFSET_POS.X
TARGET_POS.Y = TAUGHT_START.Y + OFFSET_POS.Y
TARGET_POS.Z = TAUGHT_START.Z + OFFSET_POS.Z
TARGET_POS.A = TAUGHT_START.A
TARGET_POS.B = TAUGHT_START.B
TARGET_POS.C = TAUGHT_START.C
LIN TARGET_POS C_DIS
CONTINUE
OFFSET_POS = {X -0.936, Y -54.701, Z 6.000, A 0, B 0, C 0}
TARGET_POS = TAUGHT_START
TARGET_POS.X = TAUGHT_START.X + OFFSET_POS.X
TARGET_POS.Y = TAUGHT_START.Y + OFFSET_POS.Y
TARGET_POS.Z = TAUGHT_START.Z + OFFSET_POS.Z
TARGET_POS.A = TAUGHT_START.A
TARGET_POS.B = TAUGHT_START.B
TARGET_POS.C = TAUGHT_START.C
LIN TARGET_POS C_DIS
CONTINUE
OFFSET_POS = {X -0.914, Y -54.778, Z 6.000, A 0, B 0, C 0}
TARGET_POS = TAUGHT_START
TARGET_POS.X = TAUGHT_START.X + OFFSET_POS.X
TARGET_POS.Y = TAUGHT_START.Y + OFFSET_POS.Y
TARGET_POS.Z = TAUGHT_START.Z + OFFSET_POS.Z
TARGET_POS.A = TAUGHT_START.A
TARGET_POS.B = TAUGHT_START.B
TARGET_POS.C = TAUGHT_START.C
LIN TARGET_POS C_DIS
CONTINUE
OFFSET_POS = {X -0.891, Y -54.855, Z 6.000, A 0, B 0, C 0}
TARGET_POS = TAUGHT_START
TARGET_POS.X = TAUGHT_START.X + OFFSET_POS.X
TARGET_POS.Y = TAUGHT_START.Y + OFFSET_POS.Y
TARGET_POS.Z = TAUGHT_START.Z + OFFSET_POS.Z
TARGET_POS.A = TAUGHT_START.A
TARGET_POS.B = TAUGHT_START.B
TARGET_POS.C = TAUGHT_START.C
LIN TARGET_POS C_DIS
CONTINUE
OFFSET_POS = {X -0.814, Y -54.880, Z 6.000, A 0, B 0, C 0}
TARGET_POS = TAUGHT_START
TARGET_POS.X = TAUGHT_START.X + OFFSET_POS.X
TARGET_POS.Y = TAUGHT_START.Y + OFFSET_POS.Y
TARGET_POS.Z = TAUGHT_START.Z + OFFSET_POS.Z
TARGET_POS.A = TAUGHT_START.A
TARGET_POS.B = TAUGHT_START.B
TARGET_POS.C = TAUGHT_START.C
LIN TARGET_POS C_DIS
CONTINUE
OFFSET_POS = {X -0.738, Y -54.904, Z 6.000, A 0, B 0, C 0}
TARGET_POS = TAUGHT_START
TARGET_POS.X = TAUGHT_START.X + OFFSET_POS.X
TARGET_POS.Y = TAUGHT_START.Y + OFFSET_POS.Y
TARGET_POS.Z = TAUGHT_START.Z + OFFSET_POS.Z
TARGET_POS.A = TAUGHT_START.A
TARGET_POS.B = TAUGHT_START.B
TARGET_POS.C = TAUGHT_START.C
LIN TARGET_POS C_DIS
CONTINUE
OFFSET_POS = {X -0.662, Y -54.929, Z 6.000, A 0, B 0, C 0}
TARGET_POS = TAUGHT_START
TARGET_POS.X = TAUGHT_START.X + OFFSET_POS.X
TARGET_POS.Y = TAUGHT_START.Y + OFFSET_POS.Y
TARGET_POS.Z = TAUGHT_START.Z + OFFSET_POS.Z
TARGET_POS.A = TAUGHT_START.A
TARGET_POS.B = TAUGHT_START.B
TARGET_POS.C = TAUGHT_START.C
LIN TARGET_POS C_DIS
CONTINUE
OFFSET_POS = {X -0.585, Y -54.954, Z 6.000, A 0, B 0, C 0}
TARGET_POS = TAUGHT_START
TARGET_POS.X = TAUGHT_START.X + OFFSET_POS.X
TARGET_POS.Y = TAUGHT_START.Y + OFFSET_POS.Y
TARGET_POS.Z = TAUGHT_START.Z + OFFSET_POS.Z
TARGET_POS.A = TAUGHT_START.A
TARGET_POS.B = TAUGHT_START.B
TARGET_POS.C = TAUGHT_START.C
LIN TARGET_POS C_DIS
CONTINUE
OFFSET_POS = {X -0.509, Y -54.979, Z 6.000, A 0, B 0, C 0}
TARGET_POS = TAUGHT_START
TARGET_POS.X = TAUGHT_START.X + OFFSET_POS.X
TARGET_POS.Y = TAUGHT_START.Y + OFFSET_POS.Y
TARGET_POS.Z = TAUGHT_START.Z + OFFSET_POS.Z
TARGET_POS.A = TAUGHT_START.A
TARGET_POS.B = TAUGHT_START.B
TARGET_POS.C = TAUGHT_START.C
LIN TARGET_POS C_DIS
CONTINUE
OFFSET_POS = {X -0.433, Y -55.004, Z 6.000, A 0, B 0, C 0}
TARGET_POS = TAUGHT_START
TARGET_POS.X = TAUGHT_START.X + OFFSET_POS.X
TARGET_POS.Y = TAUGHT_START.Y + OFFSET_POS.Y
TARGET_POS.Z = TAUGHT_START.Z + OFFSET_POS.Z
TARGET_POS.A = TAUGHT_START.A
TARGET_POS.B = TAUGHT_START.B
TARGET_POS.C = TAUGHT_START.C
LIN TARGET_POS C_DIS
CONTINUE
OFFSET_POS = {X -0.356, Y -55.028, Z 6.000, A 0, B 0, C 0}
TARGET_POS = TAUGHT_START
TARGET_POS.X = TAUGHT_START.X + OFFSET_POS.X
TARGET_POS.Y = TAUGHT_START.Y + OFFSET_POS.Y
TARGET_POS.Z = TAUGHT_START.Z + OFFSET_POS.Z
TARGET_POS.A = TAUGHT_START.A
TARGET_POS.B = TAUGHT_START.B
TARGET_POS.C = TAUGHT_START.C
LIN TARGET_POS C_DIS
CONTINUE
OFFSET_POS = {X -0.280, Y -55.053, Z 6.000, A 0, B 0, C 0}
TARGET_POS = TAUGHT_START
TARGET_POS.X = TAUGHT_START.X + OFFSET_POS.X
TARGET_POS.Y = TAUGHT_START.Y + OFFSET_POS.Y
TARGET_POS.Z = TAUGHT_START.Z + OFFSET_POS.Z
TARGET_POS.A = TAUGHT_START.A
TARGET_POS.B = TAUGHT_START.B
TARGET_POS.C = TAUGHT_START.C
LIN TARGET_POS C_DIS
CONTINUE
OFFSET_POS = {X -0.204, Y -55.078, Z 6.000, A 0, B 0, C 0}
TARGET_POS = TAUGHT_START
TARGET_POS.X = TAUGHT_START.X + OFFSET_POS.X
TARGET_POS.Y = TAUGHT_START.Y + OFFSET_POS.Y
TARGET_POS.Z = TAUGHT_START.Z + OFFSET_POS.Z
TARGET_POS.A = TAUGHT_START.A
TARGET_POS.B = TAUGHT_START.B
TARGET_POS.C = TAUGHT_START.C
LIN TARGET_POS C_DIS
CONTINUE
OFFSET_POS = {X -0.127, Y -55.103, Z 6.000, A 0, B 0, C 0}
TARGET_POS = TAUGHT_START
TARGET_POS.X = TAUGHT_START.X + OFFSET_POS.X
TARGET_POS.Y = TAUGHT_START.Y + OFFSET_POS.Y
TARGET_POS.Z = TAUGHT_START.Z + OFFSET_POS.Z
TARGET_POS.A = TAUGHT_START.A
TARGET_POS.B = TAUGHT_START.B
TARGET_POS.C = TAUGHT_START.C
LIN TARGET_POS C_DIS
CONTINUE
OFFSET_POS = {X -0.051, Y -55.127, Z 6.000, A 0, B 0, C 0}
TARGET_POS = TAUGHT_START
TARGET_POS.X = TAUGHT_START.X + OFFSET_POS.X
TARGET_POS.Y = TAUGHT_START.Y + OFFSET_POS.Y
TARGET_POS.Z = TAUGHT_START.Z + OFFSET_POS.Z
TARGET_POS.A = TAUGHT_START.A
TARGET_POS.B = TAUGHT_START.B
TARGET_POS.C = TAUGHT_START.C
LIN TARGET_POS C_DIS
CONTINUE
OFFSET_POS = {X 0.159, Y -55.152, Z 6.000, A 0, B 0, C 0}
TARGET_POS = TAUGHT_START
TARGET_POS.X = TAUGHT_START.X + OFFSET_POS.X
TARGET_POS.Y = TAUGHT_START.Y + OFFSET_POS.Y
TARGET_POS.Z = TAUGHT_START.Z + OFFSET_POS.Z
TARGET_POS.A = TAUGHT_START.A
TARGET_POS.B = TAUGHT_START.B
TARGET_POS.C = TAUGHT_START.C
LIN TARGET_POS C_DIS
CONTINUE
OFFSET_POS = {X 0.370, Y -55.176, Z 6.000, A 0, B 0, C 0}
TARGET_POS = TAUGHT_START
TARGET_POS.X = TAUGHT_START.X + OFFSET_POS.X
TARGET_POS.Y = TAUGHT_START.Y + OFFSET_POS.Y
TARGET_POS.Z = TAUGHT_START.Z + OFFSET_POS.Z
TARGET_POS.A = TAUGHT_START.A
TARGET_POS.B = TAUGHT_START.B
TARGET_POS.C = TAUGHT_START.C
LIN TARGET_POS C_DIS
CONTINUE
OFFSET_POS = {X 0.580, Y -55.201, Z 6.000, A 0, B 0, C 0}
TARGET_POS = TAUGHT_START
TARGET_POS.X = TAUGHT_START.X + OFFSET_POS.X
TARGET_POS.Y = TAUGHT_START.Y + OFFSET_POS.Y
TARGET_POS.Z = TAUGHT_START.Z + OFFSET_POS.Z
TARGET_POS.A = TAUGHT_START.A
TARGET_POS.B = TAUGHT_START.B
TARGET_POS.C = TAUGHT_START.C
LIN TARGET_POS C_DIS
CONTINUE
OFFSET_POS = {X 0.791, Y -55.225, Z 6.000, A 0, B 0, C 0}
TARGET_POS = TAUGHT_START
TARGET_POS.X = TAUGHT_START.X + OFFSET_POS.X
TARGET_POS.Y = TAUGHT_START.Y + OFFSET_POS.Y
TARGET_POS.Z = TAUGHT_START.Z + OFFSET_POS.Z
TARGET_POS.A = TAUGHT_START.A
TARGET_POS.B = TAUGHT_START.B
TARGET_POS.C = TAUGHT_START.C
LIN TARGET_POS C_DIS
CONTINUE
OFFSET_POS = {X 92.213, Y -56.386, Z 6.000, A 0, B 0, C 0}
TARGET_POS = TAUGHT_START
TARGET_POS.X = TAUGHT_START.X + OFFSET_POS.X
TARGET_POS.Y = TAUGHT_START.Y + OFFSET_POS.Y
TARGET_POS.Z = TAUGHT_START.Z + OFFSET_POS.Z
TARGET_POS.A = TAUGHT_START.A
TARGET_POS.B = TAUGHT_START.B
TARGET_POS.C = TAUGHT_START.C
LIN TARGET_POS C_DIS
CONTINUE
OFFSET_POS = {X 92.424, Y -56.367, Z 6.000, A 0, B 0, C 0}
TARGET_POS = TAUGHT_START
TARGET_POS.X = TAUGHT_START.X + OFFSET_POS.X
TARGET_POS.Y = TAUGHT_START.Y + OFFSET_POS.Y
TARGET_POS.Z = TAUGHT_START.Z + OFFSET_POS.Z
TARGET_POS.A = TAUGHT_START.A
TARGET_POS.B = TAUGHT_START.B
TARGET_POS.C = TAUGHT_START.C
LIN TARGET_POS C_DIS
CONTINUE
OFFSET_POS = {X 92.635, Y -56.347, Z 6.000, A 0, B 0, C 0}
TARGET_POS = TAUGHT_START
TARGET_POS.X = TAUGHT_START.X + OFFSET_POS.X
TARGET_POS.Y = TAUGHT_START.Y + OFFSET_POS.Y
TARGET_POS.Z = TAUGHT_START.Z + OFFSET_POS.Z
TARGET_POS.A = TAUGHT_START.A
TARGET_POS.B = TAUGHT_START.B
TARGET_POS.C = TAUGHT_START.C
LIN TARGET_POS C_DIS
CONTINUE
OFFSET_POS = {X 92.846, Y -56.328, Z 6.000, A 0, B 0, C 0}
TARGET_POS = TAUGHT_START
TARGET_POS.X = TAUGHT_START.X + OFFSET_POS.X
