; generated by PrusaSlicer 2.9.4 on 2026-03-09 at 14:23:36 UTC

; 

; external perimeters extrusion width = 4.50mm
; perimeters extrusion width = 4.50mm
; infill extrusion width = 4.50mm
; solid infill extrusion width = 4.50mm
; top infill extrusion width = 4.50mm
; first layer extrusion width = 4.50mm

M104 S200 ; set temperature
;TYPE:Custom
G28 ; home all axes
G1 Z5 F5000 ; lift nozzle
M109 S200 ; set temperature and wait for it to be reached
G21 ; set units to millimeters
G90 ; use absolute coordinates
M82 ; use absolute distances for extrusion
G92 E0
; Filament gcode
M107
;LAYER_CHANGE
;Z:2
;HEIGHT:2
G1 E-2 F2400
G92 E0
G1 Z2 F7800
G92 E0
G1 X8.031 Y8.176
G1 E2 F2400
;TYPE:External perimeter
;WIDTH:5.19844
G1 F1800
G1 X8.107 Y8.152 E2.03872
;WIDTH:5.15082
G1 X8.184 Y8.128 E2.07751
;WIDTH:5.1032
G1 X8.261 Y8.104 E2.11591
;WIDTH:5.05558
G1 X8.337 Y8.08 E2.15347
;WIDTH:5.00795
G1 X8.414 Y8.057 E2.19095
;WIDTH:4.96033
G1 X8.49 Y8.033 E2.22773
;WIDTH:4.91271
G1 X8.567 Y8.009 E2.26456
;WIDTH:4.86509
G1 X8.644 Y7.985 E2.301
;WIDTH:4.81747
G1 X8.72 Y7.961 E2.33662
;WIDTH:4.76985
G1 X8.797 Y7.937 E2.37228
;WIDTH:4.72223
G1 X8.874 Y7.914 E2.40742
;WIDTH:4.67461
G1 X9.084 Y7.892 E2.49873
;WIDTH:4.63096
G1 X9.295 Y7.87 E2.58952
;WIDTH:4.5873
G1 X9.506 Y7.848 E2.67937
;WIDTH:4.54365
G1 X9.717 Y7.826 E2.76828
;WIDTH:4.5
G1 X101.146 Y7.826 E40.67912
;WIDTH:4.54365
G1 X101.357 Y7.848 E40.76803
;WIDTH:4.5873
G1 X101.568 Y7.87 E40.85788
;WIDTH:4.63096
G1 X101.778 Y7.892 E40.94825
;WIDTH:4.67461
G1 X101.989 Y7.914 E41.03999
;WIDTH:4.72223
G1 X102.066 Y7.937 E41.07513
;WIDTH:4.76985
G1 X102.142 Y7.961 E41.11037
;WIDTH:4.81747
G1 X102.219 Y7.985 E41.14642
;WIDTH:4.86509
G1 X102.296 Y8.009 E41.18286
;WIDTH:4.91271
G1 X102.372 Y8.033 E41.21926
;WIDTH:4.96033
G1 X102.449 Y8.057 E41.25648
;WIDTH:5.00795
G1 X102.526 Y8.08 E41.29396
;WIDTH:5.05558
G1 X102.602 Y8.104 E41.33152
;WIDTH:5.1032
G1 X102.679 Y8.128 E41.36992
;WIDTH:5.15082
G1 X102.756 Y8.152 E41.40871
;WIDTH:5.19844
G1 X102.832 Y8.176 E41.44743
G1 X102.856 Y8.252 E41.48615
;WIDTH:5.15082
G1 X102.88 Y8.329 E41.52494
;WIDTH:5.1032
G1 X102.904 Y8.406 E41.56334
;WIDTH:5.05557
G1 X102.927 Y8.482 E41.60076
;WIDTH:5.00795
G1 X102.951 Y8.559 E41.63838
;WIDTH:4.96033
G1 X102.975 Y8.635 E41.67516
;WIDTH:4.91271
G1 X102.999 Y8.712 E41.71199
;WIDTH:4.86509
G1 X103.023 Y8.789 E41.74843
;WIDTH:4.81747
G1 X103.046 Y8.865 E41.78392
;WIDTH:4.76985
G1 X103.07 Y8.942 E41.81958
;WIDTH:4.72223
G1 X103.094 Y9.019 E41.85485
;WIDTH:4.67461
G1 X103.116 Y9.229 E41.94616
;WIDTH:4.63096
G1 X103.138 Y9.44 E42.03695
;WIDTH:4.5873
G1 X103.16 Y9.651 E42.1268
;WIDTH:4.54365
G1 X103.181 Y9.862 E42.21567
;WIDTH:4.5
G1 X103.181 Y61.291 E63.5406
;WIDTH:4.54365
G1 X103.16 Y61.502 E63.62947
;WIDTH:4.5873
G1 X103.138 Y61.713 E63.71932
;WIDTH:4.63096
G1 X103.116 Y61.923 E63.80969
;WIDTH:4.67461
G1 X103.094 Y62.134 E63.90143
;WIDTH:4.72223
G1 X103.07 Y62.211 E63.9367
;WIDTH:4.76985
G1 X103.046 Y62.287 E63.97194
;WIDTH:4.81747
G1 X103.023 Y62.364 E64.00786
;WIDTH:4.86509
G1 X102.999 Y62.441 E64.0443
;WIDTH:4.91271
G1 X102.975 Y62.517 E64.0807
;WIDTH:4.96033
G1 X102.951 Y62.594 E64.11792
;WIDTH:5.00795
G1 X102.927 Y62.671 E64.15554
;WIDTH:5.05557
G1 X102.904 Y62.747 E64.19296
;WIDTH:5.1032
G1 X102.88 Y62.824 E64.23136
;WIDTH:5.15082
G1 X102.856 Y62.901 E64.27015
;WIDTH:5.19844
G1 X102.832 Y62.977 E64.30887
G1 X102.756 Y63.001 E64.34759
;WIDTH:5.15082
G1 X102.679 Y63.025 E64.38638
;WIDTH:5.1032
G1 X102.602 Y63.049 E64.42478
;WIDTH:5.05558
G1 X102.526 Y63.072 E64.4622
;WIDTH:5.00795
G1 X102.449 Y63.096 E64.49982
;WIDTH:4.96033
G1 X102.372 Y63.12 E64.53704
;WIDTH:4.91271
G1 X102.296 Y63.144 E64.57344
;WIDTH:4.86509
G1 X102.219 Y63.168 E64.60988
;WIDTH:4.81747
G1 X102.142 Y63.191 E64.6458
;WIDTH:4.76985
G1 X102.066 Y63.215 E64.68104
;WIDTH:4.72223
G1 X101.989 Y63.239 E64.71631
;WIDTH:4.67461
G1 X101.778 Y63.261 E64.80805
;WIDTH:4.63096
G1 X101.568 Y63.283 E64.89842
;WIDTH:4.5873
G1 X101.357 Y63.305 E64.98827
;WIDTH:4.54365
G1 X101.146 Y63.326 E65.07714
;WIDTH:4.5
G1 X9.717 Y63.326 E102.98798
;WIDTH:4.54365
G1 X9.506 Y63.305 E103.07685
;WIDTH:4.5873
G1 X9.295 Y63.283 E103.1667
;WIDTH:4.63096
G1 X9.084 Y63.261 E103.25749
;WIDTH:4.67461
G1 X8.874 Y63.239 E103.3488
;WIDTH:4.72223
G1 X8.797 Y63.215 E103.38407
;WIDTH:4.76985
G1 X8.72 Y63.191 E103.41973
;WIDTH:4.81747
G1 X8.644 Y63.168 E103.45522
;WIDTH:4.86509
G1 X8.567 Y63.144 E103.49166
;WIDTH:4.91271
G1 X8.49 Y63.12 E103.52849
;WIDTH:4.96033
G1 X8.414 Y63.096 E103.56527
;WIDTH:5.00795
G1 X8.337 Y63.072 E103.60289
;WIDTH:5.05558
G1 X8.261 Y63.049 E103.64031
;WIDTH:5.1032
G1 X8.184 Y63.025 E103.67871
;WIDTH:5.15082
G1 X8.107 Y63.001 E103.7175
;WIDTH:5.19844
G1 X8.031 Y62.977 E103.75622
G1 X8.007 Y62.901 E103.79494
;WIDTH:5.15082
G1 X7.983 Y62.824 E103.83373
;WIDTH:5.1032
G1 X7.959 Y62.747 E103.87213
;WIDTH:5.05558
G1 X7.935 Y62.671 E103.90969
;WIDTH:5.00795
G1 X7.912 Y62.594 E103.94717
;WIDTH:4.96033
G1 X7.888 Y62.517 E103.98439
;WIDTH:4.91271
G1 X7.864 Y62.441 E104.02079
;WIDTH:4.86509
G1 X7.84 Y62.364 E104.05723
;WIDTH:4.81747
G1 X7.816 Y62.287 E104.09328
;WIDTH:4.76985
G1 X7.792 Y62.211 E104.12852
;WIDTH:4.72223
G1 X7.769 Y62.134 E104.16366
;WIDTH:4.67461
G1 X7.747 Y61.923 E104.2554
;WIDTH:4.63096
G1 X7.725 Y61.713 E104.34577
;WIDTH:4.5873
G1 X7.703 Y61.502 E104.43562
;WIDTH:4.54365
G1 X7.681 Y61.291 E104.52453
;WIDTH:4.5
G1 X7.681 Y9.862 E125.84946
;WIDTH:4.54365
G1 X7.703 Y9.651 E125.93837
;WIDTH:4.5873
G1 X7.725 Y9.44 E126.02822
;WIDTH:4.63096
G1 X7.747 Y9.229 E126.11901
;WIDTH:4.67461
G1 X7.769 Y9.019 E126.21032
;WIDTH:4.72223
G1 X7.792 Y8.942 E126.24546
;WIDTH:4.76985
G1 X7.816 Y8.865 E126.28112
;WIDTH:4.81747
G1 X7.84 Y8.789 E126.31674
;WIDTH:4.86509
G1 X7.853 Y8.749 E126.33574
G1 X11.757 Y7.878 F7800
;LAYER_CHANGE
;Z:4
;HEIGHT:2
G1 E124.33574 F2400
G92 E0
G1 Z4 F7800
G1 X8.031 Y8.176
G1 E2 F2400
;WIDTH:5.19844
G1 F1800
G1 X8.107 Y8.152 E2.03872
;WIDTH:5.15082
G1 X8.184 Y8.128 E2.07751
;WIDTH:5.1032
G1 X8.261 Y8.104 E2.11591
;WIDTH:5.05558
G1 X8.337 Y8.08 E2.15347
;WIDTH:5.00795
G1 X8.414 Y8.057 E2.19095
;WIDTH:4.96033
G1 X8.49 Y8.033 E2.22773
;WIDTH:4.91271
G1 X8.567 Y8.009 E2.26456
;WIDTH:4.86509
G1 X8.644 Y7.985 E2.301
;WIDTH:4.81747
G1 X8.72 Y7.961 E2.33662
;WIDTH:4.76985
G1 X8.797 Y7.937 E2.37228
;WIDTH:4.72223
G1 X8.874 Y7.914 E2.40742
;WIDTH:4.67461
G1 X9.084 Y7.892 E2.49873
;WIDTH:4.63096
G1 X9.295 Y7.87 E2.58952
;WIDTH:4.5873
G1 X9.506 Y7.848 E2.67937
;WIDTH:4.54365
G1 X9.717 Y7.826 E2.76828
;WIDTH:4.5
G1 X101.146 Y7.826 E40.67912
;WIDTH:4.54365
G1 X101.357 Y7.848 E40.76803
;WIDTH:4.5873
G1 X101.568 Y7.87 E40.85788
;WIDTH:4.63096
G1 X101.778 Y7.892 E40.94825
;WIDTH:4.67461
G1 X101.989 Y7.914 E41.03999
;WIDTH:4.72223
G1 X102.066 Y7.937 E41.07513
;WIDTH:4.76985
G1 X102.142 Y7.961 E41.11037
;WIDTH:4.81747
G1 X102.219 Y7.985 E41.14642
;WIDTH:4.86509
G1 X102.296 Y8.009 E41.18286
;WIDTH:4.91271
G1 X102.372 Y8.033 E41.21926
;WIDTH:4.96033
G1 X102.449 Y8.057 E41.25648
;WIDTH:5.00795
G1 X102.526 Y8.08 E41.29396
;WIDTH:5.05558
G1 X102.602 Y8.104 E41.33152
;WIDTH:5.1032
G1 X102.679 Y8.128 E41.36992
;WIDTH:5.15082
G1 X102.756 Y8.152 E41.40871
;WIDTH:5.19844
G1 X102.832 Y8.176 E41.44743
G1 X102.856 Y8.252 E41.48615
;WIDTH:5.15082
G1 X102.88 Y8.329 E41.52494
;WIDTH:5.1032
G1 X102.904 Y8.406 E41.56334
;WIDTH:5.05557
G1 X102.927 Y8.482 E41.60076
;WIDTH:5.00795
G1 X102.951 Y8.559 E41.63838
;WIDTH:4.96033
G1 X102.975 Y8.635 E41.67516
;WIDTH:4.91271
G1 X102.999 Y8.712 E41.71199
;WIDTH:4.86509
G1 X103.023 Y8.789 E41.74843
;WIDTH:4.81747
G1 X103.046 Y8.865 E41.78392
;WIDTH:4.76985
G1 X103.07 Y8.942 E41.81958
;WIDTH:4.72223
G1 X103.094 Y9.019 E41.85485
;WIDTH:4.67461
G1 X103.116 Y9.229 E41.94616
;WIDTH:4.63096
G1 X103.138 Y9.44 E42.03695
;WIDTH:4.5873
G1 X103.16 Y9.651 E42.1268
;WIDTH:4.54365
G1 X103.181 Y9.862 E42.21567
;WIDTH:4.5
G1 X103.181 Y61.291 E63.5406
;WIDTH:4.54365
G1 X103.16 Y61.502 E63.62947
;WIDTH:4.5873
G1 X103.138 Y61.713 E63.71932
;WIDTH:4.63096
G1 X103.116 Y61.923 E63.80969
;WIDTH:4.67461
G1 X103.094 Y62.134 E63.90143
;WIDTH:4.72223
G1 X103.07 Y62.211 E63.9367
;WIDTH:4.76985
G1 X103.046 Y62.287 E63.97194
;WIDTH:4.81747
G1 X103.023 Y62.364 E64.00786
;WIDTH:4.86509
G1 X102.999 Y62.441 E64.0443
;WIDTH:4.91271
G1 X102.975 Y62.517 E64.0807
;WIDTH:4.96033
G1 X102.951 Y62.594 E64.11792
;WIDTH:5.00795
G1 X102.927 Y62.671 E64.15554
;WIDTH:5.05557
G1 X102.904 Y62.747 E64.19296
;WIDTH:5.1032
G1 X102.88 Y62.824 E64.23136
;WIDTH:5.15082
G1 X102.856 Y62.901 E64.27015
;WIDTH:5.19844
G1 X102.832 Y62.977 E64.30887
G1 X102.756 Y63.001 E64.34759
;WIDTH:5.15082
G1 X102.679 Y63.025 E64.38638
;WIDTH:5.1032
G1 X102.602 Y63.049 E64.42478
;WIDTH:5.05558
G1 X102.526 Y63.072 E64.4622
;WIDTH:5.00795
G1 X102.449 Y63.096 E64.49982
;WIDTH:4.96033
G1 X102.372 Y63.12 E64.53704
;WIDTH:4.91271
G1 X102.296 Y63.144 E64.57344
;WIDTH:4.86509
G1 X102.219 Y63.168 E64.60988
;WIDTH:4.81747
G1 X102.142 Y63.191 E64.6458
;WIDTH:4.76985
G1 X102.066 Y63.215 E64.68104
;WIDTH:4.72223
G1 X101.989 Y63.239 E64.71631
;WIDTH:4.67461
G1 X101.778 Y63.261 E64.80805
;WIDTH:4.63096
G1 X101.568 Y63.283 E64.89842
;WIDTH:4.5873
G1 X101.357 Y63.305 E64.98827
;WIDTH:4.54365
G1 X101.146 Y63.326 E65.07714
;WIDTH:4.5
G1 X9.717 Y63.326 E102.98798
;WIDTH:4.54365
G1 X9.506 Y63.305 E103.07685
;WIDTH:4.5873
G1 X9.295 Y63.283 E103.1667
;WIDTH:4.63096
G1 X9.084 Y63.261 E103.25749
;WIDTH:4.67461
G1 X8.874 Y63.239 E103.3488
;WIDTH:4.72223
G1 X8.797 Y63.215 E103.38407
;WIDTH:4.76985
G1 X8.72 Y63.191 E103.41973
;WIDTH:4.81747
G1 X8.644 Y63.168 E103.45522
;WIDTH:4.86509
G1 X8.567 Y63.144 E103.49166
;WIDTH:4.91271
G1 X8.49 Y63.12 E103.52849
;WIDTH:4.96033
G1 X8.414 Y63.096 E103.56527
;WIDTH:5.00795
G1 X8.337 Y63.072 E103.60289
;WIDTH:5.05558
G1 X8.261 Y63.049 E103.64031
;WIDTH:5.1032
G1 X8.184 Y63.025 E103.67871
;WIDTH:5.15082
G1 X8.107 Y63.001 E103.7175
;WIDTH:5.19844
G1 X8.031 Y62.977 E103.75622
G1 X8.007 Y62.901 E103.79494
;WIDTH:5.15082
G1 X7.983 Y62.824 E103.83373
;WIDTH:5.1032
G1 X7.959 Y62.747 E103.87213
;WIDTH:5.05558
G1 X7.935 Y62.671 E103.90969
;WIDTH:5.00795
G1 X7.912 Y62.594 E103.94717
;WIDTH:4.96033
G1 X7.888 Y62.517 E103.98439
;WIDTH:4.91271
G1 X7.864 Y62.441 E104.02079
;WIDTH:4.86509
G1 X7.84 Y62.364 E104.05723
;WIDTH:4.81747
G1 X7.816 Y62.287 E104.09328
;WIDTH:4.76985
G1 X7.792 Y62.211 E104.12852
;WIDTH:4.72223
G1 X7.769 Y62.134 E104.16366
;WIDTH:4.67461
G1 X7.747 Y61.923 E104.2554
;WIDTH:4.63096
G1 X7.725 Y61.713 E104.34577
;WIDTH:4.5873
G1 X7.703 Y61.502 E104.43562
;WIDTH:4.54365
G1 X7.681 Y61.291 E104.52453
;WIDTH:4.5
G1 X7.681 Y9.862 E125.84946
;WIDTH:4.54365
G1 X7.703 Y9.651 E125.93837
;WIDTH:4.5873
G1 X7.725 Y9.44 E126.02822
;WIDTH:4.63096
G1 X7.747 Y9.229 E126.11901
;WIDTH:4.67461
G1 X7.769 Y9.019 E126.21032
;WIDTH:4.72223
G1 X7.792 Y8.942 E126.24546
;WIDTH:4.76985
G1 X7.816 Y8.865 E126.28112
;WIDTH:4.81747
G1 X7.84 Y8.789 E126.31674
;WIDTH:4.86509
G1 X7.853 Y8.749 E126.33574
G1 X11.757 Y7.878 F7800
;LAYER_CHANGE
;Z:6
;HEIGHT:2
G1 E124.33574 F2400
G92 E0
G1 Z6 F7800
G1 X8.031 Y8.176
G1 E2 F2400
;WIDTH:5.19844
G1 F1800
G1 X8.107 Y8.152 E2.03872
;WIDTH:5.15082
G1 X8.184 Y8.128 E2.07751
;WIDTH:5.1032
G1 X8.261 Y8.104 E2.11591
;WIDTH:5.05558
G1 X8.337 Y8.08 E2.15347
;WIDTH:5.00795
G1 X8.414 Y8.057 E2.19095
;WIDTH:4.96033
G1 X8.49 Y8.033 E2.22773
;WIDTH:4.91271
G1 X8.567 Y8.009 E2.26456
;WIDTH:4.86509
G1 X8.644 Y7.985 E2.301
;WIDTH:4.81747
G1 X8.72 Y7.961 E2.33662
;WIDTH:4.76985
G1 X8.797 Y7.937 E2.37228
;WIDTH:4.72223
G1 X8.874 Y7.914 E2.40742
;WIDTH:4.67461
G1 X9.084 Y7.892 E2.49873
;WIDTH:4.63096
G1 X9.295 Y7.87 E2.58952
;WIDTH:4.5873
G1 X9.506 Y7.848 E2.67937
;WIDTH:4.54365
G1 X9.717 Y7.826 E2.76828
;WIDTH:4.5
G1 X101.146 Y7.826 E40.67912
;WIDTH:4.54365
G1 X101.357 Y7.848 E40.76803
;WIDTH:4.5873
G1 X101.568 Y7.87 E40.85788
;WIDTH:4.63096
G1 X101.778 Y7.892 E40.94825
;WIDTH:4.67461
G1 X101.989 Y7.914 E41.03999
;WIDTH:4.72223
G1 X102.066 Y7.937 E41.07513
;WIDTH:4.76985
G1 X102.142 Y7.961 E41.11037
;WIDTH:4.81747
G1 X102.219 Y7.985 E41.14642
;WIDTH:4.86509
G1 X102.296 Y8.009 E41.18286
;WIDTH:4.91271
G1 X102.372 Y8.033 E41.21926
;WIDTH:4.96033
G1 X102.449 Y8.057 E41.25648
;WIDTH:5.00795
G1 X102.526 Y8.08 E41.29396
;WIDTH:5.05558
G1 X102.602 Y8.104 E41.33152
;WIDTH:5.1032
G1 X102.679 Y8.128 E41.36992
;WIDTH:5.15082
G1 X102.756 Y8.152 E41.40871
;WIDTH:5.19844
G1 X102.832 Y8.176 E41.44743
G1 X102.856 Y8.252 E41.48615
;WIDTH:5.15082
G1 X102.88 Y8.329 E41.52494
;WIDTH:5.1032
G1 X102.904 Y8.406 E41.56334
;WIDTH:5.05557
G1 X102.927 Y8.482 E41.60076
;WIDTH:5.00795
G1 X102.951 Y8.559 E41.63838
;WIDTH:4.96033
G1 X102.975 Y8.635 E41.67516
;WIDTH:4.91271
G1 X102.999 Y8.712 E41.71199
;WIDTH:4.86509
G1 X103.023 Y8.789 E41.74843
;WIDTH:4.81747
G1 X103.046 Y8.865 E41.78392
;WIDTH:4.76985
G1 X103.07 Y8.942 E41.81958
;WIDTH:4.72223
G1 X103.094 Y9.019 E41.85485
;WIDTH:4.67461
G1 X103.116 Y9.229 E41.94616
;WIDTH:4.63096
G1 X103.138 Y9.44 E42.03695
;WIDTH:4.5873
G1 X103.16 Y9.651 E42.1268
;WIDTH:4.54365
G1 X103.181 Y9.862 E42.21567
;WIDTH:4.5
G1 X103.181 Y61.291 E63.5406
;WIDTH:4.54365
G1 X103.16 Y61.502 E63.62947
;WIDTH:4.5873
G1 X103.138 Y61.713 E63.71932
;WIDTH:4.63096
G1 X103.116 Y61.923 E63.80969
;WIDTH:4.67461
G1 X103.094 Y62.134 E63.90143
;WIDTH:4.72223
G1 X103.07 Y62.211 E63.9367
;WIDTH:4.76985
G1 X103.046 Y62.287 E63.97194
;WIDTH:4.81747
G1 X103.023 Y62.364 E64.00786
;WIDTH:4.86509
G1 X102.999 Y62.441 E64.0443
;WIDTH:4.91271
G1 X102.975 Y62.517 E64.0807
;WIDTH:4.96033
G1 X102.951 Y62.594 E64.11792
;WIDTH:5.00795
G1 X102.927 Y62.671 E64.15554
;WIDTH:5.05557
G1 X102.904 Y62.747 E64.19296
;WIDTH:5.1032
G1 X102.88 Y62.824 E64.23136
;WIDTH:5.15082
G1 X102.856 Y62.901 E64.27015
;WIDTH:5.19844
G1 X102.832 Y62.977 E64.30887
G1 X102.756 Y63.001 E64.34759
;WIDTH:5.15082
G1 X102.679 Y63.025 E64.38638
;WIDTH:5.1032
G1 X102.602 Y63.049 E64.42478
;WIDTH:5.05558
G1 X102.526 Y63.072 E64.4622
;WIDTH:5.00795
G1 X102.449 Y63.096 E64.49982
;WIDTH:4.96033
G1 X102.372 Y63.12 E64.53704
;WIDTH:4.91271
G1 X102.296 Y63.144 E64.57344
;WIDTH:4.86509
G1 X102.219 Y63.168 E64.60988
;WIDTH:4.81747
G1 X102.142 Y63.191 E64.6458
;WIDTH:4.76985
G1 X102.066 Y63.215 E64.68104
;WIDTH:4.72223
G1 X101.989 Y63.239 E64.71631
;WIDTH:4.67461
G1 X101.778 Y63.261 E64.80805
;WIDTH:4.63096
G1 X101.568 Y63.283 E64.89842
;WIDTH:4.5873
G1 X101.357 Y63.305 E64.98827
;WIDTH:4.54365
G1 X101.146 Y63.326 E65.07714
;WIDTH:4.5
G1 X9.717 Y63.326 E102.98798
;WIDTH:4.54365
G1 X9.506 Y63.305 E103.07685
;WIDTH:4.5873
G1 X9.295 Y63.283 E103.1667
;WIDTH:4.63096
G1 X9.084 Y63.261 E103.25749
;WIDTH:4.67461
G1 X8.874 Y63.239 E103.3488
;WIDTH:4.72223
G1 X8.797 Y63.215 E103.38407
;WIDTH:4.76985
G1 X8.72 Y63.191 E103.41973
;WIDTH:4.81747
G1 X8.644 Y63.168 E103.45522
;WIDTH:4.86509
G1 X8.567 Y63.144 E103.49166
;WIDTH:4.91271
G1 X8.49 Y63.12 E103.52849
;WIDTH:4.96033
G1 X8.414 Y63.096 E103.56527
;WIDTH:5.00795
G1 X8.337 Y63.072 E103.60289
;WIDTH:5.05558
G1 X8.261 Y63.049 E103.64031
;WIDTH:5.1032
G1 X8.184 Y63.025 E103.67871
;WIDTH:5.15082
G1 X8.107 Y63.001 E103.7175
;WIDTH:5.19844
G1 X8.031 Y62.977 E103.75622
G1 X8.007 Y62.901 E103.79494
;WIDTH:5.15082
G1 X7.983 Y62.824 E103.83373
;WIDTH:5.1032
G1 X7.959 Y62.747 E103.87213
;WIDTH:5.05558
G1 X7.935 Y62.671 E103.90969
;WIDTH:5.00795
G1 X7.912 Y62.594 E103.94717
;WIDTH:4.96033
G1 X7.888 Y62.517 E103.98439
;WIDTH:4.91271
G1 X7.864 Y62.441 E104.02079
;WIDTH:4.86509
G1 X7.84 Y62.364 E104.05723
;WIDTH:4.81747
G1 X7.816 Y62.287 E104.09328
;WIDTH:4.76985
G1 X7.792 Y62.211 E104.12852
;WIDTH:4.72223
G1 X7.769 Y62.134 E104.16366
;WIDTH:4.67461
G1 X7.747 Y61.923 E104.2554
;WIDTH:4.63096
G1 X7.725 Y61.713 E104.34577
;WIDTH:4.5873
G1 X7.703 Y61.502 E104.43562
;WIDTH:4.54365
G1 X7.681 Y61.291 E104.52453
;WIDTH:4.5
G1 X7.681 Y9.862 E125.84946
;WIDTH:4.54365
G1 X7.703 Y9.651 E125.93837
;WIDTH:4.5873
G1 X7.725 Y9.44 E126.02822
;WIDTH:4.63096
G1 X7.747 Y9.229 E126.11901
;WIDTH:4.67461
G1 X7.769 Y9.019 E126.21032
;WIDTH:4.72223
G1 X7.792 Y8.942 E126.24546
;WIDTH:4.76985
G1 X7.816 Y8.865 E126.28112
;WIDTH:4.81747
G1 X7.84 Y8.789 E126.31674
;WIDTH:4.86509
