; generated by PrusaSlicer 2.9.4 on 2026-03-09 at 09:25:27 UTC

; 

; external perimeters extrusion width = 4.50mm
; perimeters extrusion width = 4.50mm
; infill extrusion width = 4.50mm
; solid infill extrusion width = 4.50mm
; top infill extrusion width = 4.50mm
; first layer extrusion width = 4.50mm

M104 S200 ; set temperature
;TYPE:Custom
G28 ; home all axes
G1 Z5 F5000 ; lift nozzle
M109 S200 ; set temperature and wait for it to be reached
G21 ; set units to millimeters
G90 ; use absolute coordinates
M82 ; use absolute distances for extrusion
G92 E0
; Filament gcode
M107
;LAYER_CHANGE
;Z:2
;HEIGHT:2
G1 Z2 F7800
G1 X9.981 Y64.632
;TYPE:External perimeter
;WIDTH:5.10319
G1 X9.94 Y64.62 E2.02034
;WIDTH:5.15082
G1 X9.863 Y64.597 E2.05899
;WIDTH:5.19844
G1 X9.786 Y64.574 E2.09803
G1 X9.761 Y64.498 E2.1369
;WIDTH:5.15082
G1 X9.736 Y64.422 E2.17538
;WIDTH:5.1032
G1 X9.711 Y64.345 E2.21392
;WIDTH:5.05557
G1 X9.687 Y64.269 E2.25148
;WIDTH:5.00795
G1 X9.662 Y64.193 E2.28879
;WIDTH:4.96033
G1 X9.637 Y64.116 E2.32615
;WIDTH:4.91271
G1 X9.612 Y64.04 E2.36269
;WIDTH:4.86509
G1 X9.587 Y63.964 E2.39884
;WIDTH:4.81747
G1 X9.563 Y63.887 E2.43489
;WIDTH:4.76985
G1 X9.538 Y63.811 E2.47026
;WIDTH:4.72223
G1 X9.513 Y63.735 E2.50525
;WIDTH:4.67461
G1 X9.489 Y63.524 E2.59708
;WIDTH:4.63096
G1 X9.464 Y63.314 E2.68759
;WIDTH:4.58731
G1 X9.44 Y63.103 E2.77753
;WIDTH:4.54365
G1 X9.415 Y62.893 E2.86616
;WIDTH:4.5
G1 X8.762 Y11.468 E24.19116
;WIDTH:4.54365
G1 X8.782 Y11.257 E24.27999
;WIDTH:4.58731
G1 X8.801 Y11.046 E24.36972
;WIDTH:4.63096
G1 X8.82 Y10.835 E24.46039
;WIDTH:4.67461
G1 X8.839 Y10.624 E24.552
;WIDTH:4.72223
G1 X8.862 Y10.547 E24.58714
;WIDTH:4.76985
G1 X8.885 Y10.47 E24.62267
;WIDTH:4.81747
G1 X8.908 Y10.393 E24.65859
;WIDTH:4.86509
G1 X8.93 Y10.316 E24.69477
;WIDTH:4.91271
G1 X8.953 Y10.239 E24.73147
;WIDTH:4.96033
G1 X8.976 Y10.162 E24.76856
;WIDTH:5.00796
G1 X8.999 Y10.085 E24.80604
;WIDTH:5.05558
G1 X9.022 Y10.008 E24.84391
;WIDTH:5.1032
G1 X9.045 Y9.931 E24.88217
;WIDTH:5.15082
G1 X9.067 Y9.854 E24.92068
;WIDTH:5.19844
G1 X9.09 Y9.777 E24.95972
G1 X9.167 Y9.752 E24.99905
;WIDTH:5.15082
G1 X9.243 Y9.728 E25.03738
;WIDTH:5.1032
G1 X9.319 Y9.703 E25.07547
;WIDTH:5.05558
G1 X9.396 Y9.678 E25.11362
;WIDTH:5.00796
G1 X9.472 Y9.653 E25.15093
;WIDTH:4.96033
G1 X9.548 Y9.628 E25.18786
;WIDTH:4.91271
G1 X9.625 Y9.604 E25.22469
;WIDTH:4.86509
G1 X9.701 Y9.579 E25.26084
;WIDTH:4.81747
G1 X9.777 Y9.554 E25.2966
;WIDTH:4.76985
G1 X9.854 Y9.529 E25.33239
;WIDTH:4.72223
G1 X9.93 Y9.505 E25.36724
;WIDTH:4.67461
G1 X10.14 Y9.48 E25.45869
;WIDTH:4.63096
G1 X10.351 Y9.456 E25.54958
;WIDTH:4.58731
G1 X10.561 Y9.431 E25.63915
;WIDTH:4.54365
G1 X10.772 Y9.407 E25.72815
;WIDTH:4.5
G1 X102.194 Y8.246 E63.63914
;WIDTH:4.54365
G1 X102.405 Y8.265 E63.72793
;WIDTH:4.5873
G1 X102.616 Y8.285 E63.8177
;WIDTH:4.63095
G1 X102.827 Y8.304 E63.90837
;WIDTH:4.67461
G1 X103.038 Y8.323 E63.99998
;WIDTH:4.72223
G1 X103.115 Y8.346 E64.03512
;WIDTH:4.76985
G1 X103.192 Y8.369 E64.07065
;WIDTH:4.81747
G1 X103.269 Y8.391 E64.10645
;WIDTH:4.86509
G1 X103.346 Y8.414 E64.14276
;WIDTH:4.91271
G1 X103.423 Y8.437 E64.17946
;WIDTH:4.96033
G1 X103.499 Y8.46 E64.21611
;WIDTH:5.00795
G1 X103.576 Y8.483 E64.25359
;WIDTH:5.05557
G1 X103.653 Y8.506 E64.29146
;WIDTH:5.1032
G1 X103.73 Y8.528 E64.32959
;WIDTH:5.15082
G1 X103.807 Y8.551 E64.36824
;WIDTH:5.19844
G1 X103.884 Y8.574 E64.40728
G1 X103.909 Y8.65 E64.44615
;WIDTH:5.15082
G1 X103.934 Y8.727 E64.48509
;WIDTH:5.1032
G1 X103.958 Y8.803 E64.52303
;WIDTH:5.05558
G1 X103.983 Y8.879 E64.56073
;WIDTH:5.00795
G1 X104.008 Y8.956 E64.59849
;WIDTH:4.96033
G1 X104.033 Y9.032 E64.63542
;WIDTH:4.91271
G1 X104.058 Y9.108 E64.67196
;WIDTH:4.86509
G1 X104.082 Y9.185 E64.7084
;WIDTH:4.81747
G1 X104.107 Y9.261 E64.74416
;WIDTH:4.76985
G1 X104.132 Y9.338 E64.77995
;WIDTH:4.72223
G1 X104.157 Y9.414 E64.81494
;WIDTH:4.67461
G1 X104.181 Y9.624 E64.90634
;WIDTH:4.63096
G1 X104.206 Y9.835 E64.99728
;WIDTH:4.58731
G1 X104.23 Y10.045 E65.0868
;WIDTH:4.54365
G1 X104.255 Y10.256 E65.17585
;WIDTH:4.5
G1 X104.907 Y61.681 E86.50084
;WIDTH:4.54365
G1 X104.888 Y61.892 E86.58963
;WIDTH:4.5873
G1 X104.869 Y62.103 E86.67936
;WIDTH:4.63095
G1 X104.85 Y62.314 E86.77003
;WIDTH:4.6746
G1 X104.831 Y62.525 E86.86164
;WIDTH:4.72222
G1 X104.808 Y62.602 E86.89678
;WIDTH:4.76984
G1 X104.785 Y62.679 E86.93231
;WIDTH:4.81747
G1 X104.762 Y62.756 E86.96823
;WIDTH:4.86509
G1 X104.739 Y62.833 E87.00454
;WIDTH:4.91271
G1 X104.717 Y62.91 E87.04111
;WIDTH:4.96033
G1 X104.694 Y62.987 E87.0782
;WIDTH:5.00795
G1 X104.671 Y63.064 E87.11568
;WIDTH:5.05557
G1 X104.648 Y63.14 E87.1531
;WIDTH:5.10319
G1 X104.625 Y63.217 E87.19136
;WIDTH:5.15082
G1 X104.602 Y63.294 E87.23001
;WIDTH:5.19844
G1 X104.58 Y63.371 E87.26891
G1 X104.503 Y63.396 E87.30824
;WIDTH:5.15082
G1 X104.427 Y63.421 E87.34672
;WIDTH:5.1032
G1 X104.351 Y63.446 E87.38481
;WIDTH:5.05558
G1 X104.274 Y63.47 E87.42282
;WIDTH:5.00796
G1 X104.198 Y63.495 E87.46013
;WIDTH:4.96033
G1 X104.122 Y63.52 E87.49706
;WIDTH:4.91271
G1 X104.045 Y63.545 E87.53403
;WIDTH:4.86509
G1 X103.969 Y63.57 E87.57018
;WIDTH:4.81747
G1 X103.893 Y63.594 E87.6058
;WIDTH:4.76985
G1 X103.816 Y63.619 E87.64159
;WIDTH:4.72223
G1 X103.74 Y63.644 E87.67658
;WIDTH:4.67461
G1 X103.529 Y63.668 E87.76841
;WIDTH:4.63096
G1 X103.319 Y63.693 E87.85892
;WIDTH:4.5873
G1 X103.108 Y63.717 E87.94886
;WIDTH:4.54365
G1 X102.898 Y63.742 E88.03749
;WIDTH:4.5
G1 X11.476 Y64.902 E125.94846
;WIDTH:4.54365
G1 X11.265 Y64.883 E126.03725
;WIDTH:4.5873
G1 X11.054 Y64.864 E126.12698
;WIDTH:4.63095
G1 X10.843 Y64.845 E126.21765
;WIDTH:4.67461
G1 X10.632 Y64.826 E126.30926
;WIDTH:4.72223
G1 X10.556 Y64.803 E126.34398
G1 X9.429 Y60.965 F7800
;LAYER_CHANGE
;Z:4
;HEIGHT:2
G1 Z4 F7800
G1 X7.864 Y60.985
G1 X8.508 Y65.884
G1 X9.592 Y66.16
G1 X9.981 Y64.632
;WIDTH:5.10319
G1 X9.94 Y64.62 E2.02034
;WIDTH:5.15082
G1 X9.863 Y64.597 E2.05899
;WIDTH:5.19844
G1 X9.786 Y64.574 E2.09803
G1 X9.761 Y64.498 E2.1369
;WIDTH:5.15082
G1 X9.736 Y64.422 E2.17538
;WIDTH:5.1032
G1 X9.711 Y64.345 E2.21392
;WIDTH:5.05557
G1 X9.687 Y64.269 E2.25148
;WIDTH:5.00795
G1 X9.662 Y64.193 E2.28879
;WIDTH:4.96033
G1 X9.637 Y64.116 E2.32615
;WIDTH:4.91271
G1 X9.612 Y64.04 E2.36269
;WIDTH:4.86509
G1 X9.587 Y63.964 E2.39884
;WIDTH:4.81747
G1 X9.563 Y63.887 E2.43489
;WIDTH:4.76985
G1 X9.538 Y63.811 E2.47026
;WIDTH:4.72223
G1 X9.513 Y63.735 E2.50525
;WIDTH:4.67461
G1 X9.489 Y63.524 E2.59708
;WIDTH:4.63096
G1 X9.464 Y63.314 E2.68759
;WIDTH:4.58731
G1 X9.44 Y63.103 E2.77753
;WIDTH:4.54365
G1 X9.415 Y62.893 E2.86616
;WIDTH:4.5
G1 X8.762 Y11.468 E24.19116
;WIDTH:4.54365
G1 X8.782 Y11.257 E24.27999
;WIDTH:4.5873
G1 X8.801 Y11.046 E24.36972
;WIDTH:4.63096
G1 X8.82 Y10.835 E24.46039
;WIDTH:4.67461
G1 X8.839 Y10.624 E24.552
;WIDTH:4.72223
G1 X8.862 Y10.547 E24.58714
;WIDTH:4.76985
G1 X8.885 Y10.47 E24.62267
;WIDTH:4.81747
G1 X8.908 Y10.393 E24.65859
;WIDTH:4.86509
G1 X8.93 Y10.316 E24.69477
;WIDTH:4.91271
G1 X8.953 Y10.239 E24.73147
;WIDTH:4.96033
G1 X8.976 Y10.162 E24.76856
;WIDTH:5.00795
G1 X8.999 Y10.085 E24.80604
;WIDTH:5.05557
G1 X9.022 Y10.008 E24.84391
;WIDTH:5.1032
G1 X9.045 Y9.931 E24.88217
;WIDTH:5.15082
G1 X9.067 Y9.854 E24.92068
;WIDTH:5.19844
G1 X9.09 Y9.777 E24.95972
G1 X9.167 Y9.752 E24.99905
;WIDTH:5.15082
G1 X9.243 Y9.728 E25.03738
;WIDTH:5.1032
G1 X9.319 Y9.703 E25.07547
;WIDTH:5.05557
G1 X9.396 Y9.678 E25.11362
;WIDTH:5.00795
G1 X9.472 Y9.653 E25.15093
;WIDTH:4.96033
G1 X9.548 Y9.628 E25.18786
;WIDTH:4.91271
G1 X9.625 Y9.604 E25.22469
;WIDTH:4.86509
G1 X9.701 Y9.579 E25.26084
;WIDTH:4.81747
G1 X9.777 Y9.554 E25.2966
;WIDTH:4.76985
G1 X9.854 Y9.529 E25.33239
;WIDTH:4.72223
G1 X9.93 Y9.505 E25.36724
;WIDTH:4.67461
G1 X10.14 Y9.48 E25.45869
;WIDTH:4.63096
G1 X10.351 Y9.456 E25.54958
;WIDTH:4.58731
G1 X10.561 Y9.431 E25.63915
;WIDTH:4.54365
G1 X10.772 Y9.407 E25.72815
;WIDTH:4.5
G1 X102.194 Y8.246 E63.63914
;WIDTH:4.54365
G1 X102.405 Y8.265 E63.72793
;WIDTH:4.5873
G1 X102.616 Y8.285 E63.8177
;WIDTH:4.63095
G1 X102.827 Y8.304 E63.90837
;WIDTH:4.67461
G1 X103.038 Y8.323 E63.99998
;WIDTH:4.72223
G1 X103.115 Y8.346 E64.03512
;WIDTH:4.76985
G1 X103.192 Y8.369 E64.07065
;WIDTH:4.81747
G1 X103.269 Y8.391 E64.10645
;WIDTH:4.86509
G1 X103.346 Y8.414 E64.14276
;WIDTH:4.91271
G1 X103.423 Y8.437 E64.17946
;WIDTH:4.96033
G1 X103.499 Y8.46 E64.21611
;WIDTH:5.00795
G1 X103.576 Y8.483 E64.25359
;WIDTH:5.05557
G1 X103.653 Y8.506 E64.29146
;WIDTH:5.1032
G1 X103.73 Y8.528 E64.32959
;WIDTH:5.15082
G1 X103.807 Y8.551 E64.36824
;WIDTH:5.19844
G1 X103.884 Y8.574 E64.40728
G1 X103.909 Y8.65 E64.44615
;WIDTH:5.15082
G1 X103.934 Y8.727 E64.48509
;WIDTH:5.1032
G1 X103.958 Y8.803 E64.52303
;WIDTH:5.05558
G1 X103.983 Y8.879 E64.56073
;WIDTH:5.00795
G1 X104.008 Y8.956 E64.59849
;WIDTH:4.96033
G1 X104.033 Y9.032 E64.63542
;WIDTH:4.91271
G1 X104.058 Y9.108 E64.67196
;WIDTH:4.86509
G1 X104.082 Y9.185 E64.7084
;WIDTH:4.81747
G1 X104.107 Y9.261 E64.74416
;WIDTH:4.76985
G1 X104.132 Y9.338 E64.77995
;WIDTH:4.72223
G1 X104.157 Y9.414 E64.81494
;WIDTH:4.67461
G1 X104.181 Y9.624 E64.90634
;WIDTH:4.63096
G1 X104.206 Y9.835 E64.99728
;WIDTH:4.58731
G1 X104.23 Y10.045 E65.0868
;WIDTH:4.54365
G1 X104.255 Y10.256 E65.17585
;WIDTH:4.5
G1 X104.907 Y61.681 E86.50084
;WIDTH:4.54365
G1 X104.888 Y61.892 E86.58963
;WIDTH:4.5873
G1 X104.869 Y62.103 E86.67936
;WIDTH:4.63095
G1 X104.85 Y62.314 E86.77003
;WIDTH:4.6746
G1 X104.831 Y62.525 E86.86164
;WIDTH:4.72222
G1 X104.808 Y62.602 E86.89678
;WIDTH:4.76984
G1 X104.785 Y62.679 E86.93231
;WIDTH:4.81747
G1 X104.762 Y62.756 E86.96823
;WIDTH:4.86509
G1 X104.739 Y62.833 E87.00454
;WIDTH:4.91271
G1 X104.717 Y62.91 E87.04111
;WIDTH:4.96033
G1 X104.694 Y62.987 E87.0782
;WIDTH:5.00795
G1 X104.671 Y63.064 E87.11568
;WIDTH:5.05557
G1 X104.648 Y63.14 E87.1531
;WIDTH:5.10319
G1 X104.625 Y63.217 E87.19136
;WIDTH:5.15082
G1 X104.602 Y63.294 E87.23001
;WIDTH:5.19844
G1 X104.58 Y63.371 E87.26891
G1 X104.503 Y63.396 E87.30824
;WIDTH:5.15082
G1 X104.427 Y63.421 E87.34672
;WIDTH:5.1032
G1 X104.351 Y63.446 E87.38481
;WIDTH:5.05558
G1 X104.274 Y63.47 E87.42282
;WIDTH:5.00796
G1 X104.198 Y63.495 E87.46013
;WIDTH:4.96033
G1 X104.122 Y63.52 E87.49706
;WIDTH:4.91271
G1 X104.045 Y63.545 E87.53403
;WIDTH:4.86509
G1 X103.969 Y63.57 E87.57018
;WIDTH:4.81747
G1 X103.893 Y63.594 E87.6058
;WIDTH:4.76985
G1 X103.816 Y63.619 E87.64159
;WIDTH:4.72223
G1 X103.74 Y63.644 E87.67658
;WIDTH:4.67461
G1 X103.529 Y63.668 E87.76841
;WIDTH:4.63096
G1 X103.319 Y63.693 E87.85892
;WIDTH:4.5873
G1 X103.108 Y63.717 E87.94886
;WIDTH:4.54365
G1 X102.898 Y63.742 E88.03749
;WIDTH:4.5
G1 X11.476 Y64.902 E125.94846
;WIDTH:4.54365
G1 X11.265 Y64.883 E126.03725
;WIDTH:4.5873
G1 X11.054 Y64.864 E126.12698
;WIDTH:4.63095
G1 X10.843 Y64.845 E126.21765
;WIDTH:4.67461
G1 X10.632 Y64.826 E126.30926
;WIDTH:4.72223
G1 X10.556 Y64.803 E126.34398
G1 X9.429 Y60.965 F7800
;LAYER_CHANGE
;Z:6
;HEIGHT:2
G1 Z6 F7800
G1 X7.864 Y60.985
G1 X8.508 Y65.884
G1 X9.592 Y66.16
G1 X9.981 Y64.632
;WIDTH:5.10319
G1 X9.94 Y64.62 E2.02034
;WIDTH:5.15082
G1 X9.863 Y64.597 E2.05899
;WIDTH:5.19844
G1 X9.786 Y64.574 E2.09803
G1 X9.761 Y64.498 E2.1369
;WIDTH:5.15082
G1 X9.736 Y64.422 E2.17538
;WIDTH:5.1032
G1 X9.711 Y64.345 E2.21392
;WIDTH:5.05557
G1 X9.687 Y64.269 E2.25148
;WIDTH:5.00795
G1 X9.662 Y64.193 E2.28879
;WIDTH:4.96033
G1 X9.637 Y64.116 E2.32615
;WIDTH:4.91271
G1 X9.612 Y64.04 E2.36269
;WIDTH:4.86509
G1 X9.587 Y63.964 E2.39884
;WIDTH:4.81747
G1 X9.563 Y63.887 E2.43489
;WIDTH:4.76985
G1 X9.538 Y63.811 E2.47026
;WIDTH:4.72223
G1 X9.513 Y63.735 E2.50525
;WIDTH:4.67461
G1 X9.489 Y63.524 E2.59708
;WIDTH:4.63096
G1 X9.464 Y63.314 E2.68759
;WIDTH:4.58731
G1 X9.44 Y63.103 E2.77753
;WIDTH:4.54365
G1 X9.415 Y62.893 E2.86616
;WIDTH:4.5
G1 X8.762 Y11.468 E24.19116
;WIDTH:4.54365
G1 X8.782 Y11.257 E24.27999
;WIDTH:4.5873
G1 X8.801 Y11.046 E24.36972
;WIDTH:4.63096
G1 X8.82 Y10.835 E24.46039
;WIDTH:4.67461
G1 X8.839 Y10.624 E24.552
;WIDTH:4.72223
G1 X8.862 Y10.547 E24.58714
;WIDTH:4.76985
G1 X8.885 Y10.47 E24.62267
;WIDTH:4.81747
G1 X8.908 Y10.393 E24.65859
;WIDTH:4.86509
G1 X8.93 Y10.316 E24.69477
;WIDTH:4.91271
G1 X8.953 Y10.239 E24.73147
;WIDTH:4.96033
G1 X8.976 Y10.162 E24.76856
;WIDTH:5.00795
G1 X8.999 Y10.085 E24.80604
;WIDTH:5.05557
G1 X9.022 Y10.008 E24.84391
;WIDTH:5.1032
G1 X9.045 Y9.931 E24.88217
;WIDTH:5.15082
G1 X9.067 Y9.854 E24.92068
;WIDTH:5.19844
G1 X9.09 Y9.777 E24.95972
G1 X9.167 Y9.752 E24.99905
;WIDTH:5.15082
G1 X9.243 Y9.728 E25.03738
;WIDTH:5.1032
G1 X9.319 Y9.703 E25.07547
;WIDTH:5.05557
G1 X9.396 Y9.678 E25.11362
;WIDTH:5.00795
G1 X9.472 Y9.653 E25.15093
;WIDTH:4.96033
G1 X9.548 Y9.628 E25.18786
;WIDTH:4.91271
G1 X9.625 Y9.604 E25.22469
;WIDTH:4.86509
G1 X9.701 Y9.579 E25.26084
;WIDTH:4.81747
G1 X9.777 Y9.554 E25.2966
;WIDTH:4.76985
G1 X9.854 Y9.529 E25.33239
;WIDTH:4.72223
G1 X9.93 Y9.505 E25.36724
;WIDTH:4.67461
G1 X10.14 Y9.48 E25.45869
;WIDTH:4.63096
G1 X10.351 Y9.456 E25.54958
;WIDTH:4.58731
G1 X10.561 Y9.431 E25.63915
;WIDTH:4.54365
G1 X10.772 Y9.407 E25.72815
;WIDTH:4.5
G1 X102.194 Y8.246 E63.63914
;WIDTH:4.54365
G1 X102.405 Y8.265 E63.72793
;WIDTH:4.5873
G1 X102.616 Y8.285 E63.8177
;WIDTH:4.63095
G1 X102.827 Y8.304 E63.90837
;WIDTH:4.67461
G1 X103.038 Y8.323 E63.99998
;WIDTH:4.72223
G1 X103.115 Y8.346 E64.03512
;WIDTH:4.76985
G1 X103.192 Y8.369 E64.07065
;WIDTH:4.81747
G1 X103.269 Y8.391 E64.10645
;WIDTH:4.86509
G1 X103.346 Y8.414 E64.14276
;WIDTH:4.91271
G1 X103.423 Y8.437 E64.17946
;WIDTH:4.96033
G1 X103.499 Y8.46 E64.21611
;WIDTH:5.00795
G1 X103.576 Y8.483 E64.25359
;WIDTH:5.05557
G1 X103.653 Y8.506 E64.29146
;WIDTH:5.1032
G1 X103.73 Y8.528 E64.32959
;WIDTH:5.15082
G1 X103.807 Y8.551 E64.36824
;WIDTH:5.19844
G1 X103.884 Y8.574 E64.40728
G1 X103.909 Y8.65 E64.44615
;WIDTH:5.15082
G1 X103.934 Y8.727 E64.48509
;WIDTH:5.1032
G1 X103.958 Y8.803 E64.52303
;WIDTH:5.05558
G1 X103.983 Y8.879 E64.56073
;WIDTH:5.00795
G1 X104.008 Y8.956 E64.59849
;WIDTH:4.96033
G1 X104.033 Y9.032 E64.63542
;WIDTH:4.91271
G1 X104.058 Y9.108 E64.67196
;WIDTH:4.86509
G1 X104.082 Y9.185 E64.7084
;WIDTH:4.81747
G1 X104.107 Y9.261 E64.74416
;WIDTH:4.76985
G1 X104.132 Y9.338 E64.77995
;WIDTH:4.72223
G1 X104.157 Y9.414 E64.81494
;WIDTH:4.67461
G1 X104.181 Y9.624 E64.90634
;WIDTH:4.63096
G1 X104.206 Y9.835 E64.99728
;WIDTH:4.58731
G1 X104.23 Y10.045 E65.0868
;WIDTH:4.54365
G1 X104.255 Y10.256 E65.17585
;WIDTH:4.5
G1 X104.907 Y61.681 E86.50084
;WIDTH:4.54365
G1 X104.888 Y61.892 E86.58963
;WIDTH:4.5873
G1 X104.869 Y62.103 E86.67936
;WIDTH:4.63095
G1 X104.85 Y62.314 E86.77003
;WIDTH:4.6746
G1 X104.831 Y62.525 E86.86164
;WIDTH:4.72222
G1 X104.808 Y62.602 E86.89678
;WIDTH:4.76984
G1 X104.785 Y62.679 E86.93231
;WIDTH:4.81747
G1 X104.762 Y62.756 E86.96823
;WIDTH:4.86509
G1 X104.739 Y62.833 E87.00454
;WIDTH:4.91271
G1 X104.717 Y62.91 E87.04111
;WIDTH:4.96033
G1 X104.694 Y62.987 E87.0782
;WIDTH:5.00795
G1 X104.671 Y63.064 E87.11568
;WIDTH:5.05557
G1 X104.648 Y63.14 E87.1531
;WIDTH:5.10319
G1 X104.625 Y63.217 E87.19136
;WIDTH:5.15082
G1 X104.602 Y63.294 E87.23001
;WIDTH:5.19844
G1 X104.58 Y63.371 E87.26891
G1 X104.503 Y63.396 E87.30824
;WIDTH:5.15082
G1 X104.427 Y63.421 E87.34672
;WIDTH:5.1032
G1 X104.351 Y63.446 E87.38481
;WIDTH:5.05558
G1 X104.274 Y63.47 E87.42282
;WIDTH:5.00796
G1 X104.198 Y63.495 E87.46013
;WIDTH:4.96033
G1 X104.122 Y63.52 E87.49706
;WIDTH:4.91271
G1 X104.045 Y63.545 E87.53403
;WIDTH:4.86509
G1 X103.969 Y63.57 E87.57018
;WIDTH:4.81747
G1 X103.893 Y63.594 E87.6058
;WIDTH:4.76985
G1 X103.816 Y63.619 E87.64159
;WIDTH:4.72223
G1 X103.74 Y63.644 E87.67658
;WIDTH:4.67461
G1 X103.529 Y63.668 E87.76841
;WIDTH:4.63096
G1 X103.319 Y63.693 E87.85892
;WIDTH:4.5873
G1 X103.108 Y63.717 E87.94886
;WIDTH:4.54365
G1 X102.898 Y63.742 E88.03749
;WIDTH:4.5
G1 X11.476 Y64.902 E125.94846
;WIDTH:4.54365
G1 X11.265 Y64.883 E126.03725
;WIDTH:4.5873
G1 X11.054 Y64.864 E126.12698
;WIDTH:4.63095
G1 X10.843 Y64.845 E126.21765
;WIDTH:4.67461
G1 X10.632 Y64.826 E126.30926
;WIDTH:4.72223
G1 X10.556 Y64.803 E126.34398
G1 X9.429 Y60.965 F7800
M106 S237.15
;LAYER_CHANGE
;Z:8
;HEIGHT:2
G1 Z8 F7800
G1 X7.864 Y60.985
