; WAAM Optimized Toolpath - Convex Decomposition Method
; Generated using contour + zigzag continuous infill

;LAYER_CHANGE
;Z:2.000
G1 X127.250 Y157.750 Z2.000 E1
G1 X127.250 Y142.250 Z2.000 E1
G1 X172.750 Y142.250 Z2.000 E1
G1 X172.750 Y155.950 Z2.000 E1
G1 X127.250 Y157.750 Z2.000 E1
G1 X127.250 Y145.850 Z2.000 E1
G1 X172.750 Y145.850 Z2.000 E1
G1 X172.750 Y149.450 Z2.000 E1
G1 X127.250 Y149.450 Z2.000 E1
G1 X127.250 Y153.050 Z2.000 E1
G1 X172.750 Y153.050 Z2.000 E1
G1 X155.056 Y156.650 Z2.000 E1
G1 X127.250 Y156.650 Z2.000 E1
