DEF J_TEST_CLEANED()
;FOLD INI
  ;FOLD BASISTECH INI
    BAS (#INITMOV,0)
  ;ENDFOLD (BASISTECH INI)
  ;FOLD USER INI
    ;WAAM-optimized initialization with weaving capability
  ;ENDFOLD (USER INI)
;ENDFOLD (INI)

BASE_DATA[10] = {FRAME: X 270.73, Y -630.81, Z 710.35, A 179.93, B -0.22, C -1.44}
TOOL_DATA[6] = {FRAME: X -14.67, Y -33.93, Z 286.30, A 0, B 0, C 0}
$BASE = BASE_DATA[10]
$TOOL = TOOL_DATA[6]

BAS (#VEL_PTP,100)
BAS (#ACC_PTP,100)
BAS (#VEL_CP,0.0050)
BAS (#ACC_CP,0.05)

$VEL.CP = 0.0050
$ACC.CP = 0.05
$VEL.ORI1 = 90
$VEL.ORI2 = 90
$ACC.ORI1 = 500
$ACC.ORI2 = 500
$ORI_TYPE = #VAR
$ADVANCE = 1
$APO.CDIS = 0.25

PTP HOME

CONTINUE
$OUT[1] = FALSE

;===========
; BEGIN WAAM PROCESS
;===========

; Auto prusa origin applied: x=-327.250, y=-57.808
; ;LAYER_CHANGE
; ;Z:2
LIN {X 0.000, Y -57.808, Z 2.000, A 129.7, B -46.5, C 162.4} C_DIS
$OUT[1] = TRUE
WAIT SEC 0.200
LIN {X 95.500, Y -57.808, Z 2.000, A 129.7, B -46.5, C 162.4} C_DIS
$OUT[1] = FALSE
WAIT SEC 0.200
WAIT SEC 30.00
; ;LAYER_CHANGE
; ;Z:4
LIN {X 0.000, Y -57.808, Z 4.000, A 129.7, B -46.5, C 162.4} C_DIS
$OUT[1] = TRUE
WAIT SEC 0.200
LIN {X 95.500, Y -57.808, Z 4.000, A 129.7, B -46.5, C 162.4} C_DIS
$OUT[1] = FALSE
WAIT SEC 0.200
WAIT SEC 30.00
; ;LAYER_CHANGE
; ;Z:6
LIN {X 95.500, Y -57.808, Z 6.000, A 129.7, B -46.5, C 162.4} C_DIS
$OUT[1] = TRUE
WAIT SEC 0.200
LIN {X 0.000, Y -57.808, Z 6.000, A 129.7, B -46.5, C 162.4} C_DIS
$OUT[1] = FALSE
WAIT SEC 0.200
WAIT SEC 30.00
; ;LAYER_CHANGE
; ;Z:8
LIN {X 0.000, Y -57.808, Z 8.000, A 129.7, B -46.5, C 162.4} C_DIS
$OUT[1] = TRUE
WAIT SEC 0.200
LIN {X 95.500, Y -57.808, Z 8.000, A 129.7, B -46.5, C 162.4} C_DIS
$OUT[1] = FALSE
WAIT SEC 0.200
WAIT SEC 30.00
; ;LAYER_CHANGE
; ;Z:10
LIN {X 95.500, Y -57.808, Z 10.000, A 129.7, B -46.5, C 162.4} C_DIS
$OUT[1] = TRUE
WAIT SEC 0.200
LIN {X 0.000, Y -57.808, Z 10.000, A 129.7, B -46.5, C 162.4} C_DIS
$OUT[1] = FALSE
WAIT SEC 0.200
WAIT SEC 30.00

;===========
; WAAM PROCESS COMPLETE
;===========

$VEL.CP = 0.0050
LIN_REL {Z 20}
WAIT SEC 0
$OV_PRO = 10
PTP HOME

END
