; generated by PrusaSlicer 2.9.4 on 2026-04-13 at 12:40:07 UTC

; 

; external perimeters extrusion width = 4.50mm
; perimeters extrusion width = 4.50mm
; infill extrusion width = 4.50mm
; solid infill extrusion width = 4.50mm
; top infill extrusion width = 4.50mm
; first layer extrusion width = 4.50mm

M104 S200 ; set temperature
;TYPE:Custom
G28 ; home all axes
G1 Z5 F5000 ; lift nozzle
M109 S200 ; set temperature and wait for it to be reached
G21 ; set units to millimeters
G90 ; use absolute coordinates
M82 ; use absolute distances for extrusion
G92 E0
; Filament gcode
M107
;LAYER_CHANGE
;Z:3
;HEIGHT:3
G1 Z3 F7800
G1 X408.597 Y11.574
;TYPE:External perimeter
;WIDTH:4.46694
G1 X408.532 Y11.595 E2.0399
;WIDTH:4.4217
G1 X408.461 Y11.617 E2.0828
;WIDTH:4.37646
G1 X408.39 Y11.64 E2.12536
;WIDTH:4.33122
G1 X408.318 Y11.663 E2.16794
;WIDTH:4.28598
G1 X408.247 Y11.685 E2.2093
;WIDTH:4.24075
G1 X408.176 Y11.708 E2.25032
;WIDTH:4.19551
G1 X408.105 Y11.73 E2.29066
;WIDTH:4.15027
G1 X407.868 Y11.755 E2.41834
;WIDTH:4.11478
G1 X407.631 Y11.78 E2.54472
;WIDTH:4.07929
G1 X407.394 Y11.804 E2.66976
;WIDTH:4.04381
G1 X334.941 Y11.695 E40.30781
;WIDTH:4.08623
G1 X334.71 Y11.671 E40.42996
;WIDTH:4.12865
G1 X334.479 Y11.647 E40.55362
;WIDTH:4.17108
G1 X334.248 Y11.623 E40.67878
;WIDTH:4.21839
G1 X334.171 Y11.599 E40.72283
;WIDTH:4.2657
G1 X334.094 Y11.576 E40.7673
;WIDTH:4.31302
G1 X334.017 Y11.552 E40.81252
;WIDTH:4.36033
G1 X333.94 Y11.528 E40.85832
;WIDTH:4.40764
G1 X333.863 Y11.504 E40.9047
;WIDTH:4.45496
G1 X333.786 Y11.481 E40.95149
;WIDTH:4.50227
G1 X333.709 Y11.457 E40.99904
;WIDTH:4.54959
G1 X333.632 Y11.433 E41.04717
;WIDTH:4.5969
G1 X333.555 Y11.409 E41.09588
G1 X333.531 Y11.331 E41.14517
;WIDTH:4.54769
G1 X333.506 Y11.253 E41.19403
;WIDTH:4.49849
G1 X333.482 Y11.174 E41.24266
;WIDTH:4.44928
G1 X333.457 Y11.096 E41.29028
;WIDTH:4.40007
G1 X333.433 Y11.017 E41.33767
;WIDTH:4.35087
G1 X333.408 Y10.939 E41.38406
;WIDTH:4.30166
G1 X333.384 Y10.861 E41.42967
;WIDTH:4.25245
G1 X333.359 Y10.782 E41.47536
;WIDTH:4.20325
G1 X333.335 Y10.704 E41.51974
;WIDTH:4.15404
G1 X333.311 Y10.469 E41.64643
;WIDTH:4.1173
G1 X333.286 Y10.233 E41.77238
;WIDTH:4.08055
G1 X333.262 Y9.998 E41.89642
;WIDTH:4.0457
G1 X333.323 Y-22.548 E58.81294
;WIDTH:4.09225
G1 X333.347 Y-22.777 E58.93426
;WIDTH:4.1388
G1 X333.37 Y-23.006 E59.05716
;WIDTH:4.18535
G1 X333.394 Y-23.235 E59.18175
;WIDTH:4.23172
G1 X333.417 Y-23.312 E59.2258
;WIDTH:4.27809
G1 X333.44 Y-23.388 E59.26989
;WIDTH:4.32445
G1 X333.464 Y-23.464 E59.31471
;WIDTH:4.37082
G1 X333.487 Y-23.541 E59.36047
;WIDTH:4.41719
G1 X333.51 Y-23.617 E59.40625
;WIDTH:4.46355
G1 X333.533 Y-23.693 E59.45259
;WIDTH:4.50992
G1 X333.557 Y-23.77 E59.50023
;WIDTH:4.55629
G1 X333.58 Y-23.846 E59.5477
;WIDTH:4.60266
G1 X333.603 Y-23.922 E59.59573
G1 X333.674 Y-23.945 E59.64087
;WIDTH:4.55742
G1 X333.746 Y-23.968 E59.68607
;WIDTH:4.51218
G1 X333.817 Y-23.99 E59.73
;WIDTH:4.46694
G1 X333.888 Y-24.013 E59.7736
;WIDTH:4.42171
G1 X333.959 Y-24.035 E59.81651
;WIDTH:4.37647
G1 X334.03 Y-24.058 E59.85907
;WIDTH:4.33123
G1 X334.102 Y-24.08 E59.90149
;WIDTH:4.286
G1 X334.173 Y-24.103 E59.94302
;WIDTH:4.24076
G1 X334.244 Y-24.125 E59.98387
;WIDTH:4.19552
G1 X334.315 Y-24.148 E60.02437
;WIDTH:4.15029
G1 X334.552 Y-24.173 E60.15205
;WIDTH:4.11479
G1 X334.789 Y-24.197 E60.27838
;WIDTH:4.0793
G1 X335.026 Y-24.222 E60.40347
;WIDTH:4.04381
G1 X407.48 Y-24.114 E98.04204
;WIDTH:4.08515
G1 X407.711 Y-24.09 E98.16415
;WIDTH:4.1265
G1 X407.942 Y-24.066 E98.28773
;WIDTH:4.16785
G1 X408.173 Y-24.042 E98.41278
;WIDTH:4.21521
G1 X408.25 Y-24.019 E98.45663
;WIDTH:4.26258
G1 X408.327 Y-23.995 E98.50122
;WIDTH:4.30994
G1 X408.404 Y-23.971 E98.5464
;WIDTH:4.35731
G1 X408.481 Y-23.947 E98.59216
;WIDTH:4.40467
G1 X408.558 Y-23.923 E98.6385
;WIDTH:4.45203
G1 X408.635 Y-23.9 E98.68526
;WIDTH:4.4994
G1 X408.712 Y-23.876 E98.73277
;WIDTH:4.54676
G1 X408.789 Y-23.852 E98.78087
;WIDTH:4.59413
G1 X408.866 Y-23.828 E98.82955
G1 X408.89 Y-23.75 E98.87881
;WIDTH:4.54504
G1 X408.915 Y-23.672 E98.92763
;WIDTH:4.49595
G1 X408.939 Y-23.593 E98.97622
;WIDTH:4.44686
G1 X408.964 Y-23.515 E99.02381
;WIDTH:4.39776
G1 X408.988 Y-23.437 E99.07062
;WIDTH:4.34867
G1 X409.013 Y-23.359 E99.11699
;WIDTH:4.29958
G1 X409.037 Y-23.28 E99.16311
;WIDTH:4.25049
G1 X409.062 Y-23.202 E99.20825
;WIDTH:4.2014
G1 X409.086 Y-23.124 E99.25261
;WIDTH:4.15231
G1 X409.11 Y-22.889 E99.37924
;WIDTH:4.11614
G1 X409.134 Y-22.654 E99.50456
;WIDTH:4.07997
G1 X409.158 Y-22.419 E99.62858
;WIDTH:4.04571
G1 X409.097 Y10.131 E116.54719
;WIDTH:4.09226
G1 X409.073 Y10.36 E116.66851
;WIDTH:4.13881
G1 X409.05 Y10.589 E116.79141
;WIDTH:4.18537
G1 X409.026 Y10.818 E116.916
;WIDTH:4.23173
G1 X409.003 Y10.894 E116.95953
;WIDTH:4.2781
G1 X408.98 Y10.971 E117.00415
;WIDTH:4.32446
G1 X408.956 Y11.047 E117.04897
;WIDTH:4.37083
G1 X408.933 Y11.123 E117.09419
;WIDTH:4.41719
G1 X408.925 Y11.151 E117.11098
G1 X404.969 Y11.748 F7800
;LAYER_CHANGE
;Z:6
;HEIGHT:3
G1 Z6 F7800
G1 X407.691 Y11.666
;WIDTH:4.4991
G1 X407.686 Y11.668 E2.00317
;WIDTH:4.45178
G1 X407.619 Y11.691 E2.04438
;WIDTH:4.40447
G1 X407.553 Y11.713 E2.08435
;WIDTH:4.35715
G1 X407.486 Y11.736 E2.12454
;WIDTH:4.30983
G1 X407.419 Y11.758 E2.16404
;WIDTH:4.26251
G1 X407.353 Y11.781 E2.20268
;WIDTH:4.2152
G1 X407.286 Y11.803 E2.24116
;WIDTH:4.16788
G1 X407.021 Y11.83 E2.38458
;WIDTH:4.12652
G1 X406.757 Y11.857 E2.52579
;WIDTH:4.08516
G1 X406.492 Y11.884 E2.66585
;WIDTH:4.04381
G1 X405.675 Y11.87 E3.09033
G1 X402.382 Y11.827 E4.80113
G1 X401.236 Y11.816 E5.39648
G1 X394.769 Y11.731 E8.75626
G1 X383.79 Y11.63 E14.45989
G1 X377.704 Y11.55 E17.62173
G1 X372.634 Y11.504 E20.25561
;WIDTH:4.05951
G1 X369.08 Y11.457 E22.11054
G1 X367.057 Y11.438 E23.16635
;WIDTH:4.07191
G1 X365.171 Y11.413 E24.15428
G1 X364.28 Y11.405 E24.62098
;WIDTH:4.09829
G1 X359.983 Y11.35 E26.88915
;WIDTH:4.12544
G1 X355.687 Y11.295 E29.17461
G1 X351.311 Y11.224 E31.50275
;WIDTH:4.14682
G1 X347.474 Y11.175 E33.55656
G1 X346.372 Y11.157 E34.14645
;WIDTH:4.17062
G1 X342.546 Y11.109 E36.20828
G1 X341.445 Y11.091 E36.80164
;WIDTH:4.20903
G1 X335.316 Y11.013 E40.14054
;WIDTH:4.25314
G1 X335.092 Y10.989 E40.26478
;WIDTH:4.29725
G1 X334.867 Y10.965 E40.39109
;WIDTH:4.34137
G1 X334.642 Y10.94 E40.51898
;WIDTH:4.38991
G1 X334.557 Y10.915 E40.56969
;WIDTH:4.43846
G1 X334.473 Y10.89 E40.6205
;WIDTH:4.487
G1 X334.389 Y10.865 E40.67196
;WIDTH:4.53555
G1 X334.305 Y10.84 E40.72407
;WIDTH:4.5841
G1 X334.221 Y10.815 E40.77683
;WIDTH:4.63264
G1 X334.136 Y10.79 E40.83083
;WIDTH:4.68119
G1 X334.052 Y10.765 E40.88489
;WIDTH:4.72974
G1 X333.968 Y10.74 E40.9396
G1 X333.945 Y10.67 E40.9856
;WIDTH:4.68271
G1 X333.923 Y10.6 E41.03088
;WIDTH:4.63568
G1 X333.901 Y10.53 E41.07563
;WIDTH:4.58865
G1 X333.878 Y10.46 E41.12004
;WIDTH:4.54163
G1 X333.856 Y10.39 E41.16374
;WIDTH:4.4946
G1 X333.833 Y10.32 E41.20709
;WIDTH:4.44757
G1 X333.811 Y10.25 E41.24973
;WIDTH:4.40054
G1 X333.788 Y10.18 E41.29202
;WIDTH:4.35352
G1 X333.766 Y10.11 E41.33361
;WIDTH:4.30649
G1 X333.743 Y10.04 E41.37484
;WIDTH:4.25946
G1 X333.721 Y9.97 E41.41538
;WIDTH:4.21243
G1 X333.702 Y9.779 E41.52004
;WIDTH:4.17028
G1 X333.684 Y9.587 E41.62394
;WIDTH:4.12812
G1 X333.665 Y9.396 E41.72612
;WIDTH:4.08596
G1 X333.647 Y9.205 E41.82702
;WIDTH:4.04381
G1 X333.661 Y8.288 E42.30344
;WIDTH:4.09205
G1 X333.754 Y1.144 E46.0676
;WIDTH:4.1403
G1 X333.848 Y-6 E49.88443
G1 X333.863 Y-7.625 E50.75258
;WIDTH:4.17332
G1 X333.923 Y-12.081 E53.15579
;WIDTH:4.20795
G1 X333.983 Y-16.536 E55.58203
;WIDTH:4.24258
G1 X334.043 Y-20.992 E58.03239
;WIDTH:4.25533
G1 X334.055 Y-21.518 E58.32271
;WIDTH:4.27713
G1 X334.084 Y-22.697 E58.97741
;WIDTH:4.31728
G1 X334.108 Y-22.906 E59.09549
;WIDTH:4.35743
G1 X334.131 Y-23.115 E59.21479
;WIDTH:4.39758
G1 X334.155 Y-23.324 E59.33545
;WIDTH:4.44588
G1 X334.18 Y-23.414 E59.38971
;WIDTH:4.49418
G1 X334.206 Y-23.503 E59.44426
;WIDTH:4.54249
G1 X334.231 Y-23.593 E59.4999
;WIDTH:4.59079
G1 X334.257 Y-23.682 E59.55582
;WIDTH:4.63909
G1 X334.282 Y-23.771 E59.61225
;WIDTH:4.68739
G1 X334.308 Y-23.861 E59.67013
;WIDTH:4.73569
G1 X334.334 Y-23.95 E59.7281
G1 X334.4 Y-23.973 E59.7718
;WIDTH:4.68837
G1 X334.467 Y-23.995 E59.81538
;WIDTH:4.64105
G1 X334.534 Y-24.018 E59.85864
;WIDTH:4.59374
G1 X334.6 Y-24.04 E59.90063
;WIDTH:4.54642
G1 X334.667 Y-24.063 E59.94287
;WIDTH:4.4991
G1 X334.734 Y-24.086 E59.9846
;WIDTH:4.45179
G1 X334.8 Y-24.108 E60.02508
;WIDTH:4.40447
G1 X334.867 Y-24.131 E60.06578
;WIDTH:4.35715
G1 X334.934 Y-24.153 E60.10579
;WIDTH:4.30983
G1 X335 Y-24.176 E60.14494
;WIDTH:4.26252
G1 X335.067 Y-24.198 E60.18393
;WIDTH:4.2152
G1 X335.134 Y-24.221 E60.22258
;WIDTH:4.16788
G1 X335.398 Y-24.248 E60.36547
;WIDTH:4.12652
G1 X335.663 Y-24.275 E60.50721
;WIDTH:4.08516
G1 X335.928 Y-24.302 E60.64727
;WIDTH:4.04381
G1 X336.745 Y-24.287 E61.07176
G1 X340.038 Y-24.244 E62.78256
G1 X341.184 Y-24.233 E63.37791
G1 X347.673 Y-24.149 E66.74911
G1 X358.63 Y-24.048 E72.44131
G1 X364.746 Y-23.968 E75.61873
G1 X369.798 Y-23.921 E78.24327
;WIDTH:4.05935
G1 X373.359 Y-23.874 E80.10176
G1 X375.363 Y-23.856 E81.1476
;WIDTH:4.07173
G1 X377.259 Y-23.83 E82.14072
G1 X378.129 Y-23.823 E82.5964
;WIDTH:4.09861
G1 X382.431 Y-23.767 E84.86743
;WIDTH:4.1263
G1 X386.733 Y-23.712 E87.15665
G1 X391.12 Y-23.641 E89.49122
;WIDTH:4.14867
G1 X394.946 Y-23.592 E91.54023
G1 X396.047 Y-23.574 E92.1299
;WIDTH:4.17307
G1 X399.874 Y-23.525 E94.19371
G1 X400.975 Y-23.507 E94.78748
;WIDTH:4.21234
G1 X407.102 Y-23.429 E98.12839
;WIDTH:4.25643
G1 X407.327 Y-23.405 E98.25329
;WIDTH:4.30053
G1 X407.552 Y-23.381 E98.37971
;WIDTH:4.34462
G1 X407.777 Y-23.356 E98.50772
;WIDTH:4.39312
G1 X407.861 Y-23.331 E98.55793
;WIDTH:4.44163
G1 X407.945 Y-23.306 E98.60879
;WIDTH:4.49013
G1 X408.03 Y-23.281 E98.66086
;WIDTH:4.53864
G1 X408.114 Y-23.256 E98.71301
;WIDTH:4.58714
G1 X408.198 Y-23.231 E98.76581
;WIDTH:4.63564
G1 X408.282 Y-23.206 E98.81926
;WIDTH:4.68415
G1 X408.366 Y-23.181 E98.87336
;WIDTH:4.73265
G1 X408.451 Y-23.156 E98.92871
G1 X408.473 Y-23.086 E98.97455
;WIDTH:4.68554
G1 X408.496 Y-23.016 E99.02005
;WIDTH:4.63842
G1 X408.518 Y-22.946 E99.06483
;WIDTH:4.5913
G1 X408.541 Y-22.876 E99.10927
;WIDTH:4.54419
G1 X408.563 Y-22.806 E99.153
;WIDTH:4.49707
G1 X408.586 Y-22.735 E99.19694
;WIDTH:4.44995
G1 X408.608 Y-22.665 E99.23961
;WIDTH:4.40284
G1 X408.631 Y-22.595 E99.28193
;WIDTH:4.35572
G1 X408.653 Y-22.525 E99.32354
;WIDTH:4.30861
G1 X408.676 Y-22.455 E99.3648
;WIDTH:4.26149
G1 X408.698 Y-22.385 E99.40536
;WIDTH:4.21437
G1 X408.717 Y-22.194 E99.51007
;WIDTH:4.17173
G1 X408.735 Y-22.002 E99.61402
;WIDTH:4.12909
G1 X408.754 Y-21.811 E99.71623
;WIDTH:4.08645
G1 X408.772 Y-21.619 E99.81766
;WIDTH:4.04381
G1 X408.758 Y-20.705 E100.29252
;WIDTH:4.09205
G1 X408.665 Y-13.562 E104.05615
;WIDTH:4.14029
G1 X408.572 Y-6.418 E107.87297
G1 X408.557 Y-4.792 E108.74165
;WIDTH:4.17332
G1 X408.497 Y-.337 E111.14431
;WIDTH:4.20794
G1 X408.437 Y4.119 E113.57109
;WIDTH:4.24257
G1 X408.377 Y8.575 E116.02145
;WIDTH:4.25533
G1 X408.365 Y9.1 E116.31122
;WIDTH:4.27713
G1 X408.336 Y10.279 E116.96592
;WIDTH:4.31728
G1 X408.312 Y10.488 E117.084
;WIDTH:4.35743
G1 X408.289 Y10.697 E117.2033
;WIDTH:4.39758
G1 X408.265 Y10.907 E117.32453
;WIDTH:4.44588
G1 X408.24 Y10.996 E117.37823
;WIDTH:4.49418
G1 X408.214 Y11.086 E117.43334
;WIDTH:4.54248
G1 X408.189 Y11.175 E117.48841
;WIDTH:4.59078
G1 X408.163 Y11.264 E117.54433
;WIDTH:4.63908
G1 X408.137 Y11.354 E117.60152
;WIDTH:4.68738
G1 X408.137 Y11.357 E117.60337
G1 X404.161 Y11.795 F7800
;LAYER_CHANGE
;Z:9
;HEIGHT:3
G1 Z9 F7800
G1 X404.178 Y10.405
G1 X405.695 Y10.424
G1 X406.195 Y10.433
G1 X406.169 Y11.833
;WIDTH:4.50474
G1 X406.147 Y11.842 E2.01402
;WIDTH:4.45729
G1 X406.087 Y11.863 E2.05106
;WIDTH:4.40983
G1 X406.027 Y11.885 E2.08783
;WIDTH:4.36238
G1 X405.967 Y11.906 E2.12395
;WIDTH:4.31492
G1 X405.907 Y11.928 E2.1598
;WIDTH:4.26746
G1 X405.847 Y11.949 E2.195
;WIDTH:4.22001
G1 X405.695 Y11.971 E2.27892
;WIDTH:4.17596
G1 X405.543 Y11.992 E2.36173
;WIDTH:4.13191
G1 X405.391 Y12.013 E2.44351
;WIDTH:4.08786
G1 X405.238 Y12.035 E2.52485
;WIDTH:4.04381
G1 X404.956 Y12.037 E2.67135
G1 X401.818 Y11.93 E4.30243
G1 X400.252 Y11.883 E5.1163
G1 X395.88 Y11.736 E7.38876
G1 X383.113 Y11.376 E14.02362
G1 X381.884 Y11.332 E14.66247
;WIDTH:4.06238
G1 X372.204 Y11.047 E19.72072
;WIDTH:4.09639
G1 X370.539 Y10.987 E20.5996
;WIDTH:4.12014
G1 X366.782 Y10.877 E22.59597
;WIDTH:4.14203
G1 X365.729 Y10.839 E23.15915
;WIDTH:4.15195
G1 X364.079 Y10.791 E24.04393
;WIDTH:4.17654
G1 X362.893 Y10.748 E24.68451
;WIDTH:4.18571
G1 X361.381 Y10.704 E25.5031
;WIDTH:4.21787
G1 X359.821 Y10.648 E26.35553
;WIDTH:4.22564
G1 X358.374 Y10.606 E27.14775
;WIDTH:4.2412
G1 X356.483 Y10.527 E28.18803
G1 X355.075 Y10.478 E28.96239
;WIDTH:4.25386
G1 X353.155 Y10.399 E30.02231
G1 X351.946 Y10.357 E30.68957
;WIDTH:4.25344
G1 X351.449 Y10.336 E30.96392
;WIDTH:4.28693
G1 X349.837 Y10.278 E31.86178
;WIDTH:4.29383
G1 X348.633 Y10.243 E32.53351
;WIDTH:4.31806
G1 X346.649 Y10.161 E33.64825
;WIDTH:4.34518
G1 X345.32 Y10.113 E34.40033
;WIDTH:4.37229
G1 X343.991 Y10.066 E35.1579
;WIDTH:4.37496
G1 X343.618 Y10.055 E35.37063
G1 X342.558 Y10.018 E35.97528
;WIDTH:4.37803
G1 X341.829 Y9.988 E36.39156
;WIDTH:4.41689
G1 X339.938 Y9.919 E37.48242
;WIDTH:4.4551
G1 X337 Y9.824 E39.19418
;WIDTH:4.47997
G1 X335.652 Y9.772 E39.98486
;WIDTH:4.52551
G1 X335.557 Y9.747 E40.04312
;WIDTH:4.57106
G1 X335.461 Y9.721 E40.1028
;WIDTH:4.6166
G1 X335.366 Y9.695 E40.16259
;WIDTH:4.66214
G1 X335.27 Y9.669 E40.22365
;WIDTH:4.70769
G1 X335.175 Y9.643 E40.28481
;WIDTH:4.75323
G1 X335.079 Y9.618 E40.3471
;WIDTH:4.79877
G1 X334.984 Y9.592 E40.40963
;WIDTH:4.84432
G1 X334.889 Y9.566 E40.47284
;WIDTH:4.88986
G1 X334.793 Y9.54 E40.53736
;WIDTH:4.9354
G1 X334.698 Y9.514 E40.60194
G1 X334.676 Y9.448 E40.64756
;WIDTH:4.88747
G1 X334.654 Y9.381 E40.69328
;WIDTH:4.83954
G1 X334.633 Y9.315 E40.73768
;WIDTH:4.79161
G1 X334.611 Y9.248 E40.78237
;WIDTH:4.74367
G1 X334.589 Y9.182 E40.82595
;WIDTH:4.69574
G1 X334.567 Y9.115 E40.86961
;WIDTH:4.64781
G1 X334.546 Y9.049 E40.91198
;WIDTH:4.59987
G1 X334.524 Y8.982 E40.9546
;WIDTH:4.55194
G1 X334.502 Y8.915 E40.99671
;WIDTH:4.50401
G1 X334.48 Y8.849 E41.03774
;WIDTH:4.45608
G1 X334.459 Y8.782 E41.07864
;WIDTH:4.40814
G1 X334.437 Y8.716 E41.11865
;WIDTH:4.36021
G1 X334.415 Y8.649 E41.15869
;WIDTH:4.31228
G1 X334.401 Y8.478 E41.25486
;WIDTH:4.27203
G1 X334.387 Y8.306 E41.35052
;WIDTH:4.23178
G1 X334.372 Y8.134 E41.44517
;WIDTH:4.19153
G1 X334.358 Y7.963 E41.53817
;WIDTH:4.15128
G1 X334.343 Y7.791 E41.6307
;WIDTH:4.13526
G1 X334.428 Y5.657 E42.76999
;WIDTH:4.14937
G1 X334.52 Y3.113 E44.13348
;WIDTH:4.19315
G1 X334.629 Y-.222 E45.94301
;WIDTH:4.23692
G1 X334.738 Y-3.557 E47.77486
;WIDTH:4.28069
G1 X334.847 Y-6.892 E49.62903
;WIDTH:4.32447
G1 X334.956 Y-10.227 E51.50551
;WIDTH:4.36824
G1 X335.065 Y-13.561 E53.40374
;WIDTH:4.40416
G1 X335.119 Y-14.939 E54.19606
;WIDTH:4.44008
G1 X335.173 Y-16.316 E54.99537
;WIDTH:4.47599
G1 X335.227 Y-17.694 E55.80283
;WIDTH:4.52183
G1 X335.339 Y-20.292 E57.34362
;WIDTH:4.56767
G1 X335.452 Y-22.89 E58.90265
;WIDTH:4.61319
G1 X335.479 Y-23.034 E58.9915
;WIDTH:4.65871
G1 X335.507 Y-23.178 E59.08149
;WIDTH:4.70423
G1 X335.535 Y-23.322 E59.1725
;WIDTH:4.74975
G1 X335.563 Y-23.467 E59.26514
;WIDTH:4.79527
G1 X335.59 Y-23.611 E59.35807
;WIDTH:4.84079
G1 X335.618 Y-23.755 E59.45214
;WIDTH:4.8863
G1 X335.646 Y-23.899 E59.54723
;WIDTH:4.93182
G1 X335.674 Y-24.044 E59.64398
G1 X335.734 Y-24.065 E59.68563
;WIDTH:4.88437
G1 X335.794 Y-24.087 E59.72704
;WIDTH:4.83691
G1 X335.853 Y-24.108 E59.76716
;WIDTH:4.78946
G1 X335.913 Y-24.13 E59.80764
;WIDTH:4.742
G1 X335.973 Y-24.151 E59.84744
;WIDTH:4.69455
G1 X336.033 Y-24.173 E59.88699
;WIDTH:4.64709
G1 X336.093 Y-24.195 E59.92608
;WIDTH:4.59964
G1 X336.153 Y-24.216 E59.9645
;WIDTH:4.55219
G1 X336.213 Y-24.238 E60.00266
;WIDTH:4.50473
G1 X336.273 Y-24.259 E60.04016
;WIDTH:4.45728
G1 X336.333 Y-24.281 E60.0774
;WIDTH:4.40982
G1 X336.393 Y-24.302 E60.11398
;WIDTH:4.36237
G1 X336.453 Y-24.324 E60.15029
;WIDTH:4.31491
G1 X336.513 Y-24.345 E60.18595
