; generated by PrusaSlicer 2.9.4 on 2025-11-19 at 17:38:37 UTC

; 

; external perimeters extrusion width = 4.50mm
; perimeters extrusion width = 4.50mm
; infill extrusion width = 4.50mm
; solid infill extrusion width = 4.50mm
; top infill extrusion width = 4.00mm
; first layer extrusion width = 4.20mm

M104 S200 ; set temperature
;TYPE:Custom
G28 ; home all axes
G1 Z5 F5000 ; lift nozzle
M109 S200 ; set temperature and wait for it to be reached
G21 ; set units to millimeters
G90 ; use absolute coordinates
M82 ; use absolute distances for extrusion
G92 E0
; Filament gcode
M107
;LAYER_CHANGE
;Z:2
;HEIGHT:2
G1 Z2 F7800
G1 X22.569 Y2.769
;TYPE:External perimeter
;WIDTH:4.92612
G1 X22.241 Y4.728 E3.42159
G1 X22.091 Y5.369 E3.89275
G1 X21.621 Y7.025 E5.12477
G1 X21.316 Y7.897 E5.78594
G1 X20.767 Y9.246 E6.82832
G1 X20.255 Y10.318 E7.67857
G1 X19.686 Y11.366 E8.53205
G1 X19.063 Y12.382 E9.38503
G1 X18.39 Y13.361 E10.2353
G1 X17.332 Y14.713 E11.464
G1 X16.895 Y15.212 E11.93873
G1 X15.696 Y16.447 E13.17067
G1 X15.215 Y16.898 E13.64258
G1 X13.683 Y18.161 E15.06361
G1 X13.368 Y18.4 E15.3466
G1 X11.374 Y19.701 E17.05062
G1 X9.251 Y20.777 E18.75408
G1 X8.886 Y20.93 E19.03734
G1 X7.026 Y21.625 E20.45845
G1 X6.646 Y21.745 E20.74366
G1 X4.727 Y22.237 E22.16152
G1 X3.819 Y22.409 E22.82294
G1 X2.376 Y22.607 E23.86538
G1 X1.192 Y22.7 E24.71539
G1 X0 Y22.731 E25.5688
G1 X-1.192 Y22.7 E26.42221
G1 X-2.376 Y22.607 E27.27222
G1 X-3.819 Y22.409 E28.31466
G1 X-4.727 Y22.237 E28.97608
G1 X-6.646 Y21.745 E30.39394
G1 X-7.026 Y21.625 E30.67915
G1 X-8.886 Y20.93 E32.10026
G1 X-9.251 Y20.777 E32.38352
G1 X-11.374 Y19.701 E34.08698
G1 X-13.368 Y18.4 E35.791
G1 X-13.683 Y18.161 E36.07399
G1 X-15.215 Y16.898 E37.49502
G1 X-15.696 Y16.447 E37.96693
G1 X-16.895 Y15.212 E39.19887
G1 X-17.332 Y14.713 E39.6736
G1 X-18.39 Y13.361 E40.9023
G1 X-19.063 Y12.382 E41.75257
G1 X-19.686 Y11.366 E42.60555
G1 X-20.255 Y10.318 E43.45903
G1 X-20.767 Y9.246 E44.30928
G1 X-21.316 Y7.897 E45.35166
G1 X-21.621 Y7.025 E46.01283
G1 X-22.091 Y5.369 E47.24485
G1 X-22.241 Y4.728 E47.71601
G1 X-22.569 Y2.769 E49.1376
G1 X-22.619 Y2.377 E49.42043
G1 X-22.743 Y.131 E51.03035
G1 X-22.743 Y-.131 E51.21787
G1 X-22.604 Y-2.511 E52.92415
G1 X-22.241 Y-4.728 E54.532
G1 X-22.091 Y-5.369 E55.00316
G1 X-21.621 Y-7.025 E56.23518
G1 X-21.316 Y-7.897 E56.89635
G1 X-20.767 Y-9.246 E57.93873
G1 X-20.255 Y-10.318 E58.78898
G1 X-19.686 Y-11.366 E59.64246
G1 X-19.063 Y-12.382 E60.49544
G1 X-18.39 Y-13.361 E61.34571
G1 X-17.332 Y-14.713 E62.57441
G1 X-16.895 Y-15.212 E63.04914
G1 X-15.696 Y-16.447 E64.28108
G1 X-15.215 Y-16.898 E64.75299
G1 X-13.683 Y-18.161 E66.17402
G1 X-13.368 Y-18.4 E66.45701
G1 X-11.374 Y-19.701 E68.16103
G1 X-9.251 Y-20.777 E69.86449
G1 X-8.886 Y-20.93 E70.14775
G1 X-7.026 Y-21.625 E71.56886
G1 X-6.646 Y-21.745 E71.85407
G1 X-4.727 Y-22.237 E73.27193
G1 X-3.819 Y-22.409 E73.93335
G1 X-2.376 Y-22.607 E74.97579
G1 X-1.192 Y-22.7 E75.8258
G1 X0 Y-22.731 E76.67921
G1 X1.192 Y-22.7 E77.53262
G1 X2.376 Y-22.607 E78.38263
G1 X3.819 Y-22.409 E79.42507
G1 X4.727 Y-22.237 E80.08649
G1 X6.646 Y-21.745 E81.50435
G1 X7.026 Y-21.625 E81.78956
G1 X8.886 Y-20.93 E83.21067
G1 X9.251 Y-20.777 E83.49393
G1 X11.374 Y-19.701 E85.19739
G1 X13.368 Y-18.4 E86.90141
G1 X13.683 Y-18.161 E87.1844
G1 X15.215 Y-16.898 E88.60543
G1 X15.696 Y-16.447 E89.07734
G1 X16.895 Y-15.212 E90.30928
G1 X17.332 Y-14.713 E90.78401
G1 X18.39 Y-13.361 E92.01271
G1 X19.063 Y-12.382 E92.86298
G1 X19.686 Y-11.366 E93.71596
G1 X20.255 Y-10.318 E94.56944
G1 X20.767 Y-9.246 E95.41969
G1 X21.316 Y-7.897 E96.46207
G1 X21.621 Y-7.025 E97.12324
G1 X22.091 Y-5.369 E98.35526
G1 X22.241 Y-4.728 E98.82642
G1 X22.569 Y-2.769 E100.24801
G1 X22.619 Y-2.377 E100.53084
G1 X22.748 Y0 E102.23458
G1 X22.63 Y2.173 E103.7921
G1 X21.838 Y6.094 F7800
M107
;TYPE:Custom
; Filament-specific end gcode 
;END gcode for filament
M104 S0 ; turn off temperature
G28 X0  ; home X axis
M84     ; disable motors
; objects_info = {"objects":[]}
; filament used [mm] = 101.79
; filament used [cm3] = 1.28
; total filament used [g] = 0.00
; total filament cost = 0.00
; total filament used for wipe tower [g] = 0.00
; estimated printing time (normal mode) = 7s
; estimated first layer printing time (normal mode) = 7s

; prusaslicer_config = begin
; arc_fitting = disabled
; autoemit_temperature_commands = 1
; automatic_extrusion_widths = 0
; automatic_infill_combination = 0
; automatic_infill_combination_max_layer_height = 100%
; avoid_crossing_curled_overhangs = 0
; avoid_crossing_perimeters = 0
; avoid_crossing_perimeters_max_detour = 0
; bed_custom_model = 
; bed_custom_texture = 
; bed_shape = -250x-250,250x-250,250x250,-250x250
; bed_temperature = 0
; bed_temperature_extruder = 0
; before_layer_gcode = 
; between_objects_gcode = 
; binary_gcode = 0
; bottom_fill_pattern = monotonic
; bottom_solid_layers = 0
; bottom_solid_min_thickness = 0
; bridge_acceleration = 0
; bridge_angle = 0
; bridge_fan_speed = 100
; bridge_flow_ratio = 1
; bridge_speed = 60
; brim_separation = 0
; brim_type = no_brim
; brim_width = 0
; chamber_minimal_temperature = 0
; chamber_temperature = 0
; color_change_gcode = M600
; colorprint_heights = 
; complete_objects = 0
; cooling = 1
; cooling_perimeter_transition_distance = 0
; cooling_slowdown_logic = uniform_cooling
; cooling_tube_length = 5
; cooling_tube_retraction = 91.5
; custom_parameters_filament = ""
; custom_parameters_print = 
; custom_parameters_printer = 
; default_acceleration = 0
; default_filament_profile = 
; default_print_profile = 
; deretract_speed = 0
; disable_fan_first_layers = 3
; dont_support_bridges = 1
; draft_shield = disabled
; duplicate_distance = 6
; elefant_foot_compensation = 0
; enable_dynamic_fan_speeds = 0
; enable_dynamic_overhang_speeds = 0
; end_filament_gcode = "; Filament-specific end gcode \n;END gcode for filament\n"
; end_gcode = M104 S0 ; turn off temperature\nG28 X0  ; home X axis\nM84     ; disable motors\n
; ensure_vertical_shell_thickness = enabled
; external_perimeter_acceleration = 0
; external_perimeter_extrusion_width = 4.5
; external_perimeter_speed = 50%
; external_perimeters_first = 0
; extra_loading_move = -2
; extra_perimeters = 1
; extra_perimeters_on_overhangs = 0
; extruder_clearance_height = 20
; extruder_clearance_radius = 20
; extruder_colour = ""
; extruder_offset = 0x0
; extrusion_axis = E
; extrusion_multiplier = 1
; extrusion_width = 3.8
; fan_always_on = 0
; fan_below_layer_time = 60
; filament_abrasive = 0
; filament_colour = #29B2B2
; filament_cooling_final_speed = 3.4
; filament_cooling_initial_speed = 2.2
; filament_cooling_moves = 4
; filament_cost = 0
; filament_density = 0
; filament_deretract_speed = nil
; filament_diameter = 4
; filament_infill_max_crossing_speed = 0
; filament_infill_max_speed = 0
; filament_load_time = 0
; filament_loading_speed = 28
; filament_loading_speed_start = 3
; filament_max_volumetric_speed = 0
; filament_minimal_purge_on_wipe_tower = 15
; filament_multitool_ramming = 0
; filament_multitool_ramming_flow = 10
; filament_multitool_ramming_volume = 10
; filament_notes = ""
; filament_purge_multiplier = 100%
; filament_ramming_parameters = "120 100 6.6 6.8 7.2 7.6 7.9 8.2 8.7 9.4 9.9 10.0| 0.05 6.6 0.45 6.8 0.95 7.8 1.45 8.3 1.95 9.7 2.45 10 2.95 7.6 3.45 7.6 3.95 7.6 4.45 7.6 4.95 7.6"
; filament_retract_before_travel = nil
; filament_retract_before_wipe = nil
; filament_retract_layer_change = nil
; filament_retract_length = nil
; filament_retract_length_toolchange = nil
; filament_retract_lift = nil
; filament_retract_lift_above = nil
; filament_retract_lift_below = nil
; filament_retract_restart_extra = nil
; filament_retract_restart_extra_toolchange = nil
; filament_retract_speed = nil
; filament_seam_gap_distance = nil
; filament_settings_id = kuka
; filament_shrinkage_compensation_xy = 0%
; filament_shrinkage_compensation_z = 0%
; filament_soluble = 0
; filament_spool_weight = 0
; filament_stamping_distance = 0
; filament_stamping_loading_speed = 20
; filament_toolchange_delay = 0
; filament_travel_lift_before_obstacle = nil
; filament_travel_max_lift = nil
; filament_travel_ramping_lift = nil
; filament_travel_slope = nil
; filament_type = PLA
; filament_unload_time = 0
; filament_unloading_speed = 90
; filament_unloading_speed_start = 100
; filament_vendor = (Unknown)
; filament_wipe = nil
; fill_angle = 45
; fill_density = 100%
; fill_pattern = rectilinear
; first_layer_acceleration = 0
; first_layer_acceleration_over_raft = 0
; first_layer_bed_temperature = 0
; first_layer_extrusion_width = 4.2
; first_layer_height = 2
; first_layer_infill_speed = 0
; first_layer_speed = 30
; first_layer_speed_over_raft = 30
; first_layer_temperature = 200
; full_fan_speed_layer = 0
; fuzzy_skin = none
; fuzzy_skin_point_dist = 0.8
; fuzzy_skin_thickness = 0.3
; gap_fill_enabled = 1
; gap_fill_speed = 20
; gcode_comments = 0
; gcode_flavor = reprap
; gcode_label_objects = disabled
; gcode_resolution = 0.0125
; gcode_substitutions = 
; high_current_on_filament_swap = 0
; host_type = prusalink
; idle_temperature = nil
; infill_acceleration = 0
; infill_anchor = 600%
; infill_anchor_max = 50
; infill_every_layers = 1
; infill_extruder = 1
; infill_extrusion_width = 4.5
; infill_first = 0
; infill_overlap = 25%
; infill_speed = 80
; interface_shells = 0
; interlocking_beam = 0
; interlocking_beam_layer_count = 2
; interlocking_beam_width = 0.8
; interlocking_boundary_avoidance = 2
; interlocking_depth = 2
; interlocking_orientation = 22.5
; ironing = 0
; ironing_flowrate = 15%
; ironing_spacing = 0.1
; ironing_speed = 15
; ironing_type = top
; layer_gcode = 
; layer_height = 2
; machine_limits_usage = time_estimate_only
; machine_max_acceleration_e = 10000,5000
; machine_max_acceleration_extruding = 1500,1250
; machine_max_acceleration_retracting = 1500,1250
; machine_max_acceleration_travel = 1500,1250
; machine_max_acceleration_x = 9000,1000
; machine_max_acceleration_y = 9000,1000
; machine_max_acceleration_z = 500,200
; machine_max_feedrate_e = 120,120
; machine_max_feedrate_x = 500,200
; machine_max_feedrate_y = 500,200
; machine_max_feedrate_z = 12,12
; machine_max_jerk_e = 2.5,2.5
; machine_max_jerk_x = 10,10
; machine_max_jerk_y = 10,10
; machine_max_jerk_z = 0.2,0.4
; machine_max_junction_deviation = 0,0
; machine_min_extruding_rate = 0,0
; machine_min_travel_rate = 0,0
; max_fan_speed = 100
; max_layer_height = 0
; max_print_height = 500
; max_print_speed = 80
; max_volumetric_extrusion_rate_slope_negative = 0
; max_volumetric_extrusion_rate_slope_positive = 0
; max_volumetric_speed = 0
; min_bead_width = 85%
; min_fan_speed = 35
; min_feature_size = 25%
; min_layer_height = 0.07
; min_print_speed = 10
; min_skirt_length = 0
; mmu_segmented_region_interlocking_depth = 0
; mmu_segmented_region_max_width = 0
; multimaterial_purging = 140
; notes = 
; nozzle_diameter = 4
; nozzle_high_flow = 0
; only_one_perimeter_first_layer = 0
; only_retract_when_crossing_perimeters = 0
; ooze_prevention = 0
; output_filename_format = [input_filename_base].gcode
; over_bridge_speed = 0
; overhang_fan_speed_0 = 0
; overhang_fan_speed_1 = 0
; overhang_fan_speed_2 = 0
; overhang_fan_speed_3 = 0
; overhang_speed_0 = 15
; overhang_speed_1 = 15
; overhang_speed_2 = 20
; overhang_speed_3 = 25
; overhangs = 1
; parking_pos_retraction = 92
; pause_print_gcode = M601
; perimeter_acceleration = 0
; perimeter_extruder = 1
; perimeter_extrusion_width = 4.5
; perimeter_generator = classic
; perimeter_speed = 60
; perimeters = 3
; physical_printer_settings_id = 
; post_process = 
; prefer_clockwise_movements = 0
; print_settings_id = kuka
; printer_model = 
; printer_notes = 
; printer_settings_id = kuka
; printer_technology = FFF
; printer_variant = 
; printer_vendor = 
; raft_contact_distance = 0.1
; raft_expansion = 1.5
; raft_first_layer_density = 90%
; raft_first_layer_expansion = 3
; raft_layers = 0
; remaining_times = 0
; resolution = 0
; retract_before_travel = 2
; retract_before_wipe = 0%
; retract_layer_change = 0
; retract_length = 2
; retract_length_toolchange = 10
; retract_lift = 0
; retract_lift_above = 0
; retract_lift_below = 0
; retract_restart_extra = 0
; retract_restart_extra_toolchange = 0
; retract_speed = 40
; scarf_seam_entire_loop = 0
; scarf_seam_length = 20
; scarf_seam_max_segment_length = 1
; scarf_seam_on_inner_perimeters = 0
; scarf_seam_only_on_smooth = 1
; scarf_seam_placement = nowhere
; scarf_seam_start_height = 0%
; seam_gap_distance = 15%
; seam_position = aligned
; silent_mode = 1
; single_extruder_multi_material = 0
; single_extruder_multi_material_priming = 1
; skirt_distance = 6
; skirt_height = 1
; skirts = 0
; slice_closing_radius = 0.049
; slicing_mode = regular
; slowdown_below_layer_time = 5
; small_perimeter_speed = 15
; solid_infill_acceleration = 0
; solid_infill_below_area = 70
; solid_infill_every_layers = 0
; solid_infill_extruder = 1
; solid_infill_extrusion_width = 4.5
; solid_infill_speed = 20
; spiral_vase = 0
; staggered_inner_seams = 0
; standby_temperature_delta = -5
; start_filament_gcode = "; Filament gcode\n"
; start_gcode = G28 ; home all axes\nG1 Z5 F5000 ; lift nozzle\n
; support_material = 0
; support_material_angle = 0
; support_material_auto = 0
; support_material_bottom_contact_distance = 0
; support_material_bottom_interface_layers = -1
; support_material_buildplate_only = 0
; support_material_closing_radius = 2
; support_material_contact_distance = 0.2
; support_material_enforce_layers = 0
; support_material_extruder = 1
; support_material_extrusion_width = 3.5
; support_material_interface_contact_loops = 0
; support_material_interface_extruder = 1
; support_material_interface_layers = 3
; support_material_interface_pattern = rectilinear
; support_material_interface_spacing = 0
; support_material_interface_speed = 100%
; support_material_pattern = rectilinear
; support_material_spacing = 2.5
; support_material_speed = 60
; support_material_style = grid
; support_material_synchronize_layers = 0
; support_material_threshold = 0
; support_material_with_sheath = 1
; support_material_xy_spacing = 50%
; support_tree_angle = 40
; support_tree_angle_slow = 25
; support_tree_branch_diameter = 2
; support_tree_branch_diameter_angle = 5
; support_tree_branch_diameter_double_wall = 3
; support_tree_branch_distance = 1
; support_tree_tip_diameter = 0.8
; support_tree_top_rate = 15%
; temperature = 200
; template_custom_gcode = 
; thick_bridges = 1
; thin_walls = 1
; thumbnails = 
; thumbnails_format = PNG
; toolchange_gcode = 
; top_fill_pattern = monotonic
; top_infill_extrusion_width = 4
; top_one_perimeter_type = none
; top_solid_infill_acceleration = 0
; top_solid_infill_speed = 15
; top_solid_layers = 0
; top_solid_min_thickness = 0
; travel_acceleration = 0
; travel_lift_before_obstacle = 0
; travel_max_lift = 0
; travel_ramping_lift = 0
; travel_short_distance_acceleration = 0
; travel_slope = 0
; travel_speed = 130
; travel_speed_z = 0
; use_firmware_retraction = 0
; use_relative_e_distances = 0
; use_volumetric_e = 0
; variable_layer_height = 1
; wall_distribution_count = 1
; wall_transition_angle = 10
; wall_transition_filter_deviation = 25%
; wall_transition_length = 100%
; wipe = 0
; wipe_into_infill = 0
; wipe_into_objects = 0
; wipe_tower = 0
; wipe_tower_acceleration = 0
; wipe_tower_bridging = 10
; wipe_tower_brim_width = 2
; wipe_tower_cone_angle = 0
; wipe_tower_extra_flow = 100%
; wipe_tower_extra_spacing = 100%
; wipe_tower_extruder = 0
; wipe_tower_no_sparse_layers = 0
; wipe_tower_width = 60
; wiping_volumes_matrix = 0
; wiping_volumes_use_custom_matrix = 0
; xy_size_compensation = 0
; z_offset = 0
; prusaslicer_config = end
