DEF PROPELLER_CLEANED()
;FOLD INI
  ;FOLD BASISTECH INI
    BAS (#INITMOV,0)
  ;ENDFOLD (BASISTECH INI)
  ;FOLD USER INI
    ;WAAM-optimized initialization with weaving capability
  ;ENDFOLD (USER INI)
;ENDFOLD (INI)

BASE_DATA[10] = {FRAME: X 270.73, Y -630.81, Z 710.35, A 179.93, B -0.22, C -1.44}
TOOL_DATA[6] = {FRAME: X -14.67, Y -33.93, Z 286.30, A 0, B 0, C 0}
$BASE = BASE_DATA[10]
$TOOL = TOOL_DATA[6]

BAS (#VEL_PTP,100)
BAS (#ACC_PTP,100)
BAS (#VEL_CP,0.0099)
BAS (#ACC_CP,0.05)

$VEL.CP = 0.0099
$ACC.CP = 0.05
$VEL.ORI1 = 90
$VEL.ORI2 = 90
$ACC.ORI1 = 500
$ACC.ORI2 = 500
$ORI_TYPE = #VAR
$ADVANCE = 3
$APO.CDIS = 0.25
$OV_PRO = 100

; Taught position mode - skipping HOME move
; Robot should already be at desired starting position
$OUT[1] = FALSE

;===========
; BEGIN WAAM PROCESS
;===========

; TAUGHT START POSITION MODE ENABLED
; Robot will read current position at startup as substrate origin
; X, Y and Z coordinates are offset
; Jog robot to desired starting point before running this program

; Read current robot position as taught starting point
TAUGHT_START = $POS_ACT

; First motion must be PTP to satisfy KUKA controller requirement
; Moving to taught position (already there, but satisfies KSS01443)
PTP TAUGHT_START

; SAFETY DELAY - 7.5 seconds before starting weld process
; This allows operator to verify position and move to safety
WAIT SEC 7.5

; First weld point offset from taught position: X=0.000, Y=0.000 (Z is absolute)

; Welding strategy: ALTERNATING (A->B, B->A, A->B...)
; Travel Z-lift: 10.0mm (prevents scratching welded beads)
; Travel stabilization delay: 5.0s (wait after travel before Z lowers)
; ;LAYER_CHANGE
; Reset TEMP_VAR at the start of this layer
TEMP_VAR = FALSE
; ;Z:2.5
; Reset TEMP_VAR at the start of this layer
TEMP_VAR = FALSE
OFFSET_POS = {X 0.000, Y 0.000, Z 2.500, A 0, B 0, C 0}
TARGET_POS = TAUGHT_START
TARGET_POS.X = TAUGHT_START.X + OFFSET_POS.X
TARGET_POS.Y = TAUGHT_START.Y + OFFSET_POS.Y
TARGET_POS.Z = TAUGHT_START.Z + OFFSET_POS.Z
TARGET_POS.A = TAUGHT_START.A
TARGET_POS.B = TAUGHT_START.B
TARGET_POS.C = TAUGHT_START.C
LIN TARGET_POS C_DIS
$OUT[1] = TRUE
WAIT SEC 0.200
OFFSET_POS = {X 0.401, Y -0.018, Z 2.500, A 0, B 0, C 0}
TARGET_POS = TAUGHT_START
TARGET_POS.X = TAUGHT_START.X + OFFSET_POS.X
TARGET_POS.Y = TAUGHT_START.Y + OFFSET_POS.Y
TARGET_POS.Z = TAUGHT_START.Z + OFFSET_POS.Z
TARGET_POS.A = TAUGHT_START.A
TARGET_POS.B = TAUGHT_START.B
TARGET_POS.C = TAUGHT_START.C
LIN TARGET_POS C_DIS
CONTINUE
OFFSET_POS = {X 0.801, Y -0.037, Z 2.500, A 0, B 0, C 0}
TARGET_POS = TAUGHT_START
TARGET_POS.X = TAUGHT_START.X + OFFSET_POS.X
TARGET_POS.Y = TAUGHT_START.Y + OFFSET_POS.Y
TARGET_POS.Z = TAUGHT_START.Z + OFFSET_POS.Z
TARGET_POS.A = TAUGHT_START.A
TARGET_POS.B = TAUGHT_START.B
TARGET_POS.C = TAUGHT_START.C
LIN TARGET_POS C_DIS
CONTINUE
OFFSET_POS = {X 1.202, Y -0.056, Z 2.500, A 0, B 0, C 0}
TARGET_POS = TAUGHT_START
TARGET_POS.X = TAUGHT_START.X + OFFSET_POS.X
TARGET_POS.Y = TAUGHT_START.Y + OFFSET_POS.Y
TARGET_POS.Z = TAUGHT_START.Z + OFFSET_POS.Z
TARGET_POS.A = TAUGHT_START.A
TARGET_POS.B = TAUGHT_START.B
TARGET_POS.C = TAUGHT_START.C
LIN TARGET_POS C_DIS
CONTINUE
OFFSET_POS = {X 1.602, Y -0.075, Z 2.500, A 0, B 0, C 0}
TARGET_POS = TAUGHT_START
TARGET_POS.X = TAUGHT_START.X + OFFSET_POS.X
TARGET_POS.Y = TAUGHT_START.Y + OFFSET_POS.Y
TARGET_POS.Z = TAUGHT_START.Z + OFFSET_POS.Z
TARGET_POS.A = TAUGHT_START.A
TARGET_POS.B = TAUGHT_START.B
TARGET_POS.C = TAUGHT_START.C
LIN TARGET_POS C_DIS
CONTINUE
OFFSET_POS = {X 2.003, Y -0.094, Z 2.500, A 0, B 0, C 0}
TARGET_POS = TAUGHT_START
TARGET_POS.X = TAUGHT_START.X + OFFSET_POS.X
TARGET_POS.Y = TAUGHT_START.Y + OFFSET_POS.Y
TARGET_POS.Z = TAUGHT_START.Z + OFFSET_POS.Z
TARGET_POS.A = TAUGHT_START.A
TARGET_POS.B = TAUGHT_START.B
TARGET_POS.C = TAUGHT_START.C
LIN TARGET_POS C_DIS
CONTINUE
OFFSET_POS = {X 2.403, Y -0.113, Z 2.500, A 0, B 0, C 0}
TARGET_POS = TAUGHT_START
TARGET_POS.X = TAUGHT_START.X + OFFSET_POS.X
TARGET_POS.Y = TAUGHT_START.Y + OFFSET_POS.Y
TARGET_POS.Z = TAUGHT_START.Z + OFFSET_POS.Z
TARGET_POS.A = TAUGHT_START.A
TARGET_POS.B = TAUGHT_START.B
TARGET_POS.C = TAUGHT_START.C
LIN TARGET_POS C_DIS
CONTINUE
OFFSET_POS = {X 2.804, Y -0.132, Z 2.500, A 0, B 0, C 0}
TARGET_POS = TAUGHT_START
TARGET_POS.X = TAUGHT_START.X + OFFSET_POS.X
TARGET_POS.Y = TAUGHT_START.Y + OFFSET_POS.Y
TARGET_POS.Z = TAUGHT_START.Z + OFFSET_POS.Z
TARGET_POS.A = TAUGHT_START.A
TARGET_POS.B = TAUGHT_START.B
TARGET_POS.C = TAUGHT_START.C
LIN TARGET_POS C_DIS
CONTINUE
OFFSET_POS = {X 3.204, Y -0.151, Z 2.500, A 0, B 0, C 0}
TARGET_POS = TAUGHT_START
TARGET_POS.X = TAUGHT_START.X + OFFSET_POS.X
TARGET_POS.Y = TAUGHT_START.Y + OFFSET_POS.Y
TARGET_POS.Z = TAUGHT_START.Z + OFFSET_POS.Z
TARGET_POS.A = TAUGHT_START.A
TARGET_POS.B = TAUGHT_START.B
TARGET_POS.C = TAUGHT_START.C
LIN TARGET_POS C_DIS
CONTINUE
OFFSET_POS = {X 3.605, Y -0.170, Z 2.500, A 0, B 0, C 0}
TARGET_POS = TAUGHT_START
TARGET_POS.X = TAUGHT_START.X + OFFSET_POS.X
TARGET_POS.Y = TAUGHT_START.Y + OFFSET_POS.Y
TARGET_POS.Z = TAUGHT_START.Z + OFFSET_POS.Z
TARGET_POS.A = TAUGHT_START.A
TARGET_POS.B = TAUGHT_START.B
TARGET_POS.C = TAUGHT_START.C
LIN TARGET_POS C_DIS
CONTINUE
OFFSET_POS = {X 4.005, Y -0.189, Z 2.500, A 0, B 0, C 0}
TARGET_POS = TAUGHT_START
TARGET_POS.X = TAUGHT_START.X + OFFSET_POS.X
TARGET_POS.Y = TAUGHT_START.Y + OFFSET_POS.Y
TARGET_POS.Z = TAUGHT_START.Z + OFFSET_POS.Z
TARGET_POS.A = TAUGHT_START.A
TARGET_POS.B = TAUGHT_START.B
TARGET_POS.C = TAUGHT_START.C
LIN TARGET_POS C_DIS
CONTINUE
OFFSET_POS = {X 4.406, Y -0.208, Z 2.500, A 0, B 0, C 0}
TARGET_POS = TAUGHT_START
TARGET_POS.X = TAUGHT_START.X + OFFSET_POS.X
TARGET_POS.Y = TAUGHT_START.Y + OFFSET_POS.Y
TARGET_POS.Z = TAUGHT_START.Z + OFFSET_POS.Z
TARGET_POS.A = TAUGHT_START.A
TARGET_POS.B = TAUGHT_START.B
TARGET_POS.C = TAUGHT_START.C
LIN TARGET_POS C_DIS
CONTINUE
OFFSET_POS = {X 4.806, Y -0.227, Z 2.500, A 0, B 0, C 0}
TARGET_POS = TAUGHT_START
TARGET_POS.X = TAUGHT_START.X + OFFSET_POS.X
TARGET_POS.Y = TAUGHT_START.Y + OFFSET_POS.Y
TARGET_POS.Z = TAUGHT_START.Z + OFFSET_POS.Z
TARGET_POS.A = TAUGHT_START.A
TARGET_POS.B = TAUGHT_START.B
TARGET_POS.C = TAUGHT_START.C
LIN TARGET_POS C_DIS
CONTINUE
OFFSET_POS = {X 5.207, Y -0.245, Z 2.500, A 0, B 0, C 0}
TARGET_POS = TAUGHT_START
TARGET_POS.X = TAUGHT_START.X + OFFSET_POS.X
TARGET_POS.Y = TAUGHT_START.Y + OFFSET_POS.Y
TARGET_POS.Z = TAUGHT_START.Z + OFFSET_POS.Z
TARGET_POS.A = TAUGHT_START.A
TARGET_POS.B = TAUGHT_START.B
TARGET_POS.C = TAUGHT_START.C
LIN TARGET_POS C_DIS
CONTINUE
OFFSET_POS = {X 5.607, Y -0.264, Z 2.500, A 0, B 0, C 0}
TARGET_POS = TAUGHT_START
TARGET_POS.X = TAUGHT_START.X + OFFSET_POS.X
TARGET_POS.Y = TAUGHT_START.Y + OFFSET_POS.Y
TARGET_POS.Z = TAUGHT_START.Z + OFFSET_POS.Z
TARGET_POS.A = TAUGHT_START.A
TARGET_POS.B = TAUGHT_START.B
TARGET_POS.C = TAUGHT_START.C
LIN TARGET_POS C_DIS
CONTINUE
OFFSET_POS = {X 6.008, Y -0.283, Z 2.500, A 0, B 0, C 0}
TARGET_POS = TAUGHT_START
TARGET_POS.X = TAUGHT_START.X + OFFSET_POS.X
TARGET_POS.Y = TAUGHT_START.Y + OFFSET_POS.Y
TARGET_POS.Z = TAUGHT_START.Z + OFFSET_POS.Z
TARGET_POS.A = TAUGHT_START.A
TARGET_POS.B = TAUGHT_START.B
TARGET_POS.C = TAUGHT_START.C
LIN TARGET_POS C_DIS
CONTINUE
OFFSET_POS = {X 6.408, Y -0.302, Z 2.500, A 0, B 0, C 0}
TARGET_POS = TAUGHT_START
TARGET_POS.X = TAUGHT_START.X + OFFSET_POS.X
TARGET_POS.Y = TAUGHT_START.Y + OFFSET_POS.Y
TARGET_POS.Z = TAUGHT_START.Z + OFFSET_POS.Z
TARGET_POS.A = TAUGHT_START.A
TARGET_POS.B = TAUGHT_START.B
TARGET_POS.C = TAUGHT_START.C
LIN TARGET_POS C_DIS
CONTINUE
OFFSET_POS = {X 6.809, Y -0.321, Z 2.500, A 0, B 0, C 0}
TARGET_POS = TAUGHT_START
TARGET_POS.X = TAUGHT_START.X + OFFSET_POS.X
TARGET_POS.Y = TAUGHT_START.Y + OFFSET_POS.Y
TARGET_POS.Z = TAUGHT_START.Z + OFFSET_POS.Z
TARGET_POS.A = TAUGHT_START.A
TARGET_POS.B = TAUGHT_START.B
TARGET_POS.C = TAUGHT_START.C
LIN TARGET_POS C_DIS
CONTINUE
OFFSET_POS = {X 7.209, Y -0.340, Z 2.500, A 0, B 0, C 0}
TARGET_POS = TAUGHT_START
TARGET_POS.X = TAUGHT_START.X + OFFSET_POS.X
TARGET_POS.Y = TAUGHT_START.Y + OFFSET_POS.Y
TARGET_POS.Z = TAUGHT_START.Z + OFFSET_POS.Z
TARGET_POS.A = TAUGHT_START.A
TARGET_POS.B = TAUGHT_START.B
TARGET_POS.C = TAUGHT_START.C
LIN TARGET_POS C_DIS
CONTINUE
OFFSET_POS = {X 7.610, Y -0.359, Z 2.500, A 0, B 0, C 0}
TARGET_POS = TAUGHT_START
TARGET_POS.X = TAUGHT_START.X + OFFSET_POS.X
TARGET_POS.Y = TAUGHT_START.Y + OFFSET_POS.Y
TARGET_POS.Z = TAUGHT_START.Z + OFFSET_POS.Z
TARGET_POS.A = TAUGHT_START.A
TARGET_POS.B = TAUGHT_START.B
TARGET_POS.C = TAUGHT_START.C
LIN TARGET_POS C_DIS
CONTINUE
OFFSET_POS = {X 8.010, Y -0.378, Z 2.500, A 0, B 0, C 0}
TARGET_POS = TAUGHT_START
TARGET_POS.X = TAUGHT_START.X + OFFSET_POS.X
TARGET_POS.Y = TAUGHT_START.Y + OFFSET_POS.Y
TARGET_POS.Z = TAUGHT_START.Z + OFFSET_POS.Z
TARGET_POS.A = TAUGHT_START.A
TARGET_POS.B = TAUGHT_START.B
TARGET_POS.C = TAUGHT_START.C
LIN TARGET_POS C_DIS
CONTINUE
OFFSET_POS = {X 8.411, Y -0.397, Z 2.500, A 0, B 0, C 0}
TARGET_POS = TAUGHT_START
TARGET_POS.X = TAUGHT_START.X + OFFSET_POS.X
TARGET_POS.Y = TAUGHT_START.Y + OFFSET_POS.Y
TARGET_POS.Z = TAUGHT_START.Z + OFFSET_POS.Z
TARGET_POS.A = TAUGHT_START.A
TARGET_POS.B = TAUGHT_START.B
TARGET_POS.C = TAUGHT_START.C
LIN TARGET_POS C_DIS
CONTINUE
OFFSET_POS = {X 8.811, Y -0.416, Z 2.500, A 0, B 0, C 0}
TARGET_POS = TAUGHT_START
TARGET_POS.X = TAUGHT_START.X + OFFSET_POS.X
TARGET_POS.Y = TAUGHT_START.Y + OFFSET_POS.Y
TARGET_POS.Z = TAUGHT_START.Z + OFFSET_POS.Z
TARGET_POS.A = TAUGHT_START.A
TARGET_POS.B = TAUGHT_START.B
TARGET_POS.C = TAUGHT_START.C
LIN TARGET_POS C_DIS
CONTINUE
OFFSET_POS = {X 9.212, Y -0.435, Z 2.500, A 0, B 0, C 0}
TARGET_POS = TAUGHT_START
TARGET_POS.X = TAUGHT_START.X + OFFSET_POS.X
TARGET_POS.Y = TAUGHT_START.Y + OFFSET_POS.Y
TARGET_POS.Z = TAUGHT_START.Z + OFFSET_POS.Z
TARGET_POS.A = TAUGHT_START.A
TARGET_POS.B = TAUGHT_START.B
TARGET_POS.C = TAUGHT_START.C
LIN TARGET_POS C_DIS
CONTINUE
OFFSET_POS = {X 9.612, Y -0.454, Z 2.500, A 0, B 0, C 0}
TARGET_POS = TAUGHT_START
TARGET_POS.X = TAUGHT_START.X + OFFSET_POS.X
TARGET_POS.Y = TAUGHT_START.Y + OFFSET_POS.Y
TARGET_POS.Z = TAUGHT_START.Z + OFFSET_POS.Z
TARGET_POS.A = TAUGHT_START.A
TARGET_POS.B = TAUGHT_START.B
TARGET_POS.C = TAUGHT_START.C
LIN TARGET_POS C_DIS
CONTINUE
OFFSET_POS = {X 10.013, Y -0.473, Z 2.500, A 0, B 0, C 0}
TARGET_POS = TAUGHT_START
TARGET_POS.X = TAUGHT_START.X + OFFSET_POS.X
TARGET_POS.Y = TAUGHT_START.Y + OFFSET_POS.Y
TARGET_POS.Z = TAUGHT_START.Z + OFFSET_POS.Z
TARGET_POS.A = TAUGHT_START.A
TARGET_POS.B = TAUGHT_START.B
TARGET_POS.C = TAUGHT_START.C
LIN TARGET_POS C_DIS
CONTINUE
OFFSET_POS = {X 10.413, Y -0.491, Z 2.500, A 0, B 0, C 0}
TARGET_POS = TAUGHT_START
TARGET_POS.X = TAUGHT_START.X + OFFSET_POS.X
TARGET_POS.Y = TAUGHT_START.Y + OFFSET_POS.Y
TARGET_POS.Z = TAUGHT_START.Z + OFFSET_POS.Z
TARGET_POS.A = TAUGHT_START.A
TARGET_POS.B = TAUGHT_START.B
TARGET_POS.C = TAUGHT_START.C
LIN TARGET_POS C_DIS
CONTINUE
OFFSET_POS = {X 10.814, Y -0.510, Z 2.500, A 0, B 0, C 0}
TARGET_POS = TAUGHT_START
TARGET_POS.X = TAUGHT_START.X + OFFSET_POS.X
TARGET_POS.Y = TAUGHT_START.Y + OFFSET_POS.Y
TARGET_POS.Z = TAUGHT_START.Z + OFFSET_POS.Z
TARGET_POS.A = TAUGHT_START.A
TARGET_POS.B = TAUGHT_START.B
TARGET_POS.C = TAUGHT_START.C
LIN TARGET_POS C_DIS
CONTINUE
OFFSET_POS = {X 11.214, Y -0.529, Z 2.500, A 0, B 0, C 0}
TARGET_POS = TAUGHT_START
TARGET_POS.X = TAUGHT_START.X + OFFSET_POS.X
TARGET_POS.Y = TAUGHT_START.Y + OFFSET_POS.Y
TARGET_POS.Z = TAUGHT_START.Z + OFFSET_POS.Z
TARGET_POS.A = TAUGHT_START.A
TARGET_POS.B = TAUGHT_START.B
TARGET_POS.C = TAUGHT_START.C
LIN TARGET_POS C_DIS
CONTINUE
OFFSET_POS = {X 11.614, Y -0.548, Z 2.500, A 0, B 0, C 0}
TARGET_POS = TAUGHT_START
TARGET_POS.X = TAUGHT_START.X + OFFSET_POS.X
TARGET_POS.Y = TAUGHT_START.Y + OFFSET_POS.Y
TARGET_POS.Z = TAUGHT_START.Z + OFFSET_POS.Z
TARGET_POS.A = TAUGHT_START.A
TARGET_POS.B = TAUGHT_START.B
TARGET_POS.C = TAUGHT_START.C
LIN TARGET_POS C_DIS
CONTINUE
OFFSET_POS = {X 12.015, Y -0.567, Z 2.500, A 0, B 0, C 0}
TARGET_POS = TAUGHT_START
TARGET_POS.X = TAUGHT_START.X + OFFSET_POS.X
TARGET_POS.Y = TAUGHT_START.Y + OFFSET_POS.Y
TARGET_POS.Z = TAUGHT_START.Z + OFFSET_POS.Z
TARGET_POS.A = TAUGHT_START.A
TARGET_POS.B = TAUGHT_START.B
TARGET_POS.C = TAUGHT_START.C
LIN TARGET_POS C_DIS
CONTINUE
OFFSET_POS = {X 12.415, Y -0.586, Z 2.500, A 0, B 0, C 0}
TARGET_POS = TAUGHT_START
TARGET_POS.X = TAUGHT_START.X + OFFSET_POS.X
TARGET_POS.Y = TAUGHT_START.Y + OFFSET_POS.Y
TARGET_POS.Z = TAUGHT_START.Z + OFFSET_POS.Z
TARGET_POS.A = TAUGHT_START.A
TARGET_POS.B = TAUGHT_START.B
TARGET_POS.C = TAUGHT_START.C
LIN TARGET_POS C_DIS
CONTINUE
OFFSET_POS = {X 12.816, Y -0.605, Z 2.500, A 0, B 0, C 0}
TARGET_POS = TAUGHT_START
TARGET_POS.X = TAUGHT_START.X + OFFSET_POS.X
TARGET_POS.Y = TAUGHT_START.Y + OFFSET_POS.Y
TARGET_POS.Z = TAUGHT_START.Z + OFFSET_POS.Z
TARGET_POS.A = TAUGHT_START.A
TARGET_POS.B = TAUGHT_START.B
TARGET_POS.C = TAUGHT_START.C
LIN TARGET_POS C_DIS
CONTINUE
OFFSET_POS = {X 13.216, Y -0.624, Z 2.500, A 0, B 0, C 0}
TARGET_POS = TAUGHT_START
TARGET_POS.X = TAUGHT_START.X + OFFSET_POS.X
TARGET_POS.Y = TAUGHT_START.Y + OFFSET_POS.Y
TARGET_POS.Z = TAUGHT_START.Z + OFFSET_POS.Z
TARGET_POS.A = TAUGHT_START.A
TARGET_POS.B = TAUGHT_START.B
TARGET_POS.C = TAUGHT_START.C
LIN TARGET_POS C_DIS
CONTINUE
OFFSET_POS = {X 13.617, Y -0.643, Z 2.500, A 0, B 0, C 0}
TARGET_POS = TAUGHT_START
TARGET_POS.X = TAUGHT_START.X + OFFSET_POS.X
TARGET_POS.Y = TAUGHT_START.Y + OFFSET_POS.Y
TARGET_POS.Z = TAUGHT_START.Z + OFFSET_POS.Z
TARGET_POS.A = TAUGHT_START.A
TARGET_POS.B = TAUGHT_START.B
TARGET_POS.C = TAUGHT_START.C
LIN TARGET_POS C_DIS
CONTINUE
OFFSET_POS = {X 14.017, Y -0.662, Z 2.500, A 0, B 0, C 0}
TARGET_POS = TAUGHT_START
TARGET_POS.X = TAUGHT_START.X + OFFSET_POS.X
TARGET_POS.Y = TAUGHT_START.Y + OFFSET_POS.Y
TARGET_POS.Z = TAUGHT_START.Z + OFFSET_POS.Z
TARGET_POS.A = TAUGHT_START.A
TARGET_POS.B = TAUGHT_START.B
TARGET_POS.C = TAUGHT_START.C
LIN TARGET_POS C_DIS
CONTINUE
OFFSET_POS = {X 14.418, Y -0.681, Z 2.500, A 0, B 0, C 0}
TARGET_POS = TAUGHT_START
TARGET_POS.X = TAUGHT_START.X + OFFSET_POS.X
TARGET_POS.Y = TAUGHT_START.Y + OFFSET_POS.Y
TARGET_POS.Z = TAUGHT_START.Z + OFFSET_POS.Z
TARGET_POS.A = TAUGHT_START.A
TARGET_POS.B = TAUGHT_START.B
TARGET_POS.C = TAUGHT_START.C
LIN TARGET_POS C_DIS
CONTINUE
OFFSET_POS = {X 14.818, Y -0.700, Z 2.500, A 0, B 0, C 0}
TARGET_POS = TAUGHT_START
TARGET_POS.X = TAUGHT_START.X + OFFSET_POS.X
TARGET_POS.Y = TAUGHT_START.Y + OFFSET_POS.Y
TARGET_POS.Z = TAUGHT_START.Z + OFFSET_POS.Z
TARGET_POS.A = TAUGHT_START.A
TARGET_POS.B = TAUGHT_START.B
TARGET_POS.C = TAUGHT_START.C
LIN TARGET_POS C_DIS
CONTINUE
OFFSET_POS = {X 15.219, Y -0.718, Z 2.500, A 0, B 0, C 0}
TARGET_POS = TAUGHT_START
TARGET_POS.X = TAUGHT_START.X + OFFSET_POS.X
TARGET_POS.Y = TAUGHT_START.Y + OFFSET_POS.Y
TARGET_POS.Z = TAUGHT_START.Z + OFFSET_POS.Z
TARGET_POS.A = TAUGHT_START.A
TARGET_POS.B = TAUGHT_START.B
TARGET_POS.C = TAUGHT_START.C
LIN TARGET_POS C_DIS
CONTINUE
OFFSET_POS = {X 15.619, Y -0.737, Z 2.500, A 0, B 0, C 0}
TARGET_POS = TAUGHT_START
TARGET_POS.X = TAUGHT_START.X + OFFSET_POS.X
TARGET_POS.Y = TAUGHT_START.Y + OFFSET_POS.Y
TARGET_POS.Z = TAUGHT_START.Z + OFFSET_POS.Z
TARGET_POS.A = TAUGHT_START.A
TARGET_POS.B = TAUGHT_START.B
TARGET_POS.C = TAUGHT_START.C
LIN TARGET_POS C_DIS
CONTINUE
OFFSET_POS = {X 16.020, Y -0.756, Z 2.500, A 0, B 0, C 0}
TARGET_POS = TAUGHT_START
TARGET_POS.X = TAUGHT_START.X + OFFSET_POS.X
TARGET_POS.Y = TAUGHT_START.Y + OFFSET_POS.Y
TARGET_POS.Z = TAUGHT_START.Z + OFFSET_POS.Z
TARGET_POS.A = TAUGHT_START.A
TARGET_POS.B = TAUGHT_START.B
TARGET_POS.C = TAUGHT_START.C
LIN TARGET_POS C_DIS
CONTINUE
OFFSET_POS = {X 16.420, Y -0.775, Z 2.500, A 0, B 0, C 0}
TARGET_POS = TAUGHT_START
TARGET_POS.X = TAUGHT_START.X + OFFSET_POS.X
TARGET_POS.Y = TAUGHT_START.Y + OFFSET_POS.Y
TARGET_POS.Z = TAUGHT_START.Z + OFFSET_POS.Z
TARGET_POS.A = TAUGHT_START.A
TARGET_POS.B = TAUGHT_START.B
TARGET_POS.C = TAUGHT_START.C
LIN TARGET_POS C_DIS
CONTINUE
OFFSET_POS = {X 16.821, Y -0.794, Z 2.500, A 0, B 0, C 0}
TARGET_POS = TAUGHT_START
TARGET_POS.X = TAUGHT_START.X + OFFSET_POS.X
TARGET_POS.Y = TAUGHT_START.Y + OFFSET_POS.Y
TARGET_POS.Z = TAUGHT_START.Z + OFFSET_POS.Z
TARGET_POS.A = TAUGHT_START.A
TARGET_POS.B = TAUGHT_START.B
TARGET_POS.C = TAUGHT_START.C
LIN TARGET_POS C_DIS
CONTINUE
OFFSET_POS = {X 17.221, Y -0.813, Z 2.500, A 0, B 0, C 0}
TARGET_POS = TAUGHT_START
TARGET_POS.X = TAUGHT_START.X + OFFSET_POS.X
TARGET_POS.Y = TAUGHT_START.Y + OFFSET_POS.Y
TARGET_POS.Z = TAUGHT_START.Z + OFFSET_POS.Z
TARGET_POS.A = TAUGHT_START.A
TARGET_POS.B = TAUGHT_START.B
TARGET_POS.C = TAUGHT_START.C
LIN TARGET_POS C_DIS
CONTINUE
OFFSET_POS = {X 17.622, Y -0.832, Z 2.500, A 0, B 0, C 0}
TARGET_POS = TAUGHT_START
TARGET_POS.X = TAUGHT_START.X + OFFSET_POS.X
TARGET_POS.Y = TAUGHT_START.Y + OFFSET_POS.Y
TARGET_POS.Z = TAUGHT_START.Z + OFFSET_POS.Z
TARGET_POS.A = TAUGHT_START.A
TARGET_POS.B = TAUGHT_START.B
TARGET_POS.C = TAUGHT_START.C
LIN TARGET_POS C_DIS
CONTINUE
OFFSET_POS = {X 18.022, Y -0.851, Z 2.500, A 0, B 0, C 0}
TARGET_POS = TAUGHT_START
TARGET_POS.X = TAUGHT_START.X + OFFSET_POS.X
TARGET_POS.Y = TAUGHT_START.Y + OFFSET_POS.Y
TARGET_POS.Z = TAUGHT_START.Z + OFFSET_POS.Z
TARGET_POS.A = TAUGHT_START.A
TARGET_POS.B = TAUGHT_START.B
TARGET_POS.C = TAUGHT_START.C
LIN TARGET_POS C_DIS
CONTINUE
OFFSET_POS = {X 18.423, Y -0.870, Z 2.500, A 0, B 0, C 0}
TARGET_POS = TAUGHT_START
TARGET_POS.X = TAUGHT_START.X + OFFSET_POS.X
TARGET_POS.Y = TAUGHT_START.Y + OFFSET_POS.Y
TARGET_POS.Z = TAUGHT_START.Z + OFFSET_POS.Z
TARGET_POS.A = TAUGHT_START.A
TARGET_POS.B = TAUGHT_START.B
TARGET_POS.C = TAUGHT_START.C
LIN TARGET_POS C_DIS
CONTINUE
OFFSET_POS = {X 18.823, Y -0.889, Z 2.500, A 0, B 0, C 0}
TARGET_POS = TAUGHT_START
TARGET_POS.X = TAUGHT_START.X + OFFSET_POS.X
TARGET_POS.Y = TAUGHT_START.Y + OFFSET_POS.Y
TARGET_POS.Z = TAUGHT_START.Z + OFFSET_POS.Z
TARGET_POS.A = TAUGHT_START.A
TARGET_POS.B = TAUGHT_START.B
TARGET_POS.C = TAUGHT_START.C
LIN TARGET_POS C_DIS
CONTINUE
OFFSET_POS = {X 19.224, Y -0.908, Z 2.500, A 0, B 0, C 0}
TARGET_POS = TAUGHT_START
TARGET_POS.X = TAUGHT_START.X + OFFSET_POS.X
TARGET_POS.Y = TAUGHT_START.Y + OFFSET_POS.Y
TARGET_POS.Z = TAUGHT_START.Z + OFFSET_POS.Z
TARGET_POS.A = TAUGHT_START.A
TARGET_POS.B = TAUGHT_START.B
TARGET_POS.C = TAUGHT_START.C
LIN TARGET_POS C_DIS
CONTINUE
OFFSET_POS = {X 19.624, Y -0.927, Z 2.500, A 0, B 0, C 0}
TARGET_POS = TAUGHT_START
TARGET_POS.X = TAUGHT_START.X + OFFSET_POS.X
TARGET_POS.Y = TAUGHT_START.Y + OFFSET_POS.Y
TARGET_POS.Z = TAUGHT_START.Z + OFFSET_POS.Z
TARGET_POS.A = TAUGHT_START.A
TARGET_POS.B = TAUGHT_START.B
TARGET_POS.C = TAUGHT_START.C
LIN TARGET_POS C_DIS
CONTINUE
OFFSET_POS = {X 20.025, Y -0.946, Z 2.500, A 0, B 0, C 0}
TARGET_POS = TAUGHT_START
TARGET_POS.X = TAUGHT_START.X + OFFSET_POS.X
TARGET_POS.Y = TAUGHT_START.Y + OFFSET_POS.Y
TARGET_POS.Z = TAUGHT_START.Z + OFFSET_POS.Z
TARGET_POS.A = TAUGHT_START.A
TARGET_POS.B = TAUGHT_START.B
TARGET_POS.C = TAUGHT_START.C
LIN TARGET_POS C_DIS
CONTINUE
OFFSET_POS = {X 20.425, Y -0.964, Z 2.500, A 0, B 0, C 0}
TARGET_POS = TAUGHT_START
TARGET_POS.X = TAUGHT_START.X + OFFSET_POS.X
TARGET_POS.Y = TAUGHT_START.Y + OFFSET_POS.Y
TARGET_POS.Z = TAUGHT_START.Z + OFFSET_POS.Z
TARGET_POS.A = TAUGHT_START.A
TARGET_POS.B = TAUGHT_START.B
TARGET_POS.C = TAUGHT_START.C
LIN TARGET_POS C_DIS
CONTINUE
OFFSET_POS = {X 20.826, Y -0.983, Z 2.500, A 0, B 0, C 0}
TARGET_POS = TAUGHT_START
TARGET_POS.X = TAUGHT_START.X + OFFSET_POS.X
TARGET_POS.Y = TAUGHT_START.Y + OFFSET_POS.Y
TARGET_POS.Z = TAUGHT_START.Z + OFFSET_POS.Z
TARGET_POS.A = TAUGHT_START.A
TARGET_POS.B = TAUGHT_START.B
TARGET_POS.C = TAUGHT_START.C
LIN TARGET_POS C_DIS
$OUT[1] = FALSE
WAIT SEC 0.200
; Lift Z by 10.0mm to avoid scratching welded bead
LIN_REL {Z 10.0}
; Stabilization delay - ensures travel motion completes before Z lowers
WAIT SEC 5.0
;Waiting for TEMP_VAR to go high indicating temperature reached before next layer
WAIT SEC 30
WAIT FOR TEMP_VAR
WAIT SEC 30
; Lower Z back to weld height
LIN_REL {Z -10.0}
OFFSET_POS = {X -34.351, Y 22.060, Z 2.500, A 0, B 0, C 0}
TARGET_POS = TAUGHT_START
TARGET_POS.X = TAUGHT_START.X + OFFSET_POS.X
TARGET_POS.Y = TAUGHT_START.Y + OFFSET_POS.Y
TARGET_POS.Z = TAUGHT_START.Z + OFFSET_POS.Z
TARGET_POS.A = TAUGHT_START.A
TARGET_POS.B = TAUGHT_START.B
TARGET_POS.C = TAUGHT_START.C
LIN TARGET_POS C_DIS
$OUT[1] = TRUE
WAIT SEC 0.200
OFFSET_POS = {X -34.535, Y 22.417, Z 2.500, A 0, B 0, C 0}
TARGET_POS = TAUGHT_START
TARGET_POS.X = TAUGHT_START.X + OFFSET_POS.X
TARGET_POS.Y = TAUGHT_START.Y + OFFSET_POS.Y
TARGET_POS.Z = TAUGHT_START.Z + OFFSET_POS.Z
TARGET_POS.A = TAUGHT_START.A
TARGET_POS.B = TAUGHT_START.B
TARGET_POS.C = TAUGHT_START.C
LIN TARGET_POS C_DIS
CONTINUE
OFFSET_POS = {X -34.719, Y 22.773, Z 2.500, A 0, B 0, C 0}
TARGET_POS = TAUGHT_START
TARGET_POS.X = TAUGHT_START.X + OFFSET_POS.X
TARGET_POS.Y = TAUGHT_START.Y + OFFSET_POS.Y
TARGET_POS.Z = TAUGHT_START.Z + OFFSET_POS.Z
TARGET_POS.A = TAUGHT_START.A
TARGET_POS.B = TAUGHT_START.B
TARGET_POS.C = TAUGHT_START.C
LIN TARGET_POS C_DIS
CONTINUE
OFFSET_POS = {X -34.903, Y 23.129, Z 2.500, A 0, B 0, C 0}
TARGET_POS = TAUGHT_START
TARGET_POS.X = TAUGHT_START.X + OFFSET_POS.X
TARGET_POS.Y = TAUGHT_START.Y + OFFSET_POS.Y
TARGET_POS.Z = TAUGHT_START.Z + OFFSET_POS.Z
TARGET_POS.A = TAUGHT_START.A
TARGET_POS.B = TAUGHT_START.B
TARGET_POS.C = TAUGHT_START.C
LIN TARGET_POS C_DIS
CONTINUE
OFFSET_POS = {X -35.087, Y 23.486, Z 2.500, A 0, B 0, C 0}
TARGET_POS = TAUGHT_START
TARGET_POS.X = TAUGHT_START.X + OFFSET_POS.X
TARGET_POS.Y = TAUGHT_START.Y + OFFSET_POS.Y
TARGET_POS.Z = TAUGHT_START.Z + OFFSET_POS.Z
TARGET_POS.A = TAUGHT_START.A
TARGET_POS.B = TAUGHT_START.B
TARGET_POS.C = TAUGHT_START.C
LIN TARGET_POS C_DIS
CONTINUE
OFFSET_POS = {X -35.271, Y 23.842, Z 2.500, A 0, B 0, C 0}
TARGET_POS = TAUGHT_START
TARGET_POS.X = TAUGHT_START.X + OFFSET_POS.X
TARGET_POS.Y = TAUGHT_START.Y + OFFSET_POS.Y
TARGET_POS.Z = TAUGHT_START.Z + OFFSET_POS.Z
TARGET_POS.A = TAUGHT_START.A
TARGET_POS.B = TAUGHT_START.B
TARGET_POS.C = TAUGHT_START.C
LIN TARGET_POS C_DIS
CONTINUE
OFFSET_POS = {X -35.454, Y 24.198, Z 2.500, A 0, B 0, C 0}
TARGET_POS = TAUGHT_START
TARGET_POS.X = TAUGHT_START.X + OFFSET_POS.X
TARGET_POS.Y = TAUGHT_START.Y + OFFSET_POS.Y
TARGET_POS.Z = TAUGHT_START.Z + OFFSET_POS.Z
TARGET_POS.A = TAUGHT_START.A
TARGET_POS.B = TAUGHT_START.B
TARGET_POS.C = TAUGHT_START.C
LIN TARGET_POS C_DIS
CONTINUE
OFFSET_POS = {X -35.638, Y 24.555, Z 2.500, A 0, B 0, C 0}
TARGET_POS = TAUGHT_START
TARGET_POS.X = TAUGHT_START.X + OFFSET_POS.X
TARGET_POS.Y = TAUGHT_START.Y + OFFSET_POS.Y
TARGET_POS.Z = TAUGHT_START.Z + OFFSET_POS.Z
TARGET_POS.A = TAUGHT_START.A
TARGET_POS.B = TAUGHT_START.B
TARGET_POS.C = TAUGHT_START.C
LIN TARGET_POS C_DIS
CONTINUE
OFFSET_POS = {X -35.822, Y 24.911, Z 2.500, A 0, B 0, C 0}
TARGET_POS = TAUGHT_START
TARGET_POS.X = TAUGHT_START.X + OFFSET_POS.X
TARGET_POS.Y = TAUGHT_START.Y + OFFSET_POS.Y
TARGET_POS.Z = TAUGHT_START.Z + OFFSET_POS.Z
TARGET_POS.A = TAUGHT_START.A
TARGET_POS.B = TAUGHT_START.B
TARGET_POS.C = TAUGHT_START.C
LIN TARGET_POS C_DIS
CONTINUE
OFFSET_POS = {X -36.006, Y 25.267, Z 2.500, A 0, B 0, C 0}
TARGET_POS = TAUGHT_START
TARGET_POS.X = TAUGHT_START.X + OFFSET_POS.X
TARGET_POS.Y = TAUGHT_START.Y + OFFSET_POS.Y
TARGET_POS.Z = TAUGHT_START.Z + OFFSET_POS.Z
TARGET_POS.A = TAUGHT_START.A
TARGET_POS.B = TAUGHT_START.B
TARGET_POS.C = TAUGHT_START.C
LIN TARGET_POS C_DIS
CONTINUE
OFFSET_POS = {X -36.190, Y 25.624, Z 2.500, A 0, B 0, C 0}
TARGET_POS = TAUGHT_START
TARGET_POS.X = TAUGHT_START.X + OFFSET_POS.X
TARGET_POS.Y = TAUGHT_START.Y + OFFSET_POS.Y
TARGET_POS.Z = TAUGHT_START.Z + OFFSET_POS.Z
TARGET_POS.A = TAUGHT_START.A
TARGET_POS.B = TAUGHT_START.B
TARGET_POS.C = TAUGHT_START.C
LIN TARGET_POS C_DIS
CONTINUE
OFFSET_POS = {X -36.374, Y 25.980, Z 2.500, A 0, B 0, C 0}
TARGET_POS = TAUGHT_START
TARGET_POS.X = TAUGHT_START.X + OFFSET_POS.X
TARGET_POS.Y = TAUGHT_START.Y + OFFSET_POS.Y
TARGET_POS.Z = TAUGHT_START.Z + OFFSET_POS.Z
TARGET_POS.A = TAUGHT_START.A
TARGET_POS.B = TAUGHT_START.B
TARGET_POS.C = TAUGHT_START.C
LIN TARGET_POS C_DIS
CONTINUE
OFFSET_POS = {X -36.558, Y 26.336, Z 2.500, A 0, B 0, C 0}
TARGET_POS = TAUGHT_START
TARGET_POS.X = TAUGHT_START.X + OFFSET_POS.X
TARGET_POS.Y = TAUGHT_START.Y + OFFSET_POS.Y
TARGET_POS.Z = TAUGHT_START.Z + OFFSET_POS.Z
TARGET_POS.A = TAUGHT_START.A
TARGET_POS.B = TAUGHT_START.B
TARGET_POS.C = TAUGHT_START.C
LIN TARGET_POS C_DIS
CONTINUE
OFFSET_POS = {X -36.742, Y 26.693, Z 2.500, A 0, B 0, C 0}
TARGET_POS = TAUGHT_START
TARGET_POS.X = TAUGHT_START.X + OFFSET_POS.X
TARGET_POS.Y = TAUGHT_START.Y + OFFSET_POS.Y
TARGET_POS.Z = TAUGHT_START.Z + OFFSET_POS.Z
TARGET_POS.A = TAUGHT_START.A
TARGET_POS.B = TAUGHT_START.B
TARGET_POS.C = TAUGHT_START.C
LIN TARGET_POS C_DIS
CONTINUE
OFFSET_POS = {X -36.925, Y 27.049, Z 2.500, A 0, B 0, C 0}
TARGET_POS = TAUGHT_START
TARGET_POS.X = TAUGHT_START.X + OFFSET_POS.X
TARGET_POS.Y = TAUGHT_START.Y + OFFSET_POS.Y
TARGET_POS.Z = TAUGHT_START.Z + OFFSET_POS.Z
TARGET_POS.A = TAUGHT_START.A
TARGET_POS.B = TAUGHT_START.B
TARGET_POS.C = TAUGHT_START.C
LIN TARGET_POS C_DIS
CONTINUE
OFFSET_POS = {X -37.109, Y 27.405, Z 2.500, A 0, B 0, C 0}
TARGET_POS = TAUGHT_START
TARGET_POS.X = TAUGHT_START.X + OFFSET_POS.X
TARGET_POS.Y = TAUGHT_START.Y + OFFSET_POS.Y
TARGET_POS.Z = TAUGHT_START.Z + OFFSET_POS.Z
TARGET_POS.A = TAUGHT_START.A
TARGET_POS.B = TAUGHT_START.B
TARGET_POS.C = TAUGHT_START.C
LIN TARGET_POS C_DIS
CONTINUE
OFFSET_POS = {X -37.293, Y 27.762, Z 2.500, A 0, B 0, C 0}
TARGET_POS = TAUGHT_START
TARGET_POS.X = TAUGHT_START.X + OFFSET_POS.X
TARGET_POS.Y = TAUGHT_START.Y + OFFSET_POS.Y
TARGET_POS.Z = TAUGHT_START.Z + OFFSET_POS.Z
TARGET_POS.A = TAUGHT_START.A
TARGET_POS.B = TAUGHT_START.B
TARGET_POS.C = TAUGHT_START.C
LIN TARGET_POS C_DIS
CONTINUE
OFFSET_POS = {X -37.477, Y 28.118, Z 2.500, A 0, B 0, C 0}
TARGET_POS = TAUGHT_START
TARGET_POS.X = TAUGHT_START.X + OFFSET_POS.X
TARGET_POS.Y = TAUGHT_START.Y + OFFSET_POS.Y
TARGET_POS.Z = TAUGHT_START.Z + OFFSET_POS.Z
TARGET_POS.A = TAUGHT_START.A
TARGET_POS.B = TAUGHT_START.B
TARGET_POS.C = TAUGHT_START.C
LIN TARGET_POS C_DIS
CONTINUE
OFFSET_POS = {X -37.661, Y 28.474, Z 2.500, A 0, B 0, C 0}
TARGET_POS = TAUGHT_START
TARGET_POS.X = TAUGHT_START.X + OFFSET_POS.X
TARGET_POS.Y = TAUGHT_START.Y + OFFSET_POS.Y
TARGET_POS.Z = TAUGHT_START.Z + OFFSET_POS.Z
TARGET_POS.A = TAUGHT_START.A
TARGET_POS.B = TAUGHT_START.B
TARGET_POS.C = TAUGHT_START.C
LIN TARGET_POS C_DIS
CONTINUE
OFFSET_POS = {X -37.845, Y 28.831, Z 2.500, A 0, B 0, C 0}
TARGET_POS = TAUGHT_START
TARGET_POS.X = TAUGHT_START.X + OFFSET_POS.X
TARGET_POS.Y = TAUGHT_START.Y + OFFSET_POS.Y
TARGET_POS.Z = TAUGHT_START.Z + OFFSET_POS.Z
TARGET_POS.A = TAUGHT_START.A
TARGET_POS.B = TAUGHT_START.B
TARGET_POS.C = TAUGHT_START.C
LIN TARGET_POS C_DIS
CONTINUE
OFFSET_POS = {X -38.029, Y 29.187, Z 2.500, A 0, B 0, C 0}
TARGET_POS = TAUGHT_START
TARGET_POS.X = TAUGHT_START.X + OFFSET_POS.X
TARGET_POS.Y = TAUGHT_START.Y + OFFSET_POS.Y
TARGET_POS.Z = TAUGHT_START.Z + OFFSET_POS.Z
TARGET_POS.A = TAUGHT_START.A
TARGET_POS.B = TAUGHT_START.B
TARGET_POS.C = TAUGHT_START.C
LIN TARGET_POS C_DIS
CONTINUE
OFFSET_POS = {X -38.213, Y 29.543, Z 2.500, A 0, B 0, C 0}
TARGET_POS = TAUGHT_START
TARGET_POS.X = TAUGHT_START.X + OFFSET_POS.X
TARGET_POS.Y = TAUGHT_START.Y + OFFSET_POS.Y
TARGET_POS.Z = TAUGHT_START.Z + OFFSET_POS.Z
TARGET_POS.A = TAUGHT_START.A
TARGET_POS.B = TAUGHT_START.B
TARGET_POS.C = TAUGHT_START.C
LIN TARGET_POS C_DIS
CONTINUE
OFFSET_POS = {X -38.396, Y 29.900, Z 2.500, A 0, B 0, C 0}
TARGET_POS = TAUGHT_START
TARGET_POS.X = TAUGHT_START.X + OFFSET_POS.X
TARGET_POS.Y = TAUGHT_START.Y + OFFSET_POS.Y
TARGET_POS.Z = TAUGHT_START.Z + OFFSET_POS.Z
TARGET_POS.A = TAUGHT_START.A
TARGET_POS.B = TAUGHT_START.B
TARGET_POS.C = TAUGHT_START.C
LIN TARGET_POS C_DIS
CONTINUE
OFFSET_POS = {X -38.580, Y 30.256, Z 2.500, A 0, B 0, C 0}
TARGET_POS = TAUGHT_START
TARGET_POS.X = TAUGHT_START.X + OFFSET_POS.X
TARGET_POS.Y = TAUGHT_START.Y + OFFSET_POS.Y
TARGET_POS.Z = TAUGHT_START.Z + OFFSET_POS.Z
TARGET_POS.A = TAUGHT_START.A
TARGET_POS.B = TAUGHT_START.B
TARGET_POS.C = TAUGHT_START.C
LIN TARGET_POS C_DIS
CONTINUE
OFFSET_POS = {X -38.764, Y 30.612, Z 2.500, A 0, B 0, C 0}
TARGET_POS = TAUGHT_START
TARGET_POS.X = TAUGHT_START.X + OFFSET_POS.X
TARGET_POS.Y = TAUGHT_START.Y + OFFSET_POS.Y
TARGET_POS.Z = TAUGHT_START.Z + OFFSET_POS.Z
TARGET_POS.A = TAUGHT_START.A
TARGET_POS.B = TAUGHT_START.B
TARGET_POS.C = TAUGHT_START.C
LIN TARGET_POS C_DIS
CONTINUE
OFFSET_POS = {X -38.948, Y 30.968, Z 2.500, A 0, B 0, C 0}
TARGET_POS = TAUGHT_START
TARGET_POS.X = TAUGHT_START.X + OFFSET_POS.X
TARGET_POS.Y = TAUGHT_START.Y + OFFSET_POS.Y
TARGET_POS.Z = TAUGHT_START.Z + OFFSET_POS.Z
TARGET_POS.A = TAUGHT_START.A
TARGET_POS.B = TAUGHT_START.B
TARGET_POS.C = TAUGHT_START.C
LIN TARGET_POS C_DIS
CONTINUE
OFFSET_POS = {X -39.132, Y 31.325, Z 2.500, A 0, B 0, C 0}
TARGET_POS = TAUGHT_START
TARGET_POS.X = TAUGHT_START.X + OFFSET_POS.X
TARGET_POS.Y = TAUGHT_START.Y + OFFSET_POS.Y
TARGET_POS.Z = TAUGHT_START.Z + OFFSET_POS.Z
TARGET_POS.A = TAUGHT_START.A
TARGET_POS.B = TAUGHT_START.B
TARGET_POS.C = TAUGHT_START.C
LIN TARGET_POS C_DIS
CONTINUE
OFFSET_POS = {X -39.316, Y 31.681, Z 2.500, A 0, B 0, C 0}
TARGET_POS = TAUGHT_START
TARGET_POS.X = TAUGHT_START.X + OFFSET_POS.X
TARGET_POS.Y = TAUGHT_START.Y + OFFSET_POS.Y
TARGET_POS.Z = TAUGHT_START.Z + OFFSET_POS.Z
TARGET_POS.A = TAUGHT_START.A
TARGET_POS.B = TAUGHT_START.B
TARGET_POS.C = TAUGHT_START.C
LIN TARGET_POS C_DIS
CONTINUE
OFFSET_POS = {X -39.500, Y 32.037, Z 2.500, A 0, B 0, C 0}
TARGET_POS = TAUGHT_START
TARGET_POS.X = TAUGHT_START.X + OFFSET_POS.X
TARGET_POS.Y = TAUGHT_START.Y + OFFSET_POS.Y
TARGET_POS.Z = TAUGHT_START.Z + OFFSET_POS.Z
TARGET_POS.A = TAUGHT_START.A
TARGET_POS.B = TAUGHT_START.B
TARGET_POS.C = TAUGHT_START.C
LIN TARGET_POS C_DIS
CONTINUE
OFFSET_POS = {X -39.683, Y 32.394, Z 2.500, A 0, B 0, C 0}
TARGET_POS = TAUGHT_START
TARGET_POS.X = TAUGHT_START.X + OFFSET_POS.X
TARGET_POS.Y = TAUGHT_START.Y + OFFSET_POS.Y
TARGET_POS.Z = TAUGHT_START.Z + OFFSET_POS.Z
TARGET_POS.A = TAUGHT_START.A
TARGET_POS.B = TAUGHT_START.B
TARGET_POS.C = TAUGHT_START.C
LIN TARGET_POS C_DIS
CONTINUE
OFFSET_POS = {X -39.867, Y 32.750, Z 2.500, A 0, B 0, C 0}
TARGET_POS = TAUGHT_START
TARGET_POS.X = TAUGHT_START.X + OFFSET_POS.X
TARGET_POS.Y = TAUGHT_START.Y + OFFSET_POS.Y
TARGET_POS.Z = TAUGHT_START.Z + OFFSET_POS.Z
TARGET_POS.A = TAUGHT_START.A
TARGET_POS.B = TAUGHT_START.B
TARGET_POS.C = TAUGHT_START.C
LIN TARGET_POS C_DIS
CONTINUE
OFFSET_POS = {X -40.051, Y 33.106, Z 2.500, A 0, B 0, C 0}
TARGET_POS = TAUGHT_START
TARGET_POS.X = TAUGHT_START.X + OFFSET_POS.X
TARGET_POS.Y = TAUGHT_START.Y + OFFSET_POS.Y
TARGET_POS.Z = TAUGHT_START.Z + OFFSET_POS.Z
TARGET_POS.A = TAUGHT_START.A
TARGET_POS.B = TAUGHT_START.B
TARGET_POS.C = TAUGHT_START.C
LIN TARGET_POS C_DIS
CONTINUE
OFFSET_POS = {X -40.235, Y 33.463, Z 2.500, A 0, B 0, C 0}
TARGET_POS = TAUGHT_START
TARGET_POS.X = TAUGHT_START.X + OFFSET_POS.X
TARGET_POS.Y = TAUGHT_START.Y + OFFSET_POS.Y
TARGET_POS.Z = TAUGHT_START.Z + OFFSET_POS.Z
TARGET_POS.A = TAUGHT_START.A
TARGET_POS.B = TAUGHT_START.B
TARGET_POS.C = TAUGHT_START.C
LIN TARGET_POS C_DIS
CONTINUE
OFFSET_POS = {X -40.419, Y 33.819, Z 2.500, A 0, B 0, C 0}
TARGET_POS = TAUGHT_START
TARGET_POS.X = TAUGHT_START.X + OFFSET_POS.X
TARGET_POS.Y = TAUGHT_START.Y + OFFSET_POS.Y
TARGET_POS.Z = TAUGHT_START.Z + OFFSET_POS.Z
TARGET_POS.A = TAUGHT_START.A
TARGET_POS.B = TAUGHT_START.B
TARGET_POS.C = TAUGHT_START.C
LIN TARGET_POS C_DIS
CONTINUE
OFFSET_POS = {X -40.603, Y 34.175, Z 2.500, A 0, B 0, C 0}
TARGET_POS = TAUGHT_START
TARGET_POS.X = TAUGHT_START.X + OFFSET_POS.X
TARGET_POS.Y = TAUGHT_START.Y + OFFSET_POS.Y
TARGET_POS.Z = TAUGHT_START.Z + OFFSET_POS.Z
TARGET_POS.A = TAUGHT_START.A
TARGET_POS.B = TAUGHT_START.B
TARGET_POS.C = TAUGHT_START.C
LIN TARGET_POS C_DIS
CONTINUE
OFFSET_POS = {X -40.787, Y 34.532, Z 2.500, A 0, B 0, C 0}
TARGET_POS = TAUGHT_START
TARGET_POS.X = TAUGHT_START.X + OFFSET_POS.X
TARGET_POS.Y = TAUGHT_START.Y + OFFSET_POS.Y
TARGET_POS.Z = TAUGHT_START.Z + OFFSET_POS.Z
TARGET_POS.A = TAUGHT_START.A
TARGET_POS.B = TAUGHT_START.B
TARGET_POS.C = TAUGHT_START.C
LIN TARGET_POS C_DIS
CONTINUE
OFFSET_POS = {X -40.971, Y 34.888, Z 2.500, A 0, B 0, C 0}
TARGET_POS = TAUGHT_START
TARGET_POS.X = TAUGHT_START.X + OFFSET_POS.X
TARGET_POS.Y = TAUGHT_START.Y + OFFSET_POS.Y
TARGET_POS.Z = TAUGHT_START.Z + OFFSET_POS.Z
TARGET_POS.A = TAUGHT_START.A
TARGET_POS.B = TAUGHT_START.B
TARGET_POS.C = TAUGHT_START.C
LIN TARGET_POS C_DIS
CONTINUE
OFFSET_POS = {X -41.154, Y 35.244, Z 2.500, A 0, B 0, C 0}
TARGET_POS = TAUGHT_START
TARGET_POS.X = TAUGHT_START.X + OFFSET_POS.X
TARGET_POS.Y = TAUGHT_START.Y + OFFSET_POS.Y
TARGET_POS.Z = TAUGHT_START.Z + OFFSET_POS.Z
TARGET_POS.A = TAUGHT_START.A
TARGET_POS.B = TAUGHT_START.B
TARGET_POS.C = TAUGHT_START.C
LIN TARGET_POS C_DIS
CONTINUE
OFFSET_POS = {X -41.338, Y 35.601, Z 2.500, A 0, B 0, C 0}
TARGET_POS = TAUGHT_START
TARGET_POS.X = TAUGHT_START.X + OFFSET_POS.X
TARGET_POS.Y = TAUGHT_START.Y + OFFSET_POS.Y
TARGET_POS.Z = TAUGHT_START.Z + OFFSET_POS.Z
TARGET_POS.A = TAUGHT_START.A
TARGET_POS.B = TAUGHT_START.B
TARGET_POS.C = TAUGHT_START.C
LIN TARGET_POS C_DIS
CONTINUE
OFFSET_POS = {X -41.522, Y 35.957, Z 2.500, A 0, B 0, C 0}
TARGET_POS = TAUGHT_START
TARGET_POS.X = TAUGHT_START.X + OFFSET_POS.X
TARGET_POS.Y = TAUGHT_START.Y + OFFSET_POS.Y
TARGET_POS.Z = TAUGHT_START.Z + OFFSET_POS.Z
TARGET_POS.A = TAUGHT_START.A
TARGET_POS.B = TAUGHT_START.B
TARGET_POS.C = TAUGHT_START.C
LIN TARGET_POS C_DIS
CONTINUE
OFFSET_POS = {X -41.706, Y 36.313, Z 2.500, A 0, B 0, C 0}
TARGET_POS = TAUGHT_START
TARGET_POS.X = TAUGHT_START.X + OFFSET_POS.X
TARGET_POS.Y = TAUGHT_START.Y + OFFSET_POS.Y
TARGET_POS.Z = TAUGHT_START.Z + OFFSET_POS.Z
TARGET_POS.A = TAUGHT_START.A
TARGET_POS.B = TAUGHT_START.B
TARGET_POS.C = TAUGHT_START.C
LIN TARGET_POS C_DIS
CONTINUE
OFFSET_POS = {X -41.890, Y 36.670, Z 2.500, A 0, B 0, C 0}
TARGET_POS = TAUGHT_START
TARGET_POS.X = TAUGHT_START.X + OFFSET_POS.X
TARGET_POS.Y = TAUGHT_START.Y + OFFSET_POS.Y
TARGET_POS.Z = TAUGHT_START.Z + OFFSET_POS.Z
TARGET_POS.A = TAUGHT_START.A
TARGET_POS.B = TAUGHT_START.B
TARGET_POS.C = TAUGHT_START.C
LIN TARGET_POS C_DIS
CONTINUE
OFFSET_POS = {X -42.074, Y 37.026, Z 2.500, A 0, B 0, C 0}
TARGET_POS = TAUGHT_START
TARGET_POS.X = TAUGHT_START.X + OFFSET_POS.X
TARGET_POS.Y = TAUGHT_START.Y + OFFSET_POS.Y
TARGET_POS.Z = TAUGHT_START.Z + OFFSET_POS.Z
TARGET_POS.A = TAUGHT_START.A
TARGET_POS.B = TAUGHT_START.B
TARGET_POS.C = TAUGHT_START.C
LIN TARGET_POS C_DIS
CONTINUE
OFFSET_POS = {X -42.258, Y 37.382, Z 2.500, A 0, B 0, C 0}
TARGET_POS = TAUGHT_START
TARGET_POS.X = TAUGHT_START.X + OFFSET_POS.X
TARGET_POS.Y = TAUGHT_START.Y + OFFSET_POS.Y
TARGET_POS.Z = TAUGHT_START.Z + OFFSET_POS.Z
TARGET_POS.A = TAUGHT_START.A
TARGET_POS.B = TAUGHT_START.B
TARGET_POS.C = TAUGHT_START.C
LIN TARGET_POS C_DIS
CONTINUE
OFFSET_POS = {X -42.442, Y 37.739, Z 2.500, A 0, B 0, C 0}
TARGET_POS = TAUGHT_START
TARGET_POS.X = TAUGHT_START.X + OFFSET_POS.X
TARGET_POS.Y = TAUGHT_START.Y + OFFSET_POS.Y
TARGET_POS.Z = TAUGHT_START.Z + OFFSET_POS.Z
TARGET_POS.A = TAUGHT_START.A
TARGET_POS.B = TAUGHT_START.B
TARGET_POS.C = TAUGHT_START.C
LIN TARGET_POS C_DIS
CONTINUE
OFFSET_POS = {X -42.625, Y 38.095, Z 2.500, A 0, B 0, C 0}
TARGET_POS = TAUGHT_START
TARGET_POS.X = TAUGHT_START.X + OFFSET_POS.X
TARGET_POS.Y = TAUGHT_START.Y + OFFSET_POS.Y
TARGET_POS.Z = TAUGHT_START.Z + OFFSET_POS.Z
TARGET_POS.A = TAUGHT_START.A
TARGET_POS.B = TAUGHT_START.B
TARGET_POS.C = TAUGHT_START.C
LIN TARGET_POS C_DIS
CONTINUE
OFFSET_POS = {X -42.809, Y 38.451, Z 2.500, A 0, B 0, C 0}
TARGET_POS = TAUGHT_START
TARGET_POS.X = TAUGHT_START.X + OFFSET_POS.X
TARGET_POS.Y = TAUGHT_START.Y + OFFSET_POS.Y
TARGET_POS.Z = TAUGHT_START.Z + OFFSET_POS.Z
TARGET_POS.A = TAUGHT_START.A
TARGET_POS.B = TAUGHT_START.B
TARGET_POS.C = TAUGHT_START.C
LIN TARGET_POS C_DIS
CONTINUE
OFFSET_POS = {X -42.993, Y 38.808, Z 2.500, A 0, B 0, C 0}
TARGET_POS = TAUGHT_START
TARGET_POS.X = TAUGHT_START.X + OFFSET_POS.X
TARGET_POS.Y = TAUGHT_START.Y + OFFSET_POS.Y
TARGET_POS.Z = TAUGHT_START.Z + OFFSET_POS.Z
TARGET_POS.A = TAUGHT_START.A
TARGET_POS.B = TAUGHT_START.B
TARGET_POS.C = TAUGHT_START.C
LIN TARGET_POS C_DIS
CONTINUE
OFFSET_POS = {X -43.177, Y 39.164, Z 2.500, A 0, B 0, C 0}
TARGET_POS = TAUGHT_START
TARGET_POS.X = TAUGHT_START.X + OFFSET_POS.X
TARGET_POS.Y = TAUGHT_START.Y + OFFSET_POS.Y
TARGET_POS.Z = TAUGHT_START.Z + OFFSET_POS.Z
TARGET_POS.A = TAUGHT_START.A
TARGET_POS.B = TAUGHT_START.B
TARGET_POS.C = TAUGHT_START.C
LIN TARGET_POS C_DIS
CONTINUE
OFFSET_POS = {X -43.361, Y 39.520, Z 2.500, A 0, B 0, C 0}
TARGET_POS = TAUGHT_START
TARGET_POS.X = TAUGHT_START.X + OFFSET_POS.X
TARGET_POS.Y = TAUGHT_START.Y + OFFSET_POS.Y
TARGET_POS.Z = TAUGHT_START.Z + OFFSET_POS.Z
TARGET_POS.A = TAUGHT_START.A
TARGET_POS.B = TAUGHT_START.B
TARGET_POS.C = TAUGHT_START.C
LIN TARGET_POS C_DIS
CONTINUE
OFFSET_POS = {X -43.545, Y 39.877, Z 2.500, A 0, B 0, C 0}
TARGET_POS = TAUGHT_START
TARGET_POS.X = TAUGHT_START.X + OFFSET_POS.X
TARGET_POS.Y = TAUGHT_START.Y + OFFSET_POS.Y
TARGET_POS.Z = TAUGHT_START.Z + OFFSET_POS.Z
TARGET_POS.A = TAUGHT_START.A
TARGET_POS.B = TAUGHT_START.B
TARGET_POS.C = TAUGHT_START.C
LIN TARGET_POS C_DIS
CONTINUE
OFFSET_POS = {X -43.729, Y 40.233, Z 2.500, A 0, B 0, C 0}
TARGET_POS = TAUGHT_START
TARGET_POS.X = TAUGHT_START.X + OFFSET_POS.X
TARGET_POS.Y = TAUGHT_START.Y + OFFSET_POS.Y
TARGET_POS.Z = TAUGHT_START.Z + OFFSET_POS.Z
TARGET_POS.A = TAUGHT_START.A
TARGET_POS.B = TAUGHT_START.B
TARGET_POS.C = TAUGHT_START.C
LIN TARGET_POS C_DIS
$OUT[1] = FALSE
WAIT SEC 0.200
; Lift Z by 10.0mm to avoid scratching welded bead
LIN_REL {Z 10.0}
; Stabilization delay - ensures travel motion completes before Z lowers
WAIT SEC 5.0
;Waiting for TEMP_VAR to go high indicating temperature reached before next layer
WAIT SEC 30
WAIT FOR TEMP_VAR
WAIT SEC 30
; Lower Z back to weld height
LIN_REL {Z -10.0}
OFFSET_POS = {X -47.341, Y -35.932, Z 2.500, A 0, B 0, C 0}
TARGET_POS = TAUGHT_START
TARGET_POS.X = TAUGHT_START.X + OFFSET_POS.X
TARGET_POS.Y = TAUGHT_START.Y + OFFSET_POS.Y
TARGET_POS.Z = TAUGHT_START.Z + OFFSET_POS.Z
TARGET_POS.A = TAUGHT_START.A
TARGET_POS.B = TAUGHT_START.B
TARGET_POS.C = TAUGHT_START.C
LIN TARGET_POS C_DIS
$OUT[1] = TRUE
WAIT SEC 0.200
OFFSET_POS = {X -47.124, Y -35.595, Z 2.500, A 0, B 0, C 0}
TARGET_POS = TAUGHT_START
TARGET_POS.X = TAUGHT_START.X + OFFSET_POS.X
TARGET_POS.Y = TAUGHT_START.Y + OFFSET_POS.Y
TARGET_POS.Z = TAUGHT_START.Z + OFFSET_POS.Z
TARGET_POS.A = TAUGHT_START.A
TARGET_POS.B = TAUGHT_START.B
TARGET_POS.C = TAUGHT_START.C
LIN TARGET_POS C_DIS
CONTINUE
OFFSET_POS = {X -46.908, Y -35.257, Z 2.500, A 0, B 0, C 0}
TARGET_POS = TAUGHT_START
TARGET_POS.X = TAUGHT_START.X + OFFSET_POS.X
TARGET_POS.Y = TAUGHT_START.Y + OFFSET_POS.Y
TARGET_POS.Z = TAUGHT_START.Z + OFFSET_POS.Z
TARGET_POS.A = TAUGHT_START.A
TARGET_POS.B = TAUGHT_START.B
TARGET_POS.C = TAUGHT_START.C
LIN TARGET_POS C_DIS
CONTINUE
OFFSET_POS = {X -46.691, Y -34.920, Z 2.500, A 0, B 0, C 0}
TARGET_POS = TAUGHT_START
TARGET_POS.X = TAUGHT_START.X + OFFSET_POS.X
TARGET_POS.Y = TAUGHT_START.Y + OFFSET_POS.Y
TARGET_POS.Z = TAUGHT_START.Z + OFFSET_POS.Z
TARGET_POS.A = TAUGHT_START.A
TARGET_POS.B = TAUGHT_START.B
TARGET_POS.C = TAUGHT_START.C
LIN TARGET_POS C_DIS
CONTINUE
OFFSET_POS = {X -46.474, Y -34.583, Z 2.500, A 0, B 0, C 0}
TARGET_POS = TAUGHT_START
TARGET_POS.X = TAUGHT_START.X + OFFSET_POS.X
TARGET_POS.Y = TAUGHT_START.Y + OFFSET_POS.Y
TARGET_POS.Z = TAUGHT_START.Z + OFFSET_POS.Z
TARGET_POS.A = TAUGHT_START.A
TARGET_POS.B = TAUGHT_START.B
TARGET_POS.C = TAUGHT_START.C
LIN TARGET_POS C_DIS
CONTINUE
OFFSET_POS = {X -46.258, Y -34.246, Z 2.500, A 0, B 0, C 0}
TARGET_POS = TAUGHT_START
TARGET_POS.X = TAUGHT_START.X + OFFSET_POS.X
TARGET_POS.Y = TAUGHT_START.Y + OFFSET_POS.Y
TARGET_POS.Z = TAUGHT_START.Z + OFFSET_POS.Z
TARGET_POS.A = TAUGHT_START.A
TARGET_POS.B = TAUGHT_START.B
TARGET_POS.C = TAUGHT_START.C
LIN TARGET_POS C_DIS
CONTINUE
OFFSET_POS = {X -46.041, Y -33.909, Z 2.500, A 0, B 0, C 0}
TARGET_POS = TAUGHT_START
TARGET_POS.X = TAUGHT_START.X + OFFSET_POS.X
TARGET_POS.Y = TAUGHT_START.Y + OFFSET_POS.Y
TARGET_POS.Z = TAUGHT_START.Z + OFFSET_POS.Z
TARGET_POS.A = TAUGHT_START.A
TARGET_POS.B = TAUGHT_START.B
TARGET_POS.C = TAUGHT_START.C
LIN TARGET_POS C_DIS
CONTINUE
OFFSET_POS = {X -45.824, Y -33.571, Z 2.500, A 0, B 0, C 0}
TARGET_POS = TAUGHT_START
TARGET_POS.X = TAUGHT_START.X + OFFSET_POS.X
TARGET_POS.Y = TAUGHT_START.Y + OFFSET_POS.Y
TARGET_POS.Z = TAUGHT_START.Z + OFFSET_POS.Z
TARGET_POS.A = TAUGHT_START.A
TARGET_POS.B = TAUGHT_START.B
TARGET_POS.C = TAUGHT_START.C
LIN TARGET_POS C_DIS
CONTINUE
OFFSET_POS = {X -45.608, Y -33.234, Z 2.500, A 0, B 0, C 0}
TARGET_POS = TAUGHT_START
TARGET_POS.X = TAUGHT_START.X + OFFSET_POS.X
TARGET_POS.Y = TAUGHT_START.Y + OFFSET_POS.Y
TARGET_POS.Z = TAUGHT_START.Z + OFFSET_POS.Z
TARGET_POS.A = TAUGHT_START.A
TARGET_POS.B = TAUGHT_START.B
TARGET_POS.C = TAUGHT_START.C
LIN TARGET_POS C_DIS
CONTINUE
OFFSET_POS = {X -45.391, Y -32.897, Z 2.500, A 0, B 0, C 0}
TARGET_POS = TAUGHT_START
TARGET_POS.X = TAUGHT_START.X + OFFSET_POS.X
TARGET_POS.Y = TAUGHT_START.Y + OFFSET_POS.Y
TARGET_POS.Z = TAUGHT_START.Z + OFFSET_POS.Z
TARGET_POS.A = TAUGHT_START.A
TARGET_POS.B = TAUGHT_START.B
TARGET_POS.C = TAUGHT_START.C
LIN TARGET_POS C_DIS
CONTINUE
OFFSET_POS = {X -45.174, Y -32.560, Z 2.500, A 0, B 0, C 0}
TARGET_POS = TAUGHT_START
TARGET_POS.X = TAUGHT_START.X + OFFSET_POS.X
TARGET_POS.Y = TAUGHT_START.Y + OFFSET_POS.Y
TARGET_POS.Z = TAUGHT_START.Z + OFFSET_POS.Z
TARGET_POS.A = TAUGHT_START.A
TARGET_POS.B = TAUGHT_START.B
TARGET_POS.C = TAUGHT_START.C
LIN TARGET_POS C_DIS
CONTINUE
OFFSET_POS = {X -44.958, Y -32.223, Z 2.500, A 0, B 0, C 0}
TARGET_POS = TAUGHT_START
TARGET_POS.X = TAUGHT_START.X + OFFSET_POS.X
TARGET_POS.Y = TAUGHT_START.Y + OFFSET_POS.Y
TARGET_POS.Z = TAUGHT_START.Z + OFFSET_POS.Z
TARGET_POS.A = TAUGHT_START.A
TARGET_POS.B = TAUGHT_START.B
TARGET_POS.C = TAUGHT_START.C
LIN TARGET_POS C_DIS
CONTINUE
OFFSET_POS = {X -44.741, Y -31.885, Z 2.500, A 0, B 0, C 0}
TARGET_POS = TAUGHT_START
TARGET_POS.X = TAUGHT_START.X + OFFSET_POS.X
TARGET_POS.Y = TAUGHT_START.Y + OFFSET_POS.Y
TARGET_POS.Z = TAUGHT_START.Z + OFFSET_POS.Z
TARGET_POS.A = TAUGHT_START.A
TARGET_POS.B = TAUGHT_START.B
TARGET_POS.C = TAUGHT_START.C
LIN TARGET_POS C_DIS
CONTINUE
OFFSET_POS = {X -44.524, Y -31.548, Z 2.500, A 0, B 0, C 0}
TARGET_POS = TAUGHT_START
TARGET_POS.X = TAUGHT_START.X + OFFSET_POS.X
TARGET_POS.Y = TAUGHT_START.Y + OFFSET_POS.Y
TARGET_POS.Z = TAUGHT_START.Z + OFFSET_POS.Z
TARGET_POS.A = TAUGHT_START.A
TARGET_POS.B = TAUGHT_START.B
TARGET_POS.C = TAUGHT_START.C
LIN TARGET_POS C_DIS
CONTINUE
OFFSET_POS = {X -44.308, Y -31.211, Z 2.500, A 0, B 0, C 0}
TARGET_POS = TAUGHT_START
TARGET_POS.X = TAUGHT_START.X + OFFSET_POS.X
TARGET_POS.Y = TAUGHT_START.Y + OFFSET_POS.Y
TARGET_POS.Z = TAUGHT_START.Z + OFFSET_POS.Z
TARGET_POS.A = TAUGHT_START.A
TARGET_POS.B = TAUGHT_START.B
TARGET_POS.C = TAUGHT_START.C
LIN TARGET_POS C_DIS
CONTINUE
OFFSET_POS = {X -44.091, Y -30.874, Z 2.500, A 0, B 0, C 0}
TARGET_POS = TAUGHT_START
TARGET_POS.X = TAUGHT_START.X + OFFSET_POS.X
TARGET_POS.Y = TAUGHT_START.Y + OFFSET_POS.Y
TARGET_POS.Z = TAUGHT_START.Z + OFFSET_POS.Z
TARGET_POS.A = TAUGHT_START.A
TARGET_POS.B = TAUGHT_START.B
TARGET_POS.C = TAUGHT_START.C
LIN TARGET_POS C_DIS
CONTINUE
OFFSET_POS = {X -43.874, Y -30.536, Z 2.500, A 0, B 0, C 0}
TARGET_POS = TAUGHT_START
TARGET_POS.X = TAUGHT_START.X + OFFSET_POS.X
TARGET_POS.Y = TAUGHT_START.Y + OFFSET_POS.Y
TARGET_POS.Z = TAUGHT_START.Z + OFFSET_POS.Z
TARGET_POS.A = TAUGHT_START.A
TARGET_POS.B = TAUGHT_START.B
TARGET_POS.C = TAUGHT_START.C
LIN TARGET_POS C_DIS
CONTINUE
OFFSET_POS = {X -43.658, Y -30.199, Z 2.500, A 0, B 0, C 0}
TARGET_POS = TAUGHT_START
TARGET_POS.X = TAUGHT_START.X + OFFSET_POS.X
TARGET_POS.Y = TAUGHT_START.Y + OFFSET_POS.Y
TARGET_POS.Z = TAUGHT_START.Z + OFFSET_POS.Z
TARGET_POS.A = TAUGHT_START.A
TARGET_POS.B = TAUGHT_START.B
TARGET_POS.C = TAUGHT_START.C
LIN TARGET_POS C_DIS
CONTINUE
OFFSET_POS = {X -43.441, Y -29.862, Z 2.500, A 0, B 0, C 0}
TARGET_POS = TAUGHT_START
TARGET_POS.X = TAUGHT_START.X + OFFSET_POS.X
TARGET_POS.Y = TAUGHT_START.Y + OFFSET_POS.Y
TARGET_POS.Z = TAUGHT_START.Z + OFFSET_POS.Z
TARGET_POS.A = TAUGHT_START.A
TARGET_POS.B = TAUGHT_START.B
TARGET_POS.C = TAUGHT_START.C
LIN TARGET_POS C_DIS
CONTINUE
OFFSET_POS = {X -43.224, Y -29.525, Z 2.500, A 0, B 0, C 0}
TARGET_POS = TAUGHT_START
TARGET_POS.X = TAUGHT_START.X + OFFSET_POS.X
TARGET_POS.Y = TAUGHT_START.Y + OFFSET_POS.Y
TARGET_POS.Z = TAUGHT_START.Z + OFFSET_POS.Z
TARGET_POS.A = TAUGHT_START.A
TARGET_POS.B = TAUGHT_START.B
TARGET_POS.C = TAUGHT_START.C
LIN TARGET_POS C_DIS
CONTINUE
OFFSET_POS = {X -43.008, Y -29.188, Z 2.500, A 0, B 0, C 0}
TARGET_POS = TAUGHT_START
TARGET_POS.X = TAUGHT_START.X + OFFSET_POS.X
TARGET_POS.Y = TAUGHT_START.Y + OFFSET_POS.Y
TARGET_POS.Z = TAUGHT_START.Z + OFFSET_POS.Z
TARGET_POS.A = TAUGHT_START.A
TARGET_POS.B = TAUGHT_START.B
TARGET_POS.C = TAUGHT_START.C
LIN TARGET_POS C_DIS
CONTINUE
OFFSET_POS = {X -42.791, Y -28.850, Z 2.500, A 0, B 0, C 0}
TARGET_POS = TAUGHT_START
TARGET_POS.X = TAUGHT_START.X + OFFSET_POS.X
TARGET_POS.Y = TAUGHT_START.Y + OFFSET_POS.Y
TARGET_POS.Z = TAUGHT_START.Z + OFFSET_POS.Z
TARGET_POS.A = TAUGHT_START.A
TARGET_POS.B = TAUGHT_START.B
TARGET_POS.C = TAUGHT_START.C
LIN TARGET_POS C_DIS
CONTINUE
OFFSET_POS = {X -42.574, Y -28.513, Z 2.500, A 0, B 0, C 0}
TARGET_POS = TAUGHT_START
TARGET_POS.X = TAUGHT_START.X + OFFSET_POS.X
TARGET_POS.Y = TAUGHT_START.Y + OFFSET_POS.Y
TARGET_POS.Z = TAUGHT_START.Z + OFFSET_POS.Z
TARGET_POS.A = TAUGHT_START.A
TARGET_POS.B = TAUGHT_START.B
TARGET_POS.C = TAUGHT_START.C
LIN TARGET_POS C_DIS
CONTINUE
OFFSET_POS = {X -42.358, Y -28.176, Z 2.500, A 0, B 0, C 0}
TARGET_POS = TAUGHT_START
TARGET_POS.X = TAUGHT_START.X + OFFSET_POS.X
TARGET_POS.Y = TAUGHT_START.Y + OFFSET_POS.Y
TARGET_POS.Z = TAUGHT_START.Z + OFFSET_POS.Z
TARGET_POS.A = TAUGHT_START.A
TARGET_POS.B = TAUGHT_START.B
TARGET_POS.C = TAUGHT_START.C
LIN TARGET_POS C_DIS
CONTINUE
OFFSET_POS = {X -42.141, Y -27.839, Z 2.500, A 0, B 0, C 0}
TARGET_POS = TAUGHT_START
TARGET_POS.X = TAUGHT_START.X + OFFSET_POS.X
TARGET_POS.Y = TAUGHT_START.Y + OFFSET_POS.Y
TARGET_POS.Z = TAUGHT_START.Z + OFFSET_POS.Z
TARGET_POS.A = TAUGHT_START.A
TARGET_POS.B = TAUGHT_START.B
TARGET_POS.C = TAUGHT_START.C
LIN TARGET_POS C_DIS
CONTINUE
OFFSET_POS = {X -41.924, Y -27.502, Z 2.500, A 0, B 0, C 0}
TARGET_POS = TAUGHT_START
TARGET_POS.X = TAUGHT_START.X + OFFSET_POS.X
TARGET_POS.Y = TAUGHT_START.Y + OFFSET_POS.Y
TARGET_POS.Z = TAUGHT_START.Z + OFFSET_POS.Z
TARGET_POS.A = TAUGHT_START.A
TARGET_POS.B = TAUGHT_START.B
TARGET_POS.C = TAUGHT_START.C
LIN TARGET_POS C_DIS
CONTINUE
OFFSET_POS = {X -41.708, Y -27.164, Z 2.500, A 0, B 0, C 0}
TARGET_POS = TAUGHT_START
TARGET_POS.X = TAUGHT_START.X + OFFSET_POS.X
TARGET_POS.Y = TAUGHT_START.Y + OFFSET_POS.Y
TARGET_POS.Z = TAUGHT_START.Z + OFFSET_POS.Z
TARGET_POS.A = TAUGHT_START.A
TARGET_POS.B = TAUGHT_START.B
TARGET_POS.C = TAUGHT_START.C
LIN TARGET_POS C_DIS
CONTINUE
OFFSET_POS = {X -41.491, Y -26.827, Z 2.500, A 0, B 0, C 0}
TARGET_POS = TAUGHT_START
TARGET_POS.X = TAUGHT_START.X + OFFSET_POS.X
TARGET_POS.Y = TAUGHT_START.Y + OFFSET_POS.Y
TARGET_POS.Z = TAUGHT_START.Z + OFFSET_POS.Z
TARGET_POS.A = TAUGHT_START.A
TARGET_POS.B = TAUGHT_START.B
TARGET_POS.C = TAUGHT_START.C
LIN TARGET_POS C_DIS
CONTINUE
OFFSET_POS = {X -41.274, Y -26.490, Z 2.500, A 0, B 0, C 0}
TARGET_POS = TAUGHT_START
TARGET_POS.X = TAUGHT_START.X + OFFSET_POS.X
TARGET_POS.Y = TAUGHT_START.Y + OFFSET_POS.Y
TARGET_POS.Z = TAUGHT_START.Z + OFFSET_POS.Z
TARGET_POS.A = TAUGHT_START.A
TARGET_POS.B = TAUGHT_START.B
TARGET_POS.C = TAUGHT_START.C
LIN TARGET_POS C_DIS
CONTINUE
OFFSET_POS = {X -41.058, Y -26.153, Z 2.500, A 0, B 0, C 0}
TARGET_POS = TAUGHT_START
TARGET_POS.X = TAUGHT_START.X + OFFSET_POS.X
TARGET_POS.Y = TAUGHT_START.Y + OFFSET_POS.Y
TARGET_POS.Z = TAUGHT_START.Z + OFFSET_POS.Z
TARGET_POS.A = TAUGHT_START.A
TARGET_POS.B = TAUGHT_START.B
TARGET_POS.C = TAUGHT_START.C
LIN TARGET_POS C_DIS
CONTINUE
OFFSET_POS = {X -40.841, Y -25.815, Z 2.500, A 0, B 0, C 0}
TARGET_POS = TAUGHT_START
TARGET_POS.X = TAUGHT_START.X + OFFSET_POS.X
TARGET_POS.Y = TAUGHT_START.Y + OFFSET_POS.Y
TARGET_POS.Z = TAUGHT_START.Z + OFFSET_POS.Z
TARGET_POS.A = TAUGHT_START.A
TARGET_POS.B = TAUGHT_START.B
TARGET_POS.C = TAUGHT_START.C
LIN TARGET_POS C_DIS
CONTINUE
OFFSET_POS = {X -40.624, Y -25.478, Z 2.500, A 0, B 0, C 0}
TARGET_POS = TAUGHT_START
TARGET_POS.X = TAUGHT_START.X + OFFSET_POS.X
TARGET_POS.Y = TAUGHT_START.Y + OFFSET_POS.Y
TARGET_POS.Z = TAUGHT_START.Z + OFFSET_POS.Z
TARGET_POS.A = TAUGHT_START.A
TARGET_POS.B = TAUGHT_START.B
TARGET_POS.C = TAUGHT_START.C
LIN TARGET_POS C_DIS
CONTINUE
OFFSET_POS = {X -40.408, Y -25.141, Z 2.500, A 0, B 0, C 0}
TARGET_POS = TAUGHT_START
TARGET_POS.X = TAUGHT_START.X + OFFSET_POS.X
TARGET_POS.Y = TAUGHT_START.Y + OFFSET_POS.Y
TARGET_POS.Z = TAUGHT_START.Z + OFFSET_POS.Z
TARGET_POS.A = TAUGHT_START.A
TARGET_POS.B = TAUGHT_START.B
TARGET_POS.C = TAUGHT_START.C
LIN TARGET_POS C_DIS
CONTINUE
OFFSET_POS = {X -40.191, Y -24.804, Z 2.500, A 0, B 0, C 0}
TARGET_POS = TAUGHT_START
TARGET_POS.X = TAUGHT_START.X + OFFSET_POS.X
TARGET_POS.Y = TAUGHT_START.Y + OFFSET_POS.Y
TARGET_POS.Z = TAUGHT_START.Z + OFFSET_POS.Z
TARGET_POS.A = TAUGHT_START.A
TARGET_POS.B = TAUGHT_START.B
TARGET_POS.C = TAUGHT_START.C
LIN TARGET_POS C_DIS
CONTINUE
OFFSET_POS = {X -39.974, Y -24.467, Z 2.500, A 0, B 0, C 0}
TARGET_POS = TAUGHT_START
TARGET_POS.X = TAUGHT_START.X + OFFSET_POS.X
TARGET_POS.Y = TAUGHT_START.Y + OFFSET_POS.Y
TARGET_POS.Z = TAUGHT_START.Z + OFFSET_POS.Z
TARGET_POS.A = TAUGHT_START.A
TARGET_POS.B = TAUGHT_START.B
TARGET_POS.C = TAUGHT_START.C
LIN TARGET_POS C_DIS
CONTINUE
OFFSET_POS = {X -39.758, Y -24.129, Z 2.500, A 0, B 0, C 0}
TARGET_POS = TAUGHT_START
TARGET_POS.X = TAUGHT_START.X + OFFSET_POS.X
TARGET_POS.Y = TAUGHT_START.Y + OFFSET_POS.Y
TARGET_POS.Z = TAUGHT_START.Z + OFFSET_POS.Z
TARGET_POS.A = TAUGHT_START.A
TARGET_POS.B = TAUGHT_START.B
TARGET_POS.C = TAUGHT_START.C
LIN TARGET_POS C_DIS
CONTINUE
OFFSET_POS = {X -39.541, Y -23.792, Z 2.500, A 0, B 0, C 0}
TARGET_POS = TAUGHT_START
TARGET_POS.X = TAUGHT_START.X + OFFSET_POS.X
TARGET_POS.Y = TAUGHT_START.Y + OFFSET_POS.Y
TARGET_POS.Z = TAUGHT_START.Z + OFFSET_POS.Z
TARGET_POS.A = TAUGHT_START.A
TARGET_POS.B = TAUGHT_START.B
TARGET_POS.C = TAUGHT_START.C
LIN TARGET_POS C_DIS
CONTINUE
OFFSET_POS = {X -39.324, Y -23.455, Z 2.500, A 0, B 0, C 0}
TARGET_POS = TAUGHT_START
TARGET_POS.X = TAUGHT_START.X + OFFSET_POS.X
TARGET_POS.Y = TAUGHT_START.Y + OFFSET_POS.Y
TARGET_POS.Z = TAUGHT_START.Z + OFFSET_POS.Z
TARGET_POS.A = TAUGHT_START.A
TARGET_POS.B = TAUGHT_START.B
TARGET_POS.C = TAUGHT_START.C
LIN TARGET_POS C_DIS
CONTINUE
OFFSET_POS = {X -39.108, Y -23.118, Z 2.500, A 0, B 0, C 0}
TARGET_POS = TAUGHT_START
TARGET_POS.X = TAUGHT_START.X + OFFSET_POS.X
TARGET_POS.Y = TAUGHT_START.Y + OFFSET_POS.Y
TARGET_POS.Z = TAUGHT_START.Z + OFFSET_POS.Z
TARGET_POS.A = TAUGHT_START.A
TARGET_POS.B = TAUGHT_START.B
TARGET_POS.C = TAUGHT_START.C
LIN TARGET_POS C_DIS
CONTINUE
OFFSET_POS = {X -38.891, Y -22.781, Z 2.500, A 0, B 0, C 0}
TARGET_POS = TAUGHT_START
TARGET_POS.X = TAUGHT_START.X + OFFSET_POS.X
TARGET_POS.Y = TAUGHT_START.Y + OFFSET_POS.Y
TARGET_POS.Z = TAUGHT_START.Z + OFFSET_POS.Z
TARGET_POS.A = TAUGHT_START.A
TARGET_POS.B = TAUGHT_START.B
TARGET_POS.C = TAUGHT_START.C
LIN TARGET_POS C_DIS
CONTINUE
OFFSET_POS = {X -38.674, Y -22.443, Z 2.500, A 0, B 0, C 0}
TARGET_POS = TAUGHT_START
TARGET_POS.X = TAUGHT_START.X + OFFSET_POS.X
TARGET_POS.Y = TAUGHT_START.Y + OFFSET_POS.Y
TARGET_POS.Z = TAUGHT_START.Z + OFFSET_POS.Z
TARGET_POS.A = TAUGHT_START.A
TARGET_POS.B = TAUGHT_START.B
TARGET_POS.C = TAUGHT_START.C
LIN TARGET_POS C_DIS
CONTINUE
OFFSET_POS = {X -38.458, Y -22.106, Z 2.500, A 0, B 0, C 0}
TARGET_POS = TAUGHT_START
TARGET_POS.X = TAUGHT_START.X + OFFSET_POS.X
TARGET_POS.Y = TAUGHT_START.Y + OFFSET_POS.Y
TARGET_POS.Z = TAUGHT_START.Z + OFFSET_POS.Z
TARGET_POS.A = TAUGHT_START.A
TARGET_POS.B = TAUGHT_START.B
TARGET_POS.C = TAUGHT_START.C
LIN TARGET_POS C_DIS
CONTINUE
OFFSET_POS = {X -38.241, Y -21.769, Z 2.500, A 0, B 0, C 0}
TARGET_POS = TAUGHT_START
TARGET_POS.X = TAUGHT_START.X + OFFSET_POS.X
TARGET_POS.Y = TAUGHT_START.Y + OFFSET_POS.Y
TARGET_POS.Z = TAUGHT_START.Z + OFFSET_POS.Z
TARGET_POS.A = TAUGHT_START.A
TARGET_POS.B = TAUGHT_START.B
TARGET_POS.C = TAUGHT_START.C
LIN TARGET_POS C_DIS
CONTINUE
OFFSET_POS = {X -38.024, Y -21.432, Z 2.500, A 0, B 0, C 0}
TARGET_POS = TAUGHT_START
TARGET_POS.X = TAUGHT_START.X + OFFSET_POS.X
TARGET_POS.Y = TAUGHT_START.Y + OFFSET_POS.Y
TARGET_POS.Z = TAUGHT_START.Z + OFFSET_POS.Z
TARGET_POS.A = TAUGHT_START.A
TARGET_POS.B = TAUGHT_START.B
TARGET_POS.C = TAUGHT_START.C
LIN TARGET_POS C_DIS
CONTINUE
OFFSET_POS = {X -37.808, Y -21.094, Z 2.500, A 0, B 0, C 0}
TARGET_POS = TAUGHT_START
TARGET_POS.X = TAUGHT_START.X + OFFSET_POS.X
TARGET_POS.Y = TAUGHT_START.Y + OFFSET_POS.Y
TARGET_POS.Z = TAUGHT_START.Z + OFFSET_POS.Z
TARGET_POS.A = TAUGHT_START.A
TARGET_POS.B = TAUGHT_START.B
TARGET_POS.C = TAUGHT_START.C
LIN TARGET_POS C_DIS
CONTINUE
OFFSET_POS = {X -37.591, Y -20.757, Z 2.500, A 0, B 0, C 0}
TARGET_POS = TAUGHT_START
TARGET_POS.X = TAUGHT_START.X + OFFSET_POS.X
TARGET_POS.Y = TAUGHT_START.Y + OFFSET_POS.Y
TARGET_POS.Z = TAUGHT_START.Z + OFFSET_POS.Z
TARGET_POS.A = TAUGHT_START.A
TARGET_POS.B = TAUGHT_START.B
TARGET_POS.C = TAUGHT_START.C
LIN TARGET_POS C_DIS
CONTINUE
OFFSET_POS = {X -37.374, Y -20.420, Z 2.500, A 0, B 0, C 0}
TARGET_POS = TAUGHT_START
TARGET_POS.X = TAUGHT_START.X + OFFSET_POS.X
TARGET_POS.Y = TAUGHT_START.Y + OFFSET_POS.Y
TARGET_POS.Z = TAUGHT_START.Z + OFFSET_POS.Z
TARGET_POS.A = TAUGHT_START.A
TARGET_POS.B = TAUGHT_START.B
TARGET_POS.C = TAUGHT_START.C
LIN TARGET_POS C_DIS
CONTINUE
OFFSET_POS = {X -37.158, Y -20.083, Z 2.500, A 0, B 0, C 0}
TARGET_POS = TAUGHT_START
TARGET_POS.X = TAUGHT_START.X + OFFSET_POS.X
TARGET_POS.Y = TAUGHT_START.Y + OFFSET_POS.Y
TARGET_POS.Z = TAUGHT_START.Z + OFFSET_POS.Z
TARGET_POS.A = TAUGHT_START.A
TARGET_POS.B = TAUGHT_START.B
TARGET_POS.C = TAUGHT_START.C
LIN TARGET_POS C_DIS
CONTINUE
OFFSET_POS = {X -36.941, Y -19.746, Z 2.500, A 0, B 0, C 0}
TARGET_POS = TAUGHT_START
TARGET_POS.X = TAUGHT_START.X + OFFSET_POS.X
TARGET_POS.Y = TAUGHT_START.Y + OFFSET_POS.Y
TARGET_POS.Z = TAUGHT_START.Z + OFFSET_POS.Z
TARGET_POS.A = TAUGHT_START.A
TARGET_POS.B = TAUGHT_START.B
TARGET_POS.C = TAUGHT_START.C
LIN TARGET_POS C_DIS
CONTINUE
OFFSET_POS = {X -36.724, Y -19.408, Z 2.500, A 0, B 0, C 0}
TARGET_POS = TAUGHT_START
TARGET_POS.X = TAUGHT_START.X + OFFSET_POS.X
TARGET_POS.Y = TAUGHT_START.Y + OFFSET_POS.Y
TARGET_POS.Z = TAUGHT_START.Z + OFFSET_POS.Z
TARGET_POS.A = TAUGHT_START.A
TARGET_POS.B = TAUGHT_START.B
TARGET_POS.C = TAUGHT_START.C
LIN TARGET_POS C_DIS
CONTINUE
OFFSET_POS = {X -36.508, Y -19.071, Z 2.500, A 0, B 0, C 0}
TARGET_POS = TAUGHT_START
TARGET_POS.X = TAUGHT_START.X + OFFSET_POS.X
TARGET_POS.Y = TAUGHT_START.Y + OFFSET_POS.Y
TARGET_POS.Z = TAUGHT_START.Z + OFFSET_POS.Z
TARGET_POS.A = TAUGHT_START.A
TARGET_POS.B = TAUGHT_START.B
TARGET_POS.C = TAUGHT_START.C
LIN TARGET_POS C_DIS
CONTINUE
OFFSET_POS = {X -36.291, Y -18.734, Z 2.500, A 0, B 0, C 0}
TARGET_POS = TAUGHT_START
TARGET_POS.X = TAUGHT_START.X + OFFSET_POS.X
TARGET_POS.Y = TAUGHT_START.Y + OFFSET_POS.Y
TARGET_POS.Z = TAUGHT_START.Z + OFFSET_POS.Z
TARGET_POS.A = TAUGHT_START.A
TARGET_POS.B = TAUGHT_START.B
TARGET_POS.C = TAUGHT_START.C
LIN TARGET_POS C_DIS
$OUT[1] = FALSE
WAIT SEC 0.200
; Lift Z by 10.0mm to avoid scratching welded bead
LIN_REL {Z 10.0}
; Stabilization delay - ensures travel motion completes before Z lowers
WAIT SEC 5.0
;Waiting for TEMP_VAR to go high indicating temperature reached before next layer
WAIT SEC 30
WAIT FOR TEMP_VAR
WAIT SEC 30
; Lower Z back to weld height
LIN_REL {Z -10.0}
OFFSET_POS = {X -32.852, Y -13.123, Z 2.500, A 0, B 0, C 0}
TARGET_POS = TAUGHT_START
TARGET_POS.X = TAUGHT_START.X + OFFSET_POS.X
TARGET_POS.Y = TAUGHT_START.Y + OFFSET_POS.Y
TARGET_POS.Z = TAUGHT_START.Z + OFFSET_POS.Z
TARGET_POS.A = TAUGHT_START.A
TARGET_POS.B = TAUGHT_START.B
TARGET_POS.C = TAUGHT_START.C
LIN TARGET_POS C_DIS
$OUT[1] = TRUE
WAIT SEC 0.200
OFFSET_POS = {X -32.941, Y -13.061, Z 2.500, A 0, B 0, C 0}
TARGET_POS = TAUGHT_START
TARGET_POS.X = TAUGHT_START.X + OFFSET_POS.X
TARGET_POS.Y = TAUGHT_START.Y + OFFSET_POS.Y
TARGET_POS.Z = TAUGHT_START.Z + OFFSET_POS.Z
TARGET_POS.A = TAUGHT_START.A
TARGET_POS.B = TAUGHT_START.B
TARGET_POS.C = TAUGHT_START.C
LIN TARGET_POS C_DIS
CONTINUE
OFFSET_POS = {X -33.138, Y -12.901, Z 2.500, A 0, B 0, C 0}
TARGET_POS = TAUGHT_START
TARGET_POS.X = TAUGHT_START.X + OFFSET_POS.X
TARGET_POS.Y = TAUGHT_START.Y + OFFSET_POS.Y
TARGET_POS.Z = TAUGHT_START.Z + OFFSET_POS.Z
TARGET_POS.A = TAUGHT_START.A
TARGET_POS.B = TAUGHT_START.B
TARGET_POS.C = TAUGHT_START.C
LIN TARGET_POS C_DIS
CONTINUE
OFFSET_POS = {X -33.607, Y -12.554, Z 2.500, A 0, B 0, C 0}
TARGET_POS = TAUGHT_START
TARGET_POS.X = TAUGHT_START.X + OFFSET_POS.X
TARGET_POS.Y = TAUGHT_START.Y + OFFSET_POS.Y
TARGET_POS.Z = TAUGHT_START.Z + OFFSET_POS.Z
TARGET_POS.A = TAUGHT_START.A
TARGET_POS.B = TAUGHT_START.B
TARGET_POS.C = TAUGHT_START.C
LIN TARGET_POS C_DIS
CONTINUE
OFFSET_POS = {X -34.077, Y -12.206, Z 2.500, A 0, B 0, C 0}
TARGET_POS = TAUGHT_START
TARGET_POS.X = TAUGHT_START.X + OFFSET_POS.X
TARGET_POS.Y = TAUGHT_START.Y + OFFSET_POS.Y
TARGET_POS.Z = TAUGHT_START.Z + OFFSET_POS.Z
TARGET_POS.A = TAUGHT_START.A
TARGET_POS.B = TAUGHT_START.B
TARGET_POS.C = TAUGHT_START.C
LIN TARGET_POS C_DIS
CONTINUE
OFFSET_POS = {X -34.472, Y -11.871, Z 2.500, A 0, B 0, C 0}
TARGET_POS = TAUGHT_START
TARGET_POS.X = TAUGHT_START.X + OFFSET_POS.X
TARGET_POS.Y = TAUGHT_START.Y + OFFSET_POS.Y
TARGET_POS.Z = TAUGHT_START.Z + OFFSET_POS.Z
TARGET_POS.A = TAUGHT_START.A
TARGET_POS.B = TAUGHT_START.B
TARGET_POS.C = TAUGHT_START.C
LIN TARGET_POS C_DIS
CONTINUE
OFFSET_POS = {X -35.546, Y -10.853, Z 2.500, A 0, B 0, C 0}
TARGET_POS = TAUGHT_START
TARGET_POS.X = TAUGHT_START.X + OFFSET_POS.X
TARGET_POS.Y = TAUGHT_START.Y + OFFSET_POS.Y
TARGET_POS.Z = TAUGHT_START.Z + OFFSET_POS.Z
TARGET_POS.A = TAUGHT_START.A
TARGET_POS.B = TAUGHT_START.B
TARGET_POS.C = TAUGHT_START.C
LIN TARGET_POS C_DIS
CONTINUE
OFFSET_POS = {X -36.226, Y -10.170, Z 2.500, A 0, B 0, C 0}
TARGET_POS = TAUGHT_START
TARGET_POS.X = TAUGHT_START.X + OFFSET_POS.X
TARGET_POS.Y = TAUGHT_START.Y + OFFSET_POS.Y
TARGET_POS.Z = TAUGHT_START.Z + OFFSET_POS.Z
TARGET_POS.A = TAUGHT_START.A
TARGET_POS.B = TAUGHT_START.B
TARGET_POS.C = TAUGHT_START.C
LIN TARGET_POS C_DIS
CONTINUE
OFFSET_POS = {X -38.013, Y -7.791, Z 2.500, A 0, B 0, C 0}
TARGET_POS = TAUGHT_START
TARGET_POS.X = TAUGHT_START.X + OFFSET_POS.X
TARGET_POS.Y = TAUGHT_START.Y + OFFSET_POS.Y
TARGET_POS.Z = TAUGHT_START.Z + OFFSET_POS.Z
TARGET_POS.A = TAUGHT_START.A
TARGET_POS.B = TAUGHT_START.B
TARGET_POS.C = TAUGHT_START.C
LIN TARGET_POS C_DIS
CONTINUE
OFFSET_POS = {X -38.240, Y -7.392, Z 2.500, A 0, B 0, C 0}
TARGET_POS = TAUGHT_START
TARGET_POS.X = TAUGHT_START.X + OFFSET_POS.X
TARGET_POS.Y = TAUGHT_START.Y + OFFSET_POS.Y
TARGET_POS.Z = TAUGHT_START.Z + OFFSET_POS.Z
TARGET_POS.A = TAUGHT_START.A
TARGET_POS.B = TAUGHT_START.B
TARGET_POS.C = TAUGHT_START.C
LIN TARGET_POS C_DIS
CONTINUE
OFFSET_POS = {X -39.311, Y -5.174, Z 2.500, A 0, B 0, C 0}
TARGET_POS = TAUGHT_START
TARGET_POS.X = TAUGHT_START.X + OFFSET_POS.X
TARGET_POS.Y = TAUGHT_START.Y + OFFSET_POS.Y
TARGET_POS.Z = TAUGHT_START.Z + OFFSET_POS.Z
TARGET_POS.A = TAUGHT_START.A
TARGET_POS.B = TAUGHT_START.B
TARGET_POS.C = TAUGHT_START.C
LIN TARGET_POS C_DIS
CONTINUE
OFFSET_POS = {X -39.443, Y -4.839, Z 2.500, A 0, B 0, C 0}
TARGET_POS = TAUGHT_START
TARGET_POS.X = TAUGHT_START.X + OFFSET_POS.X
TARGET_POS.Y = TAUGHT_START.Y + OFFSET_POS.Y
TARGET_POS.Z = TAUGHT_START.Z + OFFSET_POS.Z
TARGET_POS.A = TAUGHT_START.A
TARGET_POS.B = TAUGHT_START.B
TARGET_POS.C = TAUGHT_START.C
LIN TARGET_POS C_DIS
CONTINUE
OFFSET_POS = {X -39.485, Y -4.709, Z 2.500, A 0, B 0, C 0}
TARGET_POS = TAUGHT_START
TARGET_POS.X = TAUGHT_START.X + OFFSET_POS.X
TARGET_POS.Y = TAUGHT_START.Y + OFFSET_POS.Y
TARGET_POS.Z = TAUGHT_START.Z + OFFSET_POS.Z
TARGET_POS.A = TAUGHT_START.A
TARGET_POS.B = TAUGHT_START.B
TARGET_POS.C = TAUGHT_START.C
LIN TARGET_POS C_DIS
CONTINUE
OFFSET_POS = {X -39.727, Y -3.934, Z 2.500, A 0, B 0, C 0}
TARGET_POS = TAUGHT_START
TARGET_POS.X = TAUGHT_START.X + OFFSET_POS.X
TARGET_POS.Y = TAUGHT_START.Y + OFFSET_POS.Y
TARGET_POS.Z = TAUGHT_START.Z + OFFSET_POS.Z
TARGET_POS.A = TAUGHT_START.A
TARGET_POS.B = TAUGHT_START.B
TARGET_POS.C = TAUGHT_START.C
LIN TARGET_POS C_DIS
CONTINUE
OFFSET_POS = {X -40.067, Y -2.738, Z 2.500, A 0, B 0, C 0}
TARGET_POS = TAUGHT_START
TARGET_POS.X = TAUGHT_START.X + OFFSET_POS.X
TARGET_POS.Y = TAUGHT_START.Y + OFFSET_POS.Y
TARGET_POS.Z = TAUGHT_START.Z + OFFSET_POS.Z
TARGET_POS.A = TAUGHT_START.A
TARGET_POS.B = TAUGHT_START.B
TARGET_POS.C = TAUGHT_START.C
LIN TARGET_POS C_DIS
CONTINUE
OFFSET_POS = {X -40.165, Y -2.316, Z 2.500, A 0, B 0, C 0}
TARGET_POS = TAUGHT_START
TARGET_POS.X = TAUGHT_START.X + OFFSET_POS.X
TARGET_POS.Y = TAUGHT_START.Y + OFFSET_POS.Y
TARGET_POS.Z = TAUGHT_START.Z + OFFSET_POS.Z
TARGET_POS.A = TAUGHT_START.A
TARGET_POS.B = TAUGHT_START.B
TARGET_POS.C = TAUGHT_START.C
LIN TARGET_POS C_DIS
CONTINUE
OFFSET_POS = {X -40.252, Y -1.852, Z 2.500, A 0, B 0, C 0}
TARGET_POS = TAUGHT_START
TARGET_POS.X = TAUGHT_START.X + OFFSET_POS.X
TARGET_POS.Y = TAUGHT_START.Y + OFFSET_POS.Y
TARGET_POS.Z = TAUGHT_START.Z + OFFSET_POS.Z
TARGET_POS.A = TAUGHT_START.A
TARGET_POS.B = TAUGHT_START.B
TARGET_POS.C = TAUGHT_START.C
LIN TARGET_POS C_DIS
CONTINUE
OFFSET_POS = {X -40.333, Y -1.287, Z 2.500, A 0, B 0, C 0}
TARGET_POS = TAUGHT_START
TARGET_POS.X = TAUGHT_START.X + OFFSET_POS.X
TARGET_POS.Y = TAUGHT_START.Y + OFFSET_POS.Y
TARGET_POS.Z = TAUGHT_START.Z + OFFSET_POS.Z
TARGET_POS.A = TAUGHT_START.A
TARGET_POS.B = TAUGHT_START.B
TARGET_POS.C = TAUGHT_START.C
LIN TARGET_POS C_DIS
CONTINUE
OFFSET_POS = {X -40.460, Y -0.050, Z 2.500, A 0, B 0, C 0}
TARGET_POS = TAUGHT_START
TARGET_POS.X = TAUGHT_START.X + OFFSET_POS.X
TARGET_POS.Y = TAUGHT_START.Y + OFFSET_POS.Y
TARGET_POS.Z = TAUGHT_START.Z + OFFSET_POS.Z
TARGET_POS.A = TAUGHT_START.A
TARGET_POS.B = TAUGHT_START.B
TARGET_POS.C = TAUGHT_START.C
LIN TARGET_POS C_DIS
CONTINUE
OFFSET_POS = {X -40.506, Y 0.622, Z 2.500, A 0, B 0, C 0}
TARGET_POS = TAUGHT_START
TARGET_POS.X = TAUGHT_START.X + OFFSET_POS.X
TARGET_POS.Y = TAUGHT_START.Y + OFFSET_POS.Y
TARGET_POS.Z = TAUGHT_START.Z + OFFSET_POS.Z
TARGET_POS.A = TAUGHT_START.A
TARGET_POS.B = TAUGHT_START.B
TARGET_POS.C = TAUGHT_START.C
LIN TARGET_POS C_DIS
CONTINUE
OFFSET_POS = {X -40.506, Y 1.188, Z 2.500, A 0, B 0, C 0}
TARGET_POS = TAUGHT_START
TARGET_POS.X = TAUGHT_START.X + OFFSET_POS.X
TARGET_POS.Y = TAUGHT_START.Y + OFFSET_POS.Y
TARGET_POS.Z = TAUGHT_START.Z + OFFSET_POS.Z
TARGET_POS.A = TAUGHT_START.A
TARGET_POS.B = TAUGHT_START.B
TARGET_POS.C = TAUGHT_START.C
LIN TARGET_POS C_DIS
CONTINUE
OFFSET_POS = {X -40.422, Y 2.665, Z 2.500, A 0, B 0, C 0}
TARGET_POS = TAUGHT_START
TARGET_POS.X = TAUGHT_START.X + OFFSET_POS.X
TARGET_POS.Y = TAUGHT_START.Y + OFFSET_POS.Y
TARGET_POS.Z = TAUGHT_START.Z + OFFSET_POS.Z
TARGET_POS.A = TAUGHT_START.A
TARGET_POS.B = TAUGHT_START.B
TARGET_POS.C = TAUGHT_START.C
LIN TARGET_POS C_DIS
CONTINUE
OFFSET_POS = {X -40.338, Y 3.576, Z 2.500, A 0, B 0, C 0}
TARGET_POS = TAUGHT_START
TARGET_POS.X = TAUGHT_START.X + OFFSET_POS.X
TARGET_POS.Y = TAUGHT_START.Y + OFFSET_POS.Y
TARGET_POS.Z = TAUGHT_START.Z + OFFSET_POS.Z
TARGET_POS.A = TAUGHT_START.A
TARGET_POS.B = TAUGHT_START.B
TARGET_POS.C = TAUGHT_START.C
LIN TARGET_POS C_DIS
CONTINUE
OFFSET_POS = {X -40.288, Y 3.910, Z 2.500, A 0, B 0, C 0}
TARGET_POS = TAUGHT_START
TARGET_POS.X = TAUGHT_START.X + OFFSET_POS.X
TARGET_POS.Y = TAUGHT_START.Y + OFFSET_POS.Y
TARGET_POS.Z = TAUGHT_START.Z + OFFSET_POS.Z
TARGET_POS.A = TAUGHT_START.A
TARGET_POS.B = TAUGHT_START.B
TARGET_POS.C = TAUGHT_START.C
LIN TARGET_POS C_DIS
CONTINUE
OFFSET_POS = {X -39.560, Y 6.770, Z 2.500, A 0, B 0, C 0}
TARGET_POS = TAUGHT_START
TARGET_POS.X = TAUGHT_START.X + OFFSET_POS.X
TARGET_POS.Y = TAUGHT_START.Y + OFFSET_POS.Y
TARGET_POS.Z = TAUGHT_START.Z + OFFSET_POS.Z
TARGET_POS.A = TAUGHT_START.A
TARGET_POS.B = TAUGHT_START.B
TARGET_POS.C = TAUGHT_START.C
LIN TARGET_POS C_DIS
CONTINUE
OFFSET_POS = {X -39.506, Y 6.904, Z 2.500, A 0, B 0, C 0}
TARGET_POS = TAUGHT_START
TARGET_POS.X = TAUGHT_START.X + OFFSET_POS.X
TARGET_POS.Y = TAUGHT_START.Y + OFFSET_POS.Y
TARGET_POS.Z = TAUGHT_START.Z + OFFSET_POS.Z
TARGET_POS.A = TAUGHT_START.A
TARGET_POS.B = TAUGHT_START.B
TARGET_POS.C = TAUGHT_START.C
LIN TARGET_POS C_DIS
CONTINUE
OFFSET_POS = {X -39.256, Y 7.504, Z 2.500, A 0, B 0, C 0}
TARGET_POS = TAUGHT_START
TARGET_POS.X = TAUGHT_START.X + OFFSET_POS.X
TARGET_POS.Y = TAUGHT_START.Y + OFFSET_POS.Y
TARGET_POS.Z = TAUGHT_START.Z + OFFSET_POS.Z
TARGET_POS.A = TAUGHT_START.A
TARGET_POS.B = TAUGHT_START.B
TARGET_POS.C = TAUGHT_START.C
LIN TARGET_POS C_DIS
CONTINUE
OFFSET_POS = {X -38.827, Y 8.458, Z 2.500, A 0, B 0, C 0}
TARGET_POS = TAUGHT_START
TARGET_POS.X = TAUGHT_START.X + OFFSET_POS.X
TARGET_POS.Y = TAUGHT_START.Y + OFFSET_POS.Y
TARGET_POS.Z = TAUGHT_START.Z + OFFSET_POS.Z
TARGET_POS.A = TAUGHT_START.A
TARGET_POS.B = TAUGHT_START.B
TARGET_POS.C = TAUGHT_START.C
LIN TARGET_POS C_DIS
CONTINUE
OFFSET_POS = {X -38.648, Y 8.811, Z 2.500, A 0, B 0, C 0}
TARGET_POS = TAUGHT_START
TARGET_POS.X = TAUGHT_START.X + OFFSET_POS.X
TARGET_POS.Y = TAUGHT_START.Y + OFFSET_POS.Y
TARGET_POS.Z = TAUGHT_START.Z + OFFSET_POS.Z
TARGET_POS.A = TAUGHT_START.A
TARGET_POS.B = TAUGHT_START.B
TARGET_POS.C = TAUGHT_START.C
LIN TARGET_POS C_DIS
CONTINUE
OFFSET_POS = {X -38.468, Y 9.165, Z 2.500, A 0, B 0, C 0}
TARGET_POS = TAUGHT_START
TARGET_POS.X = TAUGHT_START.X + OFFSET_POS.X
TARGET_POS.Y = TAUGHT_START.Y + OFFSET_POS.Y
TARGET_POS.Z = TAUGHT_START.Z + OFFSET_POS.Z
TARGET_POS.A = TAUGHT_START.A
TARGET_POS.B = TAUGHT_START.B
TARGET_POS.C = TAUGHT_START.C
LIN TARGET_POS C_DIS
CONTINUE
OFFSET_POS = {X -38.238, Y 9.574, Z 2.500, A 0, B 0, C 0}
TARGET_POS = TAUGHT_START
TARGET_POS.X = TAUGHT_START.X + OFFSET_POS.X
TARGET_POS.Y = TAUGHT_START.Y + OFFSET_POS.Y
TARGET_POS.Z = TAUGHT_START.Z + OFFSET_POS.Z
TARGET_POS.A = TAUGHT_START.A
TARGET_POS.B = TAUGHT_START.B
TARGET_POS.C = TAUGHT_START.C
LIN TARGET_POS C_DIS
CONTINUE
OFFSET_POS = {X -37.972, Y 10.001, Z 2.500, A 0, B 0, C 0}
TARGET_POS = TAUGHT_START
TARGET_POS.X = TAUGHT_START.X + OFFSET_POS.X
TARGET_POS.Y = TAUGHT_START.Y + OFFSET_POS.Y
TARGET_POS.Z = TAUGHT_START.Z + OFFSET_POS.Z
TARGET_POS.A = TAUGHT_START.A
TARGET_POS.B = TAUGHT_START.B
TARGET_POS.C = TAUGHT_START.C
LIN TARGET_POS C_DIS
CONTINUE
OFFSET_POS = {X -37.706, Y 10.428, Z 2.500, A 0, B 0, C 0}
TARGET_POS = TAUGHT_START
TARGET_POS.X = TAUGHT_START.X + OFFSET_POS.X
TARGET_POS.Y = TAUGHT_START.Y + OFFSET_POS.Y
TARGET_POS.Z = TAUGHT_START.Z + OFFSET_POS.Z
TARGET_POS.A = TAUGHT_START.A
TARGET_POS.B = TAUGHT_START.B
TARGET_POS.C = TAUGHT_START.C
LIN TARGET_POS C_DIS
CONTINUE
OFFSET_POS = {X -37.152, Y 11.251, Z 2.500, A 0, B 0, C 0}
TARGET_POS = TAUGHT_START
TARGET_POS.X = TAUGHT_START.X + OFFSET_POS.X
TARGET_POS.Y = TAUGHT_START.Y + OFFSET_POS.Y
TARGET_POS.Z = TAUGHT_START.Z + OFFSET_POS.Z
TARGET_POS.A = TAUGHT_START.A
TARGET_POS.B = TAUGHT_START.B
TARGET_POS.C = TAUGHT_START.C
LIN TARGET_POS C_DIS
CONTINUE
OFFSET_POS = {X -36.863, Y 11.647, Z 2.500, A 0, B 0, C 0}
TARGET_POS = TAUGHT_START
TARGET_POS.X = TAUGHT_START.X + OFFSET_POS.X
TARGET_POS.Y = TAUGHT_START.Y + OFFSET_POS.Y
TARGET_POS.Z = TAUGHT_START.Z + OFFSET_POS.Z
TARGET_POS.A = TAUGHT_START.A
TARGET_POS.B = TAUGHT_START.B
TARGET_POS.C = TAUGHT_START.C
LIN TARGET_POS C_DIS
CONTINUE
OFFSET_POS = {X -34.831, Y 13.800, Z 2.500, A 0, B 0, C 0}
TARGET_POS = TAUGHT_START
TARGET_POS.X = TAUGHT_START.X + OFFSET_POS.X
TARGET_POS.Y = TAUGHT_START.Y + OFFSET_POS.Y
TARGET_POS.Z = TAUGHT_START.Z + OFFSET_POS.Z
TARGET_POS.A = TAUGHT_START.A
TARGET_POS.B = TAUGHT_START.B
TARGET_POS.C = TAUGHT_START.C
LIN TARGET_POS C_DIS
CONTINUE
OFFSET_POS = {X -32.454, Y 15.563, Z 2.500, A 0, B 0, C 0}
TARGET_POS = TAUGHT_START
TARGET_POS.X = TAUGHT_START.X + OFFSET_POS.X
TARGET_POS.Y = TAUGHT_START.Y + OFFSET_POS.Y
TARGET_POS.Z = TAUGHT_START.Z + OFFSET_POS.Z
TARGET_POS.A = TAUGHT_START.A
TARGET_POS.B = TAUGHT_START.B
TARGET_POS.C = TAUGHT_START.C
LIN TARGET_POS C_DIS
CONTINUE
OFFSET_POS = {X -32.202, Y 15.720, Z 2.500, A 0, B 0, C 0}
TARGET_POS = TAUGHT_START
TARGET_POS.X = TAUGHT_START.X + OFFSET_POS.X
TARGET_POS.Y = TAUGHT_START.Y + OFFSET_POS.Y
TARGET_POS.Z = TAUGHT_START.Z + OFFSET_POS.Z
TARGET_POS.A = TAUGHT_START.A
TARGET_POS.B = TAUGHT_START.B
TARGET_POS.C = TAUGHT_START.C
LIN TARGET_POS C_DIS
CONTINUE
OFFSET_POS = {X -31.951, Y 15.877, Z 2.500, A 0, B 0, C 0}
TARGET_POS = TAUGHT_START
TARGET_POS.X = TAUGHT_START.X + OFFSET_POS.X
TARGET_POS.Y = TAUGHT_START.Y + OFFSET_POS.Y
TARGET_POS.Z = TAUGHT_START.Z + OFFSET_POS.Z
TARGET_POS.A = TAUGHT_START.A
TARGET_POS.B = TAUGHT_START.B
TARGET_POS.C = TAUGHT_START.C
LIN TARGET_POS C_DIS
CONTINUE
OFFSET_POS = {X -31.699, Y 16.034, Z 2.500, A 0, B 0, C 0}
TARGET_POS = TAUGHT_START
TARGET_POS.X = TAUGHT_START.X + OFFSET_POS.X
TARGET_POS.Y = TAUGHT_START.Y + OFFSET_POS.Y
TARGET_POS.Z = TAUGHT_START.Z + OFFSET_POS.Z
TARGET_POS.A = TAUGHT_START.A
TARGET_POS.B = TAUGHT_START.B
TARGET_POS.C = TAUGHT_START.C
LIN TARGET_POS C_DIS
CONTINUE
OFFSET_POS = {X -31.524, Y 16.147, Z 2.500, A 0, B 0, C 0}
TARGET_POS = TAUGHT_START
TARGET_POS.X = TAUGHT_START.X + OFFSET_POS.X
TARGET_POS.Y = TAUGHT_START.Y + OFFSET_POS.Y
TARGET_POS.Z = TAUGHT_START.Z + OFFSET_POS.Z
TARGET_POS.A = TAUGHT_START.A
TARGET_POS.B = TAUGHT_START.B
TARGET_POS.C = TAUGHT_START.C
LIN TARGET_POS C_DIS
CONTINUE
OFFSET_POS = {X -31.183, Y 16.320, Z 2.500, A 0, B 0, C 0}
TARGET_POS = TAUGHT_START
TARGET_POS.X = TAUGHT_START.X + OFFSET_POS.X
TARGET_POS.Y = TAUGHT_START.Y + OFFSET_POS.Y
TARGET_POS.Z = TAUGHT_START.Z + OFFSET_POS.Z
TARGET_POS.A = TAUGHT_START.A
TARGET_POS.B = TAUGHT_START.B
TARGET_POS.C = TAUGHT_START.C
LIN TARGET_POS C_DIS
CONTINUE
OFFSET_POS = {X -31.018, Y 16.381, Z 2.500, A 0, B 0, C 0}
TARGET_POS = TAUGHT_START
TARGET_POS.X = TAUGHT_START.X + OFFSET_POS.X
TARGET_POS.Y = TAUGHT_START.Y + OFFSET_POS.Y
TARGET_POS.Z = TAUGHT_START.Z + OFFSET_POS.Z
TARGET_POS.A = TAUGHT_START.A
TARGET_POS.B = TAUGHT_START.B
TARGET_POS.C = TAUGHT_START.C
LIN TARGET_POS C_DIS
CONTINUE
OFFSET_POS = {X -30.714, Y 16.505, Z 2.500, A 0, B 0, C 0}
TARGET_POS = TAUGHT_START
TARGET_POS.X = TAUGHT_START.X + OFFSET_POS.X
TARGET_POS.Y = TAUGHT_START.Y + OFFSET_POS.Y
TARGET_POS.Z = TAUGHT_START.Z + OFFSET_POS.Z
TARGET_POS.A = TAUGHT_START.A
TARGET_POS.B = TAUGHT_START.B
TARGET_POS.C = TAUGHT_START.C
LIN TARGET_POS C_DIS
CONTINUE
OFFSET_POS = {X -30.410, Y 16.628, Z 2.500, A 0, B 0, C 0}
TARGET_POS = TAUGHT_START
TARGET_POS.X = TAUGHT_START.X + OFFSET_POS.X
TARGET_POS.Y = TAUGHT_START.Y + OFFSET_POS.Y
TARGET_POS.Z = TAUGHT_START.Z + OFFSET_POS.Z
TARGET_POS.A = TAUGHT_START.A
TARGET_POS.B = TAUGHT_START.B
TARGET_POS.C = TAUGHT_START.C
LIN TARGET_POS C_DIS
CONTINUE
OFFSET_POS = {X -30.106, Y 16.751, Z 2.500, A 0, B 0, C 0}
TARGET_POS = TAUGHT_START
TARGET_POS.X = TAUGHT_START.X + OFFSET_POS.X
TARGET_POS.Y = TAUGHT_START.Y + OFFSET_POS.Y
TARGET_POS.Z = TAUGHT_START.Z + OFFSET_POS.Z
TARGET_POS.A = TAUGHT_START.A
TARGET_POS.B = TAUGHT_START.B
TARGET_POS.C = TAUGHT_START.C
LIN TARGET_POS C_DIS
CONTINUE
OFFSET_POS = {X -29.802, Y 16.874, Z 2.500, A 0, B 0, C 0}
TARGET_POS = TAUGHT_START
TARGET_POS.X = TAUGHT_START.X + OFFSET_POS.X
TARGET_POS.Y = TAUGHT_START.Y + OFFSET_POS.Y
TARGET_POS.Z = TAUGHT_START.Z + OFFSET_POS.Z
TARGET_POS.A = TAUGHT_START.A
TARGET_POS.B = TAUGHT_START.B
TARGET_POS.C = TAUGHT_START.C
LIN TARGET_POS C_DIS
CONTINUE
OFFSET_POS = {X -29.359, Y 17.031, Z 2.500, A 0, B 0, C 0}
TARGET_POS = TAUGHT_START
TARGET_POS.X = TAUGHT_START.X + OFFSET_POS.X
TARGET_POS.Y = TAUGHT_START.Y + OFFSET_POS.Y
TARGET_POS.Z = TAUGHT_START.Z + OFFSET_POS.Z
TARGET_POS.A = TAUGHT_START.A
TARGET_POS.B = TAUGHT_START.B
TARGET_POS.C = TAUGHT_START.C
LIN TARGET_POS C_DIS
CONTINUE
OFFSET_POS = {X -28.235, Y 17.376, Z 2.500, A 0, B 0, C 0}
TARGET_POS = TAUGHT_START
TARGET_POS.X = TAUGHT_START.X + OFFSET_POS.X
TARGET_POS.Y = TAUGHT_START.Y + OFFSET_POS.Y
TARGET_POS.Z = TAUGHT_START.Z + OFFSET_POS.Z
TARGET_POS.A = TAUGHT_START.A
TARGET_POS.B = TAUGHT_START.B
TARGET_POS.C = TAUGHT_START.C
LIN TARGET_POS C_DIS
CONTINUE
OFFSET_POS = {X -26.620, Y 17.813, Z 2.500, A 0, B 0, C 0}
TARGET_POS = TAUGHT_START
TARGET_POS.X = TAUGHT_START.X + OFFSET_POS.X
TARGET_POS.Y = TAUGHT_START.Y + OFFSET_POS.Y
TARGET_POS.Z = TAUGHT_START.Z + OFFSET_POS.Z
TARGET_POS.A = TAUGHT_START.A
TARGET_POS.B = TAUGHT_START.B
TARGET_POS.C = TAUGHT_START.C
LIN TARGET_POS C_DIS
CONTINUE
OFFSET_POS = {X -26.510, Y 17.828, Z 2.500, A 0, B 0, C 0}
TARGET_POS = TAUGHT_START
TARGET_POS.X = TAUGHT_START.X + OFFSET_POS.X
TARGET_POS.Y = TAUGHT_START.Y + OFFSET_POS.Y
TARGET_POS.Z = TAUGHT_START.Z + OFFSET_POS.Z
TARGET_POS.A = TAUGHT_START.A
TARGET_POS.B = TAUGHT_START.B
TARGET_POS.C = TAUGHT_START.C
LIN TARGET_POS C_DIS
CONTINUE
OFFSET_POS = {X -25.638, Y 17.936, Z 2.500, A 0, B 0, C 0}
TARGET_POS = TAUGHT_START
TARGET_POS.X = TAUGHT_START.X + OFFSET_POS.X
TARGET_POS.Y = TAUGHT_START.Y + OFFSET_POS.Y
TARGET_POS.Z = TAUGHT_START.Z + OFFSET_POS.Z
TARGET_POS.A = TAUGHT_START.A
TARGET_POS.B = TAUGHT_START.B
TARGET_POS.C = TAUGHT_START.C
LIN TARGET_POS C_DIS
CONTINUE
OFFSET_POS = {X -24.400, Y 18.062, Z 2.500, A 0, B 0, C 0}
TARGET_POS = TAUGHT_START
TARGET_POS.X = TAUGHT_START.X + OFFSET_POS.X
TARGET_POS.Y = TAUGHT_START.Y + OFFSET_POS.Y
TARGET_POS.Z = TAUGHT_START.Z + OFFSET_POS.Z
TARGET_POS.A = TAUGHT_START.A
TARGET_POS.B = TAUGHT_START.B
TARGET_POS.C = TAUGHT_START.C
LIN TARGET_POS C_DIS
CONTINUE
OFFSET_POS = {X -24.036, Y 18.080, Z 2.500, A 0, B 0, C 0}
TARGET_POS = TAUGHT_START
TARGET_POS.X = TAUGHT_START.X + OFFSET_POS.X
TARGET_POS.Y = TAUGHT_START.Y + OFFSET_POS.Y
TARGET_POS.Z = TAUGHT_START.Z + OFFSET_POS.Z
TARGET_POS.A = TAUGHT_START.A
TARGET_POS.B = TAUGHT_START.B
TARGET_POS.C = TAUGHT_START.C
LIN TARGET_POS C_DIS
CONTINUE
OFFSET_POS = {X -23.563, Y 18.084, Z 2.500, A 0, B 0, C 0}
TARGET_POS = TAUGHT_START
TARGET_POS.X = TAUGHT_START.X + OFFSET_POS.X
TARGET_POS.Y = TAUGHT_START.Y + OFFSET_POS.Y
TARGET_POS.Z = TAUGHT_START.Z + OFFSET_POS.Z
TARGET_POS.A = TAUGHT_START.A
TARGET_POS.B = TAUGHT_START.B
TARGET_POS.C = TAUGHT_START.C
LIN TARGET_POS C_DIS
CONTINUE
OFFSET_POS = {X -22.924, Y 18.060, Z 2.500, A 0, B 0, C 0}
TARGET_POS = TAUGHT_START
TARGET_POS.X = TAUGHT_START.X + OFFSET_POS.X
TARGET_POS.Y = TAUGHT_START.Y + OFFSET_POS.Y
TARGET_POS.Z = TAUGHT_START.Z + OFFSET_POS.Z
TARGET_POS.A = TAUGHT_START.A
TARGET_POS.B = TAUGHT_START.B
TARGET_POS.C = TAUGHT_START.C
LIN TARGET_POS C_DIS
CONTINUE
OFFSET_POS = {X -21.684, Y 17.970, Z 2.500, A 0, B 0, C 0}
TARGET_POS = TAUGHT_START
TARGET_POS.X = TAUGHT_START.X + OFFSET_POS.X
TARGET_POS.Y = TAUGHT_START.Y + OFFSET_POS.Y
TARGET_POS.Z = TAUGHT_START.Z + OFFSET_POS.Z
TARGET_POS.A = TAUGHT_START.A
TARGET_POS.B = TAUGHT_START.B
TARGET_POS.C = TAUGHT_START.C
LIN TARGET_POS C_DIS
CONTINUE
OFFSET_POS = {X -21.082, Y 17.904, Z 2.500, A 0, B 0, C 0}
TARGET_POS = TAUGHT_START
TARGET_POS.X = TAUGHT_START.X + OFFSET_POS.X
TARGET_POS.Y = TAUGHT_START.Y + OFFSET_POS.Y
TARGET_POS.Z = TAUGHT_START.Z + OFFSET_POS.Z
TARGET_POS.A = TAUGHT_START.A
TARGET_POS.B = TAUGHT_START.B
TARGET_POS.C = TAUGHT_START.C
LIN TARGET_POS C_DIS
CONTINUE
OFFSET_POS = {X -20.440, Y 17.786, Z 2.500, A 0, B 0, C 0}
TARGET_POS = TAUGHT_START
TARGET_POS.X = TAUGHT_START.X + OFFSET_POS.X
TARGET_POS.Y = TAUGHT_START.Y + OFFSET_POS.Y
TARGET_POS.Z = TAUGHT_START.Z + OFFSET_POS.Z
TARGET_POS.A = TAUGHT_START.A
TARGET_POS.B = TAUGHT_START.B
TARGET_POS.C = TAUGHT_START.C
LIN TARGET_POS C_DIS
CONTINUE
OFFSET_POS = {X -18.270, Y 17.266, Z 2.500, A 0, B 0, C 0}
TARGET_POS = TAUGHT_START
TARGET_POS.X = TAUGHT_START.X + OFFSET_POS.X
TARGET_POS.Y = TAUGHT_START.Y + OFFSET_POS.Y
TARGET_POS.Z = TAUGHT_START.Z + OFFSET_POS.Z
TARGET_POS.A = TAUGHT_START.A
TARGET_POS.B = TAUGHT_START.B
TARGET_POS.C = TAUGHT_START.C
LIN TARGET_POS C_DIS
CONTINUE
OFFSET_POS = {X -17.755, Y 17.074, Z 2.500, A 0, B 0, C 0}
TARGET_POS = TAUGHT_START
TARGET_POS.X = TAUGHT_START.X + OFFSET_POS.X
TARGET_POS.Y = TAUGHT_START.Y + OFFSET_POS.Y
TARGET_POS.Z = TAUGHT_START.Z + OFFSET_POS.Z
TARGET_POS.A = TAUGHT_START.A
TARGET_POS.B = TAUGHT_START.B
TARGET_POS.C = TAUGHT_START.C
LIN TARGET_POS C_DIS
CONTINUE
OFFSET_POS = {X -16.825, Y 16.674, Z 2.500, A 0, B 0, C 0}
TARGET_POS = TAUGHT_START
TARGET_POS.X = TAUGHT_START.X + OFFSET_POS.X
TARGET_POS.Y = TAUGHT_START.Y + OFFSET_POS.Y
TARGET_POS.Z = TAUGHT_START.Z + OFFSET_POS.Z
TARGET_POS.A = TAUGHT_START.A
TARGET_POS.B = TAUGHT_START.B
TARGET_POS.C = TAUGHT_START.C
LIN TARGET_POS C_DIS
CONTINUE
OFFSET_POS = {X -15.291, Y 15.970, Z 2.500, A 0, B 0, C 0}
TARGET_POS = TAUGHT_START
TARGET_POS.X = TAUGHT_START.X + OFFSET_POS.X
TARGET_POS.Y = TAUGHT_START.Y + OFFSET_POS.Y
TARGET_POS.Z = TAUGHT_START.Z + OFFSET_POS.Z
TARGET_POS.A = TAUGHT_START.A
TARGET_POS.B = TAUGHT_START.B
TARGET_POS.C = TAUGHT_START.C
LIN TARGET_POS C_DIS
CONTINUE
OFFSET_POS = {X -13.159, Y 14.556, Z 2.500, A 0, B 0, C 0}
TARGET_POS = TAUGHT_START
TARGET_POS.X = TAUGHT_START.X + OFFSET_POS.X
TARGET_POS.Y = TAUGHT_START.Y + OFFSET_POS.Y
TARGET_POS.Z = TAUGHT_START.Z + OFFSET_POS.Z
TARGET_POS.A = TAUGHT_START.A
TARGET_POS.B = TAUGHT_START.B
TARGET_POS.C = TAUGHT_START.C
LIN TARGET_POS C_DIS
CONTINUE
OFFSET_POS = {X -12.942, Y 14.378, Z 2.500, A 0, B 0, C 0}
TARGET_POS = TAUGHT_START
TARGET_POS.X = TAUGHT_START.X + OFFSET_POS.X
TARGET_POS.Y = TAUGHT_START.Y + OFFSET_POS.Y
TARGET_POS.Z = TAUGHT_START.Z + OFFSET_POS.Z
TARGET_POS.A = TAUGHT_START.A
TARGET_POS.B = TAUGHT_START.B
TARGET_POS.C = TAUGHT_START.C
LIN TARGET_POS C_DIS
CONTINUE
OFFSET_POS = {X -12.724, Y 14.200, Z 2.500, A 0, B 0, C 0}
TARGET_POS = TAUGHT_START
TARGET_POS.X = TAUGHT_START.X + OFFSET_POS.X
TARGET_POS.Y = TAUGHT_START.Y + OFFSET_POS.Y
TARGET_POS.Z = TAUGHT_START.Z + OFFSET_POS.Z
TARGET_POS.A = TAUGHT_START.A
TARGET_POS.B = TAUGHT_START.B
TARGET_POS.C = TAUGHT_START.C
LIN TARGET_POS C_DIS
CONTINUE
OFFSET_POS = {X -12.647, Y 14.130, Z 2.500, A 0, B 0, C 0}
TARGET_POS = TAUGHT_START
TARGET_POS.X = TAUGHT_START.X + OFFSET_POS.X
TARGET_POS.Y = TAUGHT_START.Y + OFFSET_POS.Y
TARGET_POS.Z = TAUGHT_START.Z + OFFSET_POS.Z
TARGET_POS.A = TAUGHT_START.A
TARGET_POS.B = TAUGHT_START.B
TARGET_POS.C = TAUGHT_START.C
LIN TARGET_POS C_DIS
CONTINUE
OFFSET_POS = {X -11.979, Y 13.505, Z 2.500, A 0, B 0, C 0}
TARGET_POS = TAUGHT_START
TARGET_POS.X = TAUGHT_START.X + OFFSET_POS.X
TARGET_POS.Y = TAUGHT_START.Y + OFFSET_POS.Y
TARGET_POS.Z = TAUGHT_START.Z + OFFSET_POS.Z
TARGET_POS.A = TAUGHT_START.A
TARGET_POS.B = TAUGHT_START.B
TARGET_POS.C = TAUGHT_START.C
LIN TARGET_POS C_DIS
CONTINUE
OFFSET_POS = {X -11.086, Y 12.639, Z 2.500, A 0, B 0, C 0}
TARGET_POS = TAUGHT_START
TARGET_POS.X = TAUGHT_START.X + OFFSET_POS.X
TARGET_POS.Y = TAUGHT_START.Y + OFFSET_POS.Y
TARGET_POS.Z = TAUGHT_START.Z + OFFSET_POS.Z
TARGET_POS.A = TAUGHT_START.A
TARGET_POS.B = TAUGHT_START.B
TARGET_POS.C = TAUGHT_START.C
LIN TARGET_POS C_DIS
CONTINUE
OFFSET_POS = {X -10.862, Y 12.397, Z 2.500, A 0, B 0, C 0}
TARGET_POS = TAUGHT_START
TARGET_POS.X = TAUGHT_START.X + OFFSET_POS.X
TARGET_POS.Y = TAUGHT_START.Y + OFFSET_POS.Y
TARGET_POS.Z = TAUGHT_START.Z + OFFSET_POS.Z
TARGET_POS.A = TAUGHT_START.A
TARGET_POS.B = TAUGHT_START.B
TARGET_POS.C = TAUGHT_START.C
LIN TARGET_POS C_DIS
CONTINUE
OFFSET_POS = {X -10.557, Y 12.037, Z 2.500, A 0, B 0, C 0}
TARGET_POS = TAUGHT_START
TARGET_POS.X = TAUGHT_START.X + OFFSET_POS.X
TARGET_POS.Y = TAUGHT_START.Y + OFFSET_POS.Y
TARGET_POS.Z = TAUGHT_START.Z + OFFSET_POS.Z
TARGET_POS.A = TAUGHT_START.A
TARGET_POS.B = TAUGHT_START.B
TARGET_POS.C = TAUGHT_START.C
LIN TARGET_POS C_DIS
CONTINUE
OFFSET_POS = {X -10.132, Y 11.490, Z 2.500, A 0, B 0, C 0}
TARGET_POS = TAUGHT_START
TARGET_POS.X = TAUGHT_START.X + OFFSET_POS.X
TARGET_POS.Y = TAUGHT_START.Y + OFFSET_POS.Y
TARGET_POS.Z = TAUGHT_START.Z + OFFSET_POS.Z
TARGET_POS.A = TAUGHT_START.A
TARGET_POS.B = TAUGHT_START.B
TARGET_POS.C = TAUGHT_START.C
LIN TARGET_POS C_DIS
CONTINUE
OFFSET_POS = {X -9.397, Y 10.487, Z 2.500, A 0, B 0, C 0}
TARGET_POS = TAUGHT_START
TARGET_POS.X = TAUGHT_START.X + OFFSET_POS.X
TARGET_POS.Y = TAUGHT_START.Y + OFFSET_POS.Y
TARGET_POS.Z = TAUGHT_START.Z + OFFSET_POS.Z
TARGET_POS.A = TAUGHT_START.A
TARGET_POS.B = TAUGHT_START.B
TARGET_POS.C = TAUGHT_START.C
LIN TARGET_POS C_DIS
CONTINUE
OFFSET_POS = {X -9.086, Y 10.031, Z 2.500, A 0, B 0, C 0}
TARGET_POS = TAUGHT_START
TARGET_POS.X = TAUGHT_START.X + OFFSET_POS.X
TARGET_POS.Y = TAUGHT_START.Y + OFFSET_POS.Y
TARGET_POS.Z = TAUGHT_START.Z + OFFSET_POS.Z
TARGET_POS.A = TAUGHT_START.A
TARGET_POS.B = TAUGHT_START.B
TARGET_POS.C = TAUGHT_START.C
LIN TARGET_POS C_DIS
CONTINUE
OFFSET_POS = {X -7.751, Y 7.382, Z 2.500, A 0, B 0, C 0}
TARGET_POS = TAUGHT_START
TARGET_POS.X = TAUGHT_START.X + OFFSET_POS.X
TARGET_POS.Y = TAUGHT_START.Y + OFFSET_POS.Y
TARGET_POS.Z = TAUGHT_START.Z + OFFSET_POS.Z
TARGET_POS.A = TAUGHT_START.A
TARGET_POS.B = TAUGHT_START.B
TARGET_POS.C = TAUGHT_START.C
LIN TARGET_POS C_DIS
CONTINUE
OFFSET_POS = {X -7.587, Y 6.941, Z 2.500, A 0, B 0, C 0}
TARGET_POS = TAUGHT_START
TARGET_POS.X = TAUGHT_START.X + OFFSET_POS.X
TARGET_POS.Y = TAUGHT_START.Y + OFFSET_POS.Y
TARGET_POS.Z = TAUGHT_START.Z + OFFSET_POS.Z
TARGET_POS.A = TAUGHT_START.A
TARGET_POS.B = TAUGHT_START.B
TARGET_POS.C = TAUGHT_START.C
LIN TARGET_POS C_DIS
CONTINUE
OFFSET_POS = {X -7.433, Y 6.451, Z 2.500, A 0, B 0, C 0}
TARGET_POS = TAUGHT_START
TARGET_POS.X = TAUGHT_START.X + OFFSET_POS.X
TARGET_POS.Y = TAUGHT_START.Y + OFFSET_POS.Y
TARGET_POS.Z = TAUGHT_START.Z + OFFSET_POS.Z
TARGET_POS.A = TAUGHT_START.A
TARGET_POS.B = TAUGHT_START.B
TARGET_POS.C = TAUGHT_START.C
LIN TARGET_POS C_DIS
CONTINUE
OFFSET_POS = {X -7.102, Y 5.252, Z 2.500, A 0, B 0, C 0}
TARGET_POS = TAUGHT_START
TARGET_POS.X = TAUGHT_START.X + OFFSET_POS.X
TARGET_POS.Y = TAUGHT_START.Y + OFFSET_POS.Y
TARGET_POS.Z = TAUGHT_START.Z + OFFSET_POS.Z
TARGET_POS.A = TAUGHT_START.A
TARGET_POS.B = TAUGHT_START.B
TARGET_POS.C = TAUGHT_START.C
LIN TARGET_POS C_DIS
CONTINUE
OFFSET_POS = {X -6.924, Y 4.544, Z 2.500, A 0, B 0, C 0}
TARGET_POS = TAUGHT_START
TARGET_POS.X = TAUGHT_START.X + OFFSET_POS.X
TARGET_POS.Y = TAUGHT_START.Y + OFFSET_POS.Y
TARGET_POS.Z = TAUGHT_START.Z + OFFSET_POS.Z
TARGET_POS.A = TAUGHT_START.A
TARGET_POS.B = TAUGHT_START.B
TARGET_POS.C = TAUGHT_START.C
LIN TARGET_POS C_DIS
CONTINUE
OFFSET_POS = {X -6.829, Y 4.016, Z 2.500, A 0, B 0, C 0}
TARGET_POS = TAUGHT_START
TARGET_POS.X = TAUGHT_START.X + OFFSET_POS.X
TARGET_POS.Y = TAUGHT_START.Y + OFFSET_POS.Y
TARGET_POS.Z = TAUGHT_START.Z + OFFSET_POS.Z
TARGET_POS.A = TAUGHT_START.A
TARGET_POS.B = TAUGHT_START.B
TARGET_POS.C = TAUGHT_START.C
LIN TARGET_POS C_DIS
CONTINUE
OFFSET_POS = {X -6.652, Y 2.548, Z 2.500, A 0, B 0, C 0}
TARGET_POS = TAUGHT_START
TARGET_POS.X = TAUGHT_START.X + OFFSET_POS.X
TARGET_POS.Y = TAUGHT_START.Y + OFFSET_POS.Y
TARGET_POS.Z = TAUGHT_START.Z + OFFSET_POS.Z
TARGET_POS.A = TAUGHT_START.A
TARGET_POS.B = TAUGHT_START.B
TARGET_POS.C = TAUGHT_START.C
LIN TARGET_POS C_DIS
CONTINUE
OFFSET_POS = {X -6.569, Y 1.607, Z 2.500, A 0, B 0, C 0}
TARGET_POS = TAUGHT_START
TARGET_POS.X = TAUGHT_START.X + OFFSET_POS.X
TARGET_POS.Y = TAUGHT_START.Y + OFFSET_POS.Y
TARGET_POS.Z = TAUGHT_START.Z + OFFSET_POS.Z
TARGET_POS.A = TAUGHT_START.A
TARGET_POS.B = TAUGHT_START.B
TARGET_POS.C = TAUGHT_START.C
LIN TARGET_POS C_DIS
CONTINUE
OFFSET_POS = {X -6.558, Y 1.190, Z 2.500, A 0, B 0, C 0}
TARGET_POS = TAUGHT_START
TARGET_POS.X = TAUGHT_START.X + OFFSET_POS.X
TARGET_POS.Y = TAUGHT_START.Y + OFFSET_POS.Y
TARGET_POS.Z = TAUGHT_START.Z + OFFSET_POS.Z
TARGET_POS.A = TAUGHT_START.A
TARGET_POS.B = TAUGHT_START.B
TARGET_POS.C = TAUGHT_START.C
LIN TARGET_POS C_DIS
CONTINUE
OFFSET_POS = {X -6.548, Y 0.773, Z 2.500, A 0, B 0, C 0}
TARGET_POS = TAUGHT_START
TARGET_POS.X = TAUGHT_START.X + OFFSET_POS.X
TARGET_POS.Y = TAUGHT_START.Y + OFFSET_POS.Y
TARGET_POS.Z = TAUGHT_START.Z + OFFSET_POS.Z
TARGET_POS.A = TAUGHT_START.A
TARGET_POS.B = TAUGHT_START.B
TARGET_POS.C = TAUGHT_START.C
LIN TARGET_POS C_DIS
CONTINUE
OFFSET_POS = {X -6.541, Y 0.616, Z 2.500, A 0, B 0, C 0}
TARGET_POS = TAUGHT_START
TARGET_POS.X = TAUGHT_START.X + OFFSET_POS.X
TARGET_POS.Y = TAUGHT_START.Y + OFFSET_POS.Y
TARGET_POS.Z = TAUGHT_START.Z + OFFSET_POS.Z
TARGET_POS.A = TAUGHT_START.A
TARGET_POS.B = TAUGHT_START.B
TARGET_POS.C = TAUGHT_START.C
LIN TARGET_POS C_DIS
CONTINUE
OFFSET_POS = {X -6.534, Y 0.459, Z 2.500, A 0, B 0, C 0}
TARGET_POS = TAUGHT_START
TARGET_POS.X = TAUGHT_START.X + OFFSET_POS.X
TARGET_POS.Y = TAUGHT_START.Y + OFFSET_POS.Y
TARGET_POS.Z = TAUGHT_START.Z + OFFSET_POS.Z
TARGET_POS.A = TAUGHT_START.A
TARGET_POS.B = TAUGHT_START.B
TARGET_POS.C = TAUGHT_START.C
LIN TARGET_POS C_DIS
CONTINUE
OFFSET_POS = {X -6.528, Y 0.301, Z 2.500, A 0, B 0, C 0}
TARGET_POS = TAUGHT_START
TARGET_POS.X = TAUGHT_START.X + OFFSET_POS.X
TARGET_POS.Y = TAUGHT_START.Y + OFFSET_POS.Y
TARGET_POS.Z = TAUGHT_START.Z + OFFSET_POS.Z
TARGET_POS.A = TAUGHT_START.A
TARGET_POS.B = TAUGHT_START.B
TARGET_POS.C = TAUGHT_START.C
LIN TARGET_POS C_DIS
CONTINUE
OFFSET_POS = {X -6.562, Y 0.092, Z 2.500, A 0, B 0, C 0}
TARGET_POS = TAUGHT_START
TARGET_POS.X = TAUGHT_START.X + OFFSET_POS.X
TARGET_POS.Y = TAUGHT_START.Y + OFFSET_POS.Y
TARGET_POS.Z = TAUGHT_START.Z + OFFSET_POS.Z
TARGET_POS.A = TAUGHT_START.A
TARGET_POS.B = TAUGHT_START.B
TARGET_POS.C = TAUGHT_START.C
LIN TARGET_POS C_DIS
CONTINUE
OFFSET_POS = {X -6.597, Y -0.118, Z 2.500, A 0, B 0, C 0}
TARGET_POS = TAUGHT_START
TARGET_POS.X = TAUGHT_START.X + OFFSET_POS.X
TARGET_POS.Y = TAUGHT_START.Y + OFFSET_POS.Y
TARGET_POS.Z = TAUGHT_START.Z + OFFSET_POS.Z
TARGET_POS.A = TAUGHT_START.A
TARGET_POS.B = TAUGHT_START.B
TARGET_POS.C = TAUGHT_START.C
LIN TARGET_POS C_DIS
CONTINUE
OFFSET_POS = {X -6.649, Y -0.528, Z 2.500, A 0, B 0, C 0}
TARGET_POS = TAUGHT_START
TARGET_POS.X = TAUGHT_START.X + OFFSET_POS.X
TARGET_POS.Y = TAUGHT_START.Y + OFFSET_POS.Y
TARGET_POS.Z = TAUGHT_START.Z + OFFSET_POS.Z
TARGET_POS.A = TAUGHT_START.A
TARGET_POS.B = TAUGHT_START.B
TARGET_POS.C = TAUGHT_START.C
LIN TARGET_POS C_DIS
CONTINUE
OFFSET_POS = {X -6.700, Y -0.938, Z 2.500, A 0, B 0, C 0}
TARGET_POS = TAUGHT_START
TARGET_POS.X = TAUGHT_START.X + OFFSET_POS.X
TARGET_POS.Y = TAUGHT_START.Y + OFFSET_POS.Y
TARGET_POS.Z = TAUGHT_START.Z + OFFSET_POS.Z
TARGET_POS.A = TAUGHT_START.A
TARGET_POS.B = TAUGHT_START.B
TARGET_POS.C = TAUGHT_START.C
LIN TARGET_POS C_DIS
CONTINUE
OFFSET_POS = {X -6.752, Y -1.347, Z 2.500, A 0, B 0, C 0}
TARGET_POS = TAUGHT_START
TARGET_POS.X = TAUGHT_START.X + OFFSET_POS.X
TARGET_POS.Y = TAUGHT_START.Y + OFFSET_POS.Y
TARGET_POS.Z = TAUGHT_START.Z + OFFSET_POS.Z
TARGET_POS.A = TAUGHT_START.A
TARGET_POS.B = TAUGHT_START.B
TARGET_POS.C = TAUGHT_START.C
LIN TARGET_POS C_DIS
CONTINUE
OFFSET_POS = {X -6.832, Y -1.813, Z 2.500, A 0, B 0, C 0}
TARGET_POS = TAUGHT_START
TARGET_POS.X = TAUGHT_START.X + OFFSET_POS.X
TARGET_POS.Y = TAUGHT_START.Y + OFFSET_POS.Y
TARGET_POS.Z = TAUGHT_START.Z + OFFSET_POS.Z
TARGET_POS.A = TAUGHT_START.A
TARGET_POS.B = TAUGHT_START.B
TARGET_POS.C = TAUGHT_START.C
LIN TARGET_POS C_DIS
CONTINUE
OFFSET_POS = {X -6.982, Y -2.508, Z 2.500, A 0, B 0, C 0}
TARGET_POS = TAUGHT_START
TARGET_POS.X = TAUGHT_START.X + OFFSET_POS.X
TARGET_POS.Y = TAUGHT_START.Y + OFFSET_POS.Y
TARGET_POS.Z = TAUGHT_START.Z + OFFSET_POS.Z
TARGET_POS.A = TAUGHT_START.A
TARGET_POS.B = TAUGHT_START.B
TARGET_POS.C = TAUGHT_START.C
LIN TARGET_POS C_DIS
CONTINUE
OFFSET_POS = {X -7.284, Y -3.715, Z 2.500, A 0, B 0, C 0}
TARGET_POS = TAUGHT_START
TARGET_POS.X = TAUGHT_START.X + OFFSET_POS.X
TARGET_POS.Y = TAUGHT_START.Y + OFFSET_POS.Y
TARGET_POS.Z = TAUGHT_START.Z + OFFSET_POS.Z
TARGET_POS.A = TAUGHT_START.A
TARGET_POS.B = TAUGHT_START.B
TARGET_POS.C = TAUGHT_START.C
LIN TARGET_POS C_DIS
CONTINUE
OFFSET_POS = {X -7.436, Y -4.226, Z 2.500, A 0, B 0, C 0}
TARGET_POS = TAUGHT_START
TARGET_POS.X = TAUGHT_START.X + OFFSET_POS.X
TARGET_POS.Y = TAUGHT_START.Y + OFFSET_POS.Y
TARGET_POS.Z = TAUGHT_START.Z + OFFSET_POS.Z
TARGET_POS.A = TAUGHT_START.A
TARGET_POS.B = TAUGHT_START.B
TARGET_POS.C = TAUGHT_START.C
LIN TARGET_POS C_DIS
CONTINUE
OFFSET_POS = {X -7.684, Y -4.884, Z 2.500, A 0, B 0, C 0}
TARGET_POS = TAUGHT_START
TARGET_POS.X = TAUGHT_START.X + OFFSET_POS.X
TARGET_POS.Y = TAUGHT_START.Y + OFFSET_POS.Y
TARGET_POS.Z = TAUGHT_START.Z + OFFSET_POS.Z
TARGET_POS.A = TAUGHT_START.A
TARGET_POS.B = TAUGHT_START.B
TARGET_POS.C = TAUGHT_START.C
LIN TARGET_POS C_DIS
CONTINUE
OFFSET_POS = {X -8.270, Y -6.242, Z 2.500, A 0, B 0, C 0}
TARGET_POS = TAUGHT_START
TARGET_POS.X = TAUGHT_START.X + OFFSET_POS.X
TARGET_POS.Y = TAUGHT_START.Y + OFFSET_POS.Y
TARGET_POS.Z = TAUGHT_START.Z + OFFSET_POS.Z
TARGET_POS.A = TAUGHT_START.A
TARGET_POS.B = TAUGHT_START.B
TARGET_POS.C = TAUGHT_START.C
LIN TARGET_POS C_DIS
CONTINUE
OFFSET_POS = {X -8.607, Y -6.942, Z 2.500, A 0, B 0, C 0}
TARGET_POS = TAUGHT_START
TARGET_POS.X = TAUGHT_START.X + OFFSET_POS.X
TARGET_POS.Y = TAUGHT_START.Y + OFFSET_POS.Y
TARGET_POS.Z = TAUGHT_START.Z + OFFSET_POS.Z
TARGET_POS.A = TAUGHT_START.A
TARGET_POS.B = TAUGHT_START.B
TARGET_POS.C = TAUGHT_START.C
LIN TARGET_POS C_DIS
CONTINUE
OFFSET_POS = {X -8.834, Y -7.345, Z 2.500, A 0, B 0, C 0}
TARGET_POS = TAUGHT_START
TARGET_POS.X = TAUGHT_START.X + OFFSET_POS.X
TARGET_POS.Y = TAUGHT_START.Y + OFFSET_POS.Y
TARGET_POS.Z = TAUGHT_START.Z + OFFSET_POS.Z
TARGET_POS.A = TAUGHT_START.A
TARGET_POS.B = TAUGHT_START.B
TARGET_POS.C = TAUGHT_START.C
LIN TARGET_POS C_DIS
CONTINUE
OFFSET_POS = {X -9.644, Y -8.583, Z 2.500, A 0, B 0, C 0}
TARGET_POS = TAUGHT_START
TARGET_POS.X = TAUGHT_START.X + OFFSET_POS.X
TARGET_POS.Y = TAUGHT_START.Y + OFFSET_POS.Y
TARGET_POS.Z = TAUGHT_START.Z + OFFSET_POS.Z
TARGET_POS.A = TAUGHT_START.A
TARGET_POS.B = TAUGHT_START.B
TARGET_POS.C = TAUGHT_START.C
LIN TARGET_POS C_DIS
CONTINUE
OFFSET_POS = {X -10.226, Y -9.418, Z 2.500, A 0, B 0, C 0}
TARGET_POS = TAUGHT_START
TARGET_POS.X = TAUGHT_START.X + OFFSET_POS.X
TARGET_POS.Y = TAUGHT_START.Y + OFFSET_POS.Y
TARGET_POS.Z = TAUGHT_START.Z + OFFSET_POS.Z
TARGET_POS.A = TAUGHT_START.A
TARGET_POS.B = TAUGHT_START.B
TARGET_POS.C = TAUGHT_START.C
LIN TARGET_POS C_DIS
CONTINUE
OFFSET_POS = {X -10.516, Y -9.794, Z 2.500, A 0, B 0, C 0}
TARGET_POS = TAUGHT_START
TARGET_POS.X = TAUGHT_START.X + OFFSET_POS.X
TARGET_POS.Y = TAUGHT_START.Y + OFFSET_POS.Y
TARGET_POS.Z = TAUGHT_START.Z + OFFSET_POS.Z
TARGET_POS.A = TAUGHT_START.A
TARGET_POS.B = TAUGHT_START.B
TARGET_POS.C = TAUGHT_START.C
LIN TARGET_POS C_DIS
CONTINUE
OFFSET_POS = {X -12.616, Y -11.879, Z 2.500, A 0, B 0, C 0}
TARGET_POS = TAUGHT_START
TARGET_POS.X = TAUGHT_START.X + OFFSET_POS.X
TARGET_POS.Y = TAUGHT_START.Y + OFFSET_POS.Y
TARGET_POS.Z = TAUGHT_START.Z + OFFSET_POS.Z
TARGET_POS.A = TAUGHT_START.A
TARGET_POS.B = TAUGHT_START.B
TARGET_POS.C = TAUGHT_START.C
LIN TARGET_POS C_DIS
CONTINUE
OFFSET_POS = {X -13.405, Y -12.467, Z 2.500, A 0, B 0, C 0}
TARGET_POS = TAUGHT_START
TARGET_POS.X = TAUGHT_START.X + OFFSET_POS.X
TARGET_POS.Y = TAUGHT_START.Y + OFFSET_POS.Y
TARGET_POS.Z = TAUGHT_START.Z + OFFSET_POS.Z
TARGET_POS.A = TAUGHT_START.A
TARGET_POS.B = TAUGHT_START.B
TARGET_POS.C = TAUGHT_START.C
LIN TARGET_POS C_DIS
CONTINUE
OFFSET_POS = {X -14.413, Y -13.196, Z 2.500, A 0, B 0, C 0}
TARGET_POS = TAUGHT_START
TARGET_POS.X = TAUGHT_START.X + OFFSET_POS.X
TARGET_POS.Y = TAUGHT_START.Y + OFFSET_POS.Y
TARGET_POS.Z = TAUGHT_START.Z + OFFSET_POS.Z
TARGET_POS.A = TAUGHT_START.A
TARGET_POS.B = TAUGHT_START.B
TARGET_POS.C = TAUGHT_START.C
LIN TARGET_POS C_DIS
CONTINUE
OFFSET_POS = {X -14.632, Y -13.336, Z 2.500, A 0, B 0, C 0}
TARGET_POS = TAUGHT_START
TARGET_POS.X = TAUGHT_START.X + OFFSET_POS.X
TARGET_POS.Y = TAUGHT_START.Y + OFFSET_POS.Y
TARGET_POS.Z = TAUGHT_START.Z + OFFSET_POS.Z
TARGET_POS.A = TAUGHT_START.A
TARGET_POS.B = TAUGHT_START.B
TARGET_POS.C = TAUGHT_START.C
LIN TARGET_POS C_DIS
CONTINUE
OFFSET_POS = {X -15.042, Y -13.573, Z 2.500, A 0, B 0, C 0}
TARGET_POS = TAUGHT_START
TARGET_POS.X = TAUGHT_START.X + OFFSET_POS.X
TARGET_POS.Y = TAUGHT_START.Y + OFFSET_POS.Y
TARGET_POS.Z = TAUGHT_START.Z + OFFSET_POS.Z
TARGET_POS.A = TAUGHT_START.A
TARGET_POS.B = TAUGHT_START.B
TARGET_POS.C = TAUGHT_START.C
LIN TARGET_POS C_DIS
CONTINUE
OFFSET_POS = {X -15.700, Y -13.917, Z 2.500, A 0, B 0, C 0}
TARGET_POS = TAUGHT_START
TARGET_POS.X = TAUGHT_START.X + OFFSET_POS.X
TARGET_POS.Y = TAUGHT_START.Y + OFFSET_POS.Y
TARGET_POS.Z = TAUGHT_START.Z + OFFSET_POS.Z
TARGET_POS.A = TAUGHT_START.A
TARGET_POS.B = TAUGHT_START.B
TARGET_POS.C = TAUGHT_START.C
LIN TARGET_POS C_DIS
CONTINUE
OFFSET_POS = {X -16.819, Y -14.459, Z 2.500, A 0, B 0, C 0}
TARGET_POS = TAUGHT_START
TARGET_POS.X = TAUGHT_START.X + OFFSET_POS.X
TARGET_POS.Y = TAUGHT_START.Y + OFFSET_POS.Y
TARGET_POS.Z = TAUGHT_START.Z + OFFSET_POS.Z
TARGET_POS.A = TAUGHT_START.A
TARGET_POS.B = TAUGHT_START.B
TARGET_POS.C = TAUGHT_START.C
LIN TARGET_POS C_DIS
CONTINUE
OFFSET_POS = {X -17.280, Y -14.658, Z 2.500, A 0, B 0, C 0}
TARGET_POS = TAUGHT_START
TARGET_POS.X = TAUGHT_START.X + OFFSET_POS.X
TARGET_POS.Y = TAUGHT_START.Y + OFFSET_POS.Y
TARGET_POS.Z = TAUGHT_START.Z + OFFSET_POS.Z
TARGET_POS.A = TAUGHT_START.A
TARGET_POS.B = TAUGHT_START.B
TARGET_POS.C = TAUGHT_START.C
LIN TARGET_POS C_DIS
CONTINUE
OFFSET_POS = {X -17.721, Y -14.826, Z 2.500, A 0, B 0, C 0}
TARGET_POS = TAUGHT_START
TARGET_POS.X = TAUGHT_START.X + OFFSET_POS.X
TARGET_POS.Y = TAUGHT_START.Y + OFFSET_POS.Y
TARGET_POS.Z = TAUGHT_START.Z + OFFSET_POS.Z
TARGET_POS.A = TAUGHT_START.A
TARGET_POS.B = TAUGHT_START.B
TARGET_POS.C = TAUGHT_START.C
LIN TARGET_POS C_DIS
CONTINUE
OFFSET_POS = {X -18.215, Y -14.990, Z 2.500, A 0, B 0, C 0}
TARGET_POS = TAUGHT_START
TARGET_POS.X = TAUGHT_START.X + OFFSET_POS.X
TARGET_POS.Y = TAUGHT_START.Y + OFFSET_POS.Y
TARGET_POS.Z = TAUGHT_START.Z + OFFSET_POS.Z
TARGET_POS.A = TAUGHT_START.A
TARGET_POS.B = TAUGHT_START.B
TARGET_POS.C = TAUGHT_START.C
LIN TARGET_POS C_DIS
CONTINUE
OFFSET_POS = {X -19.408, Y -15.340, Z 2.500, A 0, B 0, C 0}
TARGET_POS = TAUGHT_START
TARGET_POS.X = TAUGHT_START.X + OFFSET_POS.X
TARGET_POS.Y = TAUGHT_START.Y + OFFSET_POS.Y
TARGET_POS.Z = TAUGHT_START.Z + OFFSET_POS.Z
TARGET_POS.A = TAUGHT_START.A
TARGET_POS.B = TAUGHT_START.B
TARGET_POS.C = TAUGHT_START.C
LIN TARGET_POS C_DIS
CONTINUE
OFFSET_POS = {X -20.109, Y -15.526, Z 2.500, A 0, B 0, C 0}
TARGET_POS = TAUGHT_START
TARGET_POS.X = TAUGHT_START.X + OFFSET_POS.X
TARGET_POS.Y = TAUGHT_START.Y + OFFSET_POS.Y
TARGET_POS.Z = TAUGHT_START.Z + OFFSET_POS.Z
TARGET_POS.A = TAUGHT_START.A
TARGET_POS.B = TAUGHT_START.B
TARGET_POS.C = TAUGHT_START.C
LIN TARGET_POS C_DIS
CONTINUE
OFFSET_POS = {X -20.586, Y -15.611, Z 2.500, A 0, B 0, C 0}
TARGET_POS = TAUGHT_START
TARGET_POS.X = TAUGHT_START.X + OFFSET_POS.X
TARGET_POS.Y = TAUGHT_START.Y + OFFSET_POS.Y
TARGET_POS.Z = TAUGHT_START.Z + OFFSET_POS.Z
TARGET_POS.A = TAUGHT_START.A
TARGET_POS.B = TAUGHT_START.B
TARGET_POS.C = TAUGHT_START.C
LIN TARGET_POS C_DIS
CONTINUE
OFFSET_POS = {X -21.501, Y -15.715, Z 2.500, A 0, B 0, C 0}
TARGET_POS = TAUGHT_START
TARGET_POS.X = TAUGHT_START.X + OFFSET_POS.X
TARGET_POS.Y = TAUGHT_START.Y + OFFSET_POS.Y
TARGET_POS.Z = TAUGHT_START.Z + OFFSET_POS.Z
TARGET_POS.A = TAUGHT_START.A
TARGET_POS.B = TAUGHT_START.B
TARGET_POS.C = TAUGHT_START.C
LIN TARGET_POS C_DIS
CONTINUE
OFFSET_POS = {X -22.764, Y -15.834, Z 2.500, A 0, B 0, C 0}
TARGET_POS = TAUGHT_START
TARGET_POS.X = TAUGHT_START.X + OFFSET_POS.X
TARGET_POS.Y = TAUGHT_START.Y + OFFSET_POS.Y
TARGET_POS.Z = TAUGHT_START.Z + OFFSET_POS.Z
TARGET_POS.A = TAUGHT_START.A
TARGET_POS.B = TAUGHT_START.B
TARGET_POS.C = TAUGHT_START.C
LIN TARGET_POS C_DIS
CONTINUE
OFFSET_POS = {X -23.112, Y -15.849, Z 2.500, A 0, B 0, C 0}
TARGET_POS = TAUGHT_START
TARGET_POS.X = TAUGHT_START.X + OFFSET_POS.X
TARGET_POS.Y = TAUGHT_START.Y + OFFSET_POS.Y
TARGET_POS.Z = TAUGHT_START.Z + OFFSET_POS.Z
TARGET_POS.A = TAUGHT_START.A
TARGET_POS.B = TAUGHT_START.B
TARGET_POS.C = TAUGHT_START.C
LIN TARGET_POS C_DIS
CONTINUE
OFFSET_POS = {X -23.575, Y -15.848, Z 2.500, A 0, B 0, C 0}
TARGET_POS = TAUGHT_START
TARGET_POS.X = TAUGHT_START.X + OFFSET_POS.X
TARGET_POS.Y = TAUGHT_START.Y + OFFSET_POS.Y
TARGET_POS.Z = TAUGHT_START.Z + OFFSET_POS.Z
TARGET_POS.A = TAUGHT_START.A
TARGET_POS.B = TAUGHT_START.B
TARGET_POS.C = TAUGHT_START.C
LIN TARGET_POS C_DIS
CONTINUE
OFFSET_POS = {X -24.385, Y -15.812, Z 2.500, A 0, B 0, C 0}
TARGET_POS = TAUGHT_START
TARGET_POS.X = TAUGHT_START.X + OFFSET_POS.X
TARGET_POS.Y = TAUGHT_START.Y + OFFSET_POS.Y
TARGET_POS.Z = TAUGHT_START.Z + OFFSET_POS.Z
TARGET_POS.A = TAUGHT_START.A
TARGET_POS.B = TAUGHT_START.B
TARGET_POS.C = TAUGHT_START.C
LIN TARGET_POS C_DIS
CONTINUE
OFFSET_POS = {X -25.465, Y -15.739, Z 2.500, A 0, B 0, C 0}
TARGET_POS = TAUGHT_START
TARGET_POS.X = TAUGHT_START.X + OFFSET_POS.X
TARGET_POS.Y = TAUGHT_START.Y + OFFSET_POS.Y
TARGET_POS.Z = TAUGHT_START.Z + OFFSET_POS.Z
TARGET_POS.A = TAUGHT_START.A
TARGET_POS.B = TAUGHT_START.B
TARGET_POS.C = TAUGHT_START.C
LIN TARGET_POS C_DIS
CONTINUE
OFFSET_POS = {X -25.734, Y -15.703, Z 2.500, A 0, B 0, C 0}
TARGET_POS = TAUGHT_START
TARGET_POS.X = TAUGHT_START.X + OFFSET_POS.X
TARGET_POS.Y = TAUGHT_START.Y + OFFSET_POS.Y
TARGET_POS.Z = TAUGHT_START.Z + OFFSET_POS.Z
TARGET_POS.A = TAUGHT_START.A
TARGET_POS.B = TAUGHT_START.B
TARGET_POS.C = TAUGHT_START.C
LIN TARGET_POS C_DIS
CONTINUE
OFFSET_POS = {X -26.004, Y -15.666, Z 2.500, A 0, B 0, C 0}
TARGET_POS = TAUGHT_START
TARGET_POS.X = TAUGHT_START.X + OFFSET_POS.X
TARGET_POS.Y = TAUGHT_START.Y + OFFSET_POS.Y
TARGET_POS.Z = TAUGHT_START.Z + OFFSET_POS.Z
TARGET_POS.A = TAUGHT_START.A
TARGET_POS.B = TAUGHT_START.B
TARGET_POS.C = TAUGHT_START.C
LIN TARGET_POS C_DIS
CONTINUE
OFFSET_POS = {X -26.467, Y -15.583, Z 2.500, A 0, B 0, C 0}
TARGET_POS = TAUGHT_START
TARGET_POS.X = TAUGHT_START.X + OFFSET_POS.X
TARGET_POS.Y = TAUGHT_START.Y + OFFSET_POS.Y
TARGET_POS.Z = TAUGHT_START.Z + OFFSET_POS.Z
TARGET_POS.A = TAUGHT_START.A
TARGET_POS.B = TAUGHT_START.B
TARGET_POS.C = TAUGHT_START.C
LIN TARGET_POS C_DIS
CONTINUE
OFFSET_POS = {X -27.152, Y -15.429, Z 2.500, A 0, B 0, C 0}
TARGET_POS = TAUGHT_START
TARGET_POS.X = TAUGHT_START.X + OFFSET_POS.X
TARGET_POS.Y = TAUGHT_START.Y + OFFSET_POS.Y
TARGET_POS.Z = TAUGHT_START.Z + OFFSET_POS.Z
TARGET_POS.A = TAUGHT_START.A
TARGET_POS.B = TAUGHT_START.B
TARGET_POS.C = TAUGHT_START.C
LIN TARGET_POS C_DIS
CONTINUE
OFFSET_POS = {X -27.838, Y -15.274, Z 2.500, A 0, B 0, C 0}
TARGET_POS = TAUGHT_START
TARGET_POS.X = TAUGHT_START.X + OFFSET_POS.X
TARGET_POS.Y = TAUGHT_START.Y + OFFSET_POS.Y
TARGET_POS.Z = TAUGHT_START.Z + OFFSET_POS.Z
TARGET_POS.A = TAUGHT_START.A
TARGET_POS.B = TAUGHT_START.B
TARGET_POS.C = TAUGHT_START.C
LIN TARGET_POS C_DIS
CONTINUE
OFFSET_POS = {X -29.137, Y -14.927, Z 2.500, A 0, B 0, C 0}
TARGET_POS = TAUGHT_START
TARGET_POS.X = TAUGHT_START.X + OFFSET_POS.X
TARGET_POS.Y = TAUGHT_START.Y + OFFSET_POS.Y
TARGET_POS.Z = TAUGHT_START.Z + OFFSET_POS.Z
TARGET_POS.A = TAUGHT_START.A
TARGET_POS.B = TAUGHT_START.B
TARGET_POS.C = TAUGHT_START.C
LIN TARGET_POS C_DIS
CONTINUE
OFFSET_POS = {X -29.580, Y -14.751, Z 2.500, A 0, B 0, C 0}
TARGET_POS = TAUGHT_START
TARGET_POS.X = TAUGHT_START.X + OFFSET_POS.X
TARGET_POS.Y = TAUGHT_START.Y + OFFSET_POS.Y
TARGET_POS.Z = TAUGHT_START.Z + OFFSET_POS.Z
