; generated by PrusaSlicer 2.9.2 on 2026-05-07 at 08:00:19 UTC

; 

; external perimeters extrusion width = 4.50mm
; perimeters extrusion width = 4.50mm
; infill extrusion width = 4.50mm
; solid infill extrusion width = 4.50mm
; top infill extrusion width = 4.50mm
; first layer extrusion width = 4.50mm

M104 S200 ; set temperature
;TYPE:Custom
G28 ; home all axes
G1 Z5 F5000 ; lift nozzle
M109 S200 ; set temperature and wait for it to be reached
G21 ; set units to millimeters
G90 ; use absolute coordinates
M82 ; use absolute distances for extrusion
G92 E0
; Filament gcode
M107
;LAYER_CHANGE
;Z:2.5
;HEIGHT:2.5
G1 E-2 F2400
G92 E0
G1 Z12.5 F7800
G92 E0
G1 X-50.158 Y-70.851
G1 Z2.5
G1 E2 F2400
;TYPE:External perimeter
;WIDTH:7.3365
G1 F1800
G1 X-49.757 Y-70.869 E2.54303
;WIDTH:7.28738
G1 X-49.357 Y-70.888 E3.08085
;WIDTH:7.23827
G1 X-48.956 Y-70.907 E3.61609
;WIDTH:7.18915
G1 X-48.556 Y-70.926 E4.14609
;WIDTH:7.14003
G1 X-48.155 Y-70.945 E4.67349
;WIDTH:7.09091
G1 X-47.755 Y-70.964 E5.19566
;WIDTH:7.04179
G1 X-47.354 Y-70.983 E5.71521
;WIDTH:6.99267
G1 X-46.954 Y-71.002 E6.22955
;WIDTH:6.94355
G1 X-46.553 Y-71.021 E6.74125
;WIDTH:6.89443
G1 X-46.153 Y-71.04 E7.24777
;WIDTH:6.84531
G1 X-45.752 Y-71.059 E7.75163
;WIDTH:6.79619
G1 X-45.352 Y-71.078 E8.25032
;WIDTH:6.74707
G1 X-44.951 Y-71.096 E8.74628
;WIDTH:6.69795
G1 X-44.551 Y-71.115 E9.23714
;WIDTH:6.64883
G1 X-44.15 Y-71.134 E9.72531
;WIDTH:6.59971
G1 X-43.75 Y-71.153 E10.20835
;WIDTH:6.55059
G1 X-43.349 Y-71.172 E10.68867
;WIDTH:6.50147
G1 X-42.949 Y-71.191 E11.16388
;WIDTH:6.45235
G1 X-42.548 Y-71.21 E11.63635
;WIDTH:6.40323
G1 X-42.148 Y-71.229 E12.10374
;WIDTH:6.35411
G1 X-41.747 Y-71.248 E12.56837
;WIDTH:6.30499
G1 X-41.347 Y-71.267 E13.02793
;WIDTH:6.25587
G1 X-40.946 Y-71.286 E13.48471
;WIDTH:6.20675
G1 X-40.546 Y-71.305 E13.93644
;WIDTH:6.15763
G1 X-40.145 Y-71.324 E14.38538
;WIDTH:6.10851
G1 X-39.745 Y-71.342 E14.82923
;WIDTH:6.05939
G1 X-39.344 Y-71.361 E15.27032
;WIDTH:6.01027
G1 X-38.944 Y-71.38 E15.7064
;WIDTH:5.96115
G1 X-38.544 Y-71.399 E16.13857
;WIDTH:5.91203
G1 X-38.143 Y-71.418 E16.56789
;WIDTH:5.86291
G1 X-37.743 Y-71.437 E16.99223
;WIDTH:5.81379
G1 X-37.342 Y-71.456 E17.41371
;WIDTH:5.76467
G1 X-36.942 Y-71.475 E17.83022
;WIDTH:5.71555
G1 X-36.541 Y-71.494 E18.24385
;WIDTH:5.66643
G1 X-36.141 Y-71.513 E18.65254
;WIDTH:5.61731
G1 X-35.74 Y-71.532 E19.05832
;WIDTH:5.56819
G1 X-35.34 Y-71.551 E19.45918
;WIDTH:5.51907
G1 X-34.939 Y-71.569 E19.85707
;WIDTH:5.46995
G1 X-34.539 Y-71.588 E20.2501
;WIDTH:5.42083
G1 X-34.138 Y-71.607 E20.64019
;WIDTH:5.37171
G1 X-33.738 Y-71.626 E21.0254
;WIDTH:5.32259
G1 X-33.337 Y-71.645 E21.40765
;WIDTH:5.27347
G1 X-32.937 Y-71.664 E21.78503
;WIDTH:5.22435
G1 X-32.536 Y-71.683 E22.15943
;WIDTH:5.17523
G1 X-32.136 Y-71.702 E22.52898
;WIDTH:5.12611
G1 X-31.735 Y-71.721 E22.89553
;WIDTH:5.07699
G1 X-31.335 Y-71.74 E23.25726
;WIDTH:5.02787
G1 X-30.934 Y-71.759 E23.61597
;WIDTH:4.97875
G1 X-30.534 Y-71.778 E23.96987
;WIDTH:4.92963
G1 X-30.133 Y-71.797 E24.32073
;WIDTH:4.88051
G1 X-29.733 Y-71.815 E24.66677
;WIDTH:4.83139
G1 X-29.332 Y-71.834 E25.00979
G1 X-37.323 Y-71.457 F7800
G1 E23.00979 F2400
G92 E0
G1 Z12.5 F7800
G1 X-37.253 Y-69.969
G1 X-53.703 Y-69.605
G1 X-67.942 Y-52.178
G1 X-77.742 Y-51.701
G1 X-81.902 Y-51.496
G1 X-90.923 Y-33.111
G1 X-90.999 Y-32.964
G1 X-94.071 Y-30.262
G1 Z2.5
G1 E2 F2400
;WIDTH:4.83158
G1 F1800
G1 X-93.887 Y-30.618 E2.34242
;WIDTH:4.8807
G1 X-93.703 Y-30.974 E2.68876
;WIDTH:4.92981
G1 X-93.519 Y-31.331 E3.03979
;WIDTH:4.97893
G1 X-93.335 Y-31.687 E3.39396
;WIDTH:5.02804
G1 X-93.151 Y-32.043 E3.75205
;WIDTH:5.07716
G1 X-92.967 Y-32.4 E4.11485
;WIDTH:5.12628
G1 X-92.783 Y-32.756 E4.48077
;WIDTH:5.17539
G1 X-92.6 Y-33.112 E4.85018
;WIDTH:5.22451
G1 X-92.416 Y-33.469 E5.22476
;WIDTH:5.27362
G1 X-92.232 Y-33.825 E5.60242
;WIDTH:5.32274
G1 X-92.048 Y-34.181 E5.984
;WIDTH:5.37186
G1 X-91.864 Y-34.538 E6.37035
;WIDTH:5.42097
G1 X-91.68 Y-34.894 E6.75976
;WIDTH:5.47009
G1 X-91.496 Y-35.25 E7.15309
;WIDTH:5.51921
G1 X-91.312 Y-35.607 E7.55121
;WIDTH:5.56832
G1 X-91.129 Y-35.963 E7.95191
;WIDTH:5.61744
G1 X-90.945 Y-36.319 E8.35699
;WIDTH:5.66655
G1 X-90.761 Y-36.676 E8.76689
;WIDTH:5.71567
G1 X-90.577 Y-37.032 E9.1798
;WIDTH:5.76479
G1 X-90.393 Y-37.388 E9.59662
;WIDTH:5.8139
G1 X-90.209 Y-37.745 E10.01829
;WIDTH:5.86302
G1 X-90.025 Y-38.101 E10.44294
;WIDTH:5.91214
G1 X-89.841 Y-38.457 E10.87151
;WIDTH:5.96125
G1 X-89.658 Y-38.814 E11.30446
;WIDTH:6.01037
G1 X-89.474 Y-39.17 E11.74086
;WIDTH:6.05948
G1 X-89.29 Y-39.526 E12.18118
;WIDTH:6.1086
G1 X-89.106 Y-39.883 E12.6264
;WIDTH:6.15772
G1 X-88.922 Y-40.239 E13.07455
;WIDTH:6.20683
G1 X-88.738 Y-40.595 E13.52661
;WIDTH:6.25595
G1 X-88.554 Y-40.951 E13.98259
;WIDTH:6.30506
G1 X-88.371 Y-41.308 E14.44298
;WIDTH:6.35418
G1 X-88.187 Y-41.664 E14.90679
;WIDTH:6.4033
G1 X-88.003 Y-42.02 E15.37452
;WIDTH:6.45241
G1 X-87.819 Y-42.377 E15.84721
;WIDTH:6.50153
G1 X-87.635 Y-42.733 E16.32277
;WIDTH:6.55065
G1 X-87.451 Y-43.089 E16.80224
;WIDTH:6.59976
G1 X-87.267 Y-43.446 E17.2867
;WIDTH:6.64888
G1 X-87.083 Y-43.802 E17.77401
;WIDTH:6.69799
G1 X-86.9 Y-44.158 E18.26467
;WIDTH:6.74711
G1 X-86.716 Y-44.515 E18.76091
;WIDTH:6.79623
G1 X-86.532 Y-44.871 E19.25996
;WIDTH:6.84534
G1 X-86.348 Y-45.227 E19.76293
;WIDTH:6.89446
G1 X-86.164 Y-45.584 E20.27094
;WIDTH:6.94358
G1 X-85.98 Y-45.94 E20.78174
;WIDTH:6.99269
G1 X-85.796 Y-46.296 E21.29646
;WIDTH:7.04181
G1 X-85.612 Y-46.653 E21.81624
;WIDTH:7.09092
G1 X-85.429 Y-47.009 E22.33819
;WIDTH:7.14004
G1 X-85.245 Y-47.365 E22.86465
;WIDTH:7.18916
G1 X-85.061 Y-47.722 E23.39621
;WIDTH:7.23827
G1 X-84.877 Y-48.078 E23.93051
;WIDTH:7.28739
G1 X-84.693 Y-48.434 E24.46872
;WIDTH:7.3365
G1 X-84.509 Y-48.791 E25.01205
G1 X-88.178 Y-41.681 F7800
G1 E23.01205 F2400
G92 E0
G1 Z12.5 F7800
G1 X-86.854 Y-40.999
G1 X-83.815 Y-52.483
G1 X-92.049 Y-71.733
G1 X-85.399 Y-85.959
G1 X-96.274 Y-102.119
G1 X-96.74 Y-102.844
G1 X-97.716 Y-107.12
G1 Z2.5
G1 E2 F2400
;WIDTH:4.81906
G1 F1800
G1 X-97.499 Y-106.783 E2.3415
;WIDTH:4.86842
G1 X-97.282 Y-106.446 E2.68693
;WIDTH:4.91779
G1 X-97.066 Y-106.108 E3.03656
;WIDTH:4.96715
G1 X-96.849 Y-105.771 E3.38986
;WIDTH:5.01651
G1 X-96.632 Y-105.434 E3.7471
;WIDTH:5.06587
G1 X-96.416 Y-105.097 E4.10779
;WIDTH:5.11523
G1 X-96.199 Y-104.76 E4.4729
;WIDTH:5.16459
G1 X-95.982 Y-104.422 E4.84272
;WIDTH:5.21396
G1 X-95.766 Y-104.085 E5.2152
;WIDTH:5.26332
G1 X-95.549 Y-103.748 E5.59212
;WIDTH:5.31268
G1 X-95.332 Y-103.411 E5.97298
;WIDTH:5.36204
G1 X-95.116 Y-103.074 E6.35725
;WIDTH:5.4114
G1 X-94.899 Y-102.736 E6.74679
;WIDTH:5.46076
G1 X-94.682 Y-102.399 E7.13946
;WIDTH:5.51012
G1 X-94.466 Y-102.062 E7.53553
;WIDTH:5.55949
G1 X-94.249 Y-101.725 E7.93607
;WIDTH:5.60885
G1 X-94.032 Y-101.387 E8.34139
;WIDTH:5.65821
G1 X-93.816 Y-101.05 E8.74925
;WIDTH:5.70757
G1 X-93.599 Y-100.713 E9.1616
;WIDTH:5.75693
G1 X-93.382 Y-100.376 E9.57788
;WIDTH:5.80629
G1 X-93.166 Y-100.039 E9.99753
;WIDTH:5.85566
G1 X-92.949 Y-99.701 E10.42257
;WIDTH:5.90502
G1 X-92.732 Y-99.364 E10.85066
;WIDTH:5.95438
G1 X-92.516 Y-99.027 E11.2821
;WIDTH:6.00374
G1 X-92.299 Y-98.69 E11.71806
;WIDTH:6.0531
G1 X-92.082 Y-98.353 E12.15796
;WIDTH:6.10246
G1 X-91.866 Y-98.015 E12.60213
;WIDTH:6.15183
G1 X-91.649 Y-97.678 E13.0499
;WIDTH:6.20119
G1 X-91.432 Y-97.341 E13.50161
;WIDTH:6.25055
G1 X-91.216 Y-97.004 E13.95664
;WIDTH:6.29991
G1 X-90.999 Y-96.666 E14.41718
;WIDTH:6.34927
G1 X-90.782 Y-96.329 E14.8807
;WIDTH:6.39863
G1 X-90.566 Y-95.992 E15.34752
;WIDTH:6.448
G1 X-90.349 Y-95.655 E15.81891
;WIDTH:6.49736
G1 X-90.132 Y-95.318 E16.29423
;WIDTH:6.54672
G1 X-89.916 Y-94.98 E16.77385
;WIDTH:6.59608
G1 X-89.699 Y-94.643 E17.25705
;WIDTH:6.64544
G1 X-89.482 Y-94.306 E17.74418
;WIDTH:6.6948
G1 X-89.266 Y-93.969 E18.23459
;WIDTH:6.74417
G1 X-89.049 Y-93.632 E18.72959
;WIDTH:6.79353
G1 X-88.832 Y-93.294 E19.22958
;WIDTH:6.84289
G1 X-88.616 Y-92.957 E19.73178
;WIDTH:6.89225
G1 X-88.399 Y-92.62 E20.23859
;WIDTH:6.94161
G1 X-88.182 Y-92.283 E20.74934
;WIDTH:6.99097
G1 X-87.966 Y-91.945 E21.26441
;WIDTH:7.04034
G1 X-87.749 Y-91.608 E21.78303
;WIDTH:7.0897
G1 X-87.532 Y-91.271 E22.30559
;WIDTH:7.13906
G1 X-87.316 Y-90.934 E22.83137
;WIDTH:7.18842
G1 X-87.099 Y-90.597 E23.3618
;WIDTH:7.23778
G1 X-86.882 Y-90.259 E23.89729
;WIDTH:7.28714
G1 X-86.666 Y-89.922 E24.43487
;WIDTH:7.3365
G1 X-86.449 Y-89.585 E24.97711
G1 X-90.773 Y-96.315 F7800
G1 E22.97711 F2400
G92 E0
G1 Z12.5 F7800
G1 X-92.026 Y-95.51
G1 X-83.587 Y-87.122
G1 X-82.336 Y-87.29
G1 X-81.971 Y-84.571
G1 Z2.5
G1 E2 F2400
;WIDTH:6.0187
G1 F1800
G1 X-81.763 Y-84.685 E2.25869
;WIDTH:6.01137
G1 X-80.972 Y-85.056 E3.2103
;WIDTH:6.04097
G1 X-79.738 Y-85.602 E4.68799
;WIDTH:6.00788
G1 X-79.295 Y-85.778 E5.20686
;WIDTH:6.02412
G1 X-77.996 Y-86.125 E6.67474
;WIDTH:5.98855
G1 X-77.31 Y-86.28 E7.43757
;WIDTH:5.95298
G1 X-76.625 Y-86.434 E8.19413
;WIDTH:5.93465
G1 X-76.162 Y-86.517 E8.69928
;WIDTH:5.96837
G1 X-75.892 Y-86.554 E8.99378
;WIDTH:6.00209
G1 X-75.623 Y-86.59 E9.28888
;WIDTH:6.03581
G1 X-74.543 Y-86.663 E10.47315
;WIDTH:5.99103
G1 X-73.733 Y-86.699 E11.35298
;WIDTH:5.96026
G1 X-73.27 Y-86.7 E11.85257
;WIDTH:6.00059
G1 X-72.922 Y-86.685 E12.23121
;WIDTH:6.04092
G1 X-71.659 Y-86.566 E13.62041
;WIDTH:6.01309
G1 X-70.744 Y-86.462 E14.62375
;WIDTH:5.99611
G1 X-70.267 Y-86.377 E15.15001
;WIDTH:6.02138
G1 X-69.566 Y-86.191 E15.9414
;WIDTH:6.04664
G1 X-68.373 Y-85.841 E17.30429
;WIDTH:6.00129
G1 X-67.879 Y-85.677 E17.87018
;WIDTH:5.95593
G1 X-67.438 Y-85.509 E18.37898
;WIDTH:5.9997
G1 X-66.977 Y-85.31 E18.92472
;WIDTH:6.04347
G1 X-65.858 Y-84.768 E20.28691
;WIDTH:5.99977
G1 X-65.2 Y-84.424 E21.09392
;WIDTH:5.96953
G1 X-64.79 Y-84.187 E21.60579
;WIDTH:5.99966
G1 X-64.571 Y-84.047 E21.88829
;WIDTH:6.02979
G1 X-63.563 Y-83.318 E23.24779
;WIDTH:5.99985
G1 X-62.774 Y-82.73 E24.3173
;WIDTH:6.0024
G1 X-60.674 Y-80.645 E27.53522
;WIDTH:5.99743
G1 X-60.384 Y-80.269 E28.0511
;WIDTH:5.99986
G1 X-59.802 Y-79.434 E29.15736
;WIDTH:6.02672
G1 X-58.992 Y-78.196 E30.77327
;WIDTH:5.99196
G1 X-58.765 Y-77.793 E31.27527
;WIDTH:5.99978
G1 X-58.428 Y-77.093 E32.11967
;WIDTH:6.04236
G1 X-57.842 Y-75.735 E33.73974
;WIDTH:5.99874
G1 X-57.594 Y-75.077 E34.50387
;WIDTH:5.99943
G1 X-57.442 Y-74.566 E35.08328
;WIDTH:6.04374
G1 X-57.14 Y-73.359 E36.44647
;WIDTH:5.99571
G1 X-56.99 Y-72.664 E37.21867
;WIDTH:5.95704
G1 X-56.91 Y-72.198 E37.72855
;WIDTH:6.00123
G1 X-56.858 Y-71.789 E38.17678
;WIDTH:6.04542
G1 X-56.807 Y-71.379 E38.62959
;WIDTH:6.08961
G1 X-56.755 Y-70.969 E39.08617
;WIDTH:6.12848
G1 X-56.72 Y-70.759 E39.32302
;WIDTH:6.16736
G1 X-56.686 Y-70.55 E39.56022
G1 X-56.692 Y-70.392 E39.73734
;WIDTH:6.13118
G1 X-56.699 Y-70.235 E39.91226
;WIDTH:6.095
G1 X-56.706 Y-70.078 E40.08605
;WIDTH:6.05881
G1 X-56.716 Y-69.661 E40.54431
;WIDTH:6.01884
G1 X-56.727 Y-69.244 E40.99928
;WIDTH:6.00616
G1 X-56.81 Y-68.303 E42.02721
;WIDTH:6.03346
G1 X-56.987 Y-66.835 E43.64422
;WIDTH:5.99415
G1 X-57.082 Y-66.307 E44.22671
;WIDTH:6.00066
G1 X-57.26 Y-65.599 E45.0203
;WIDTH:6.04648
G1 X-57.591 Y-64.4 E46.38378
;WIDTH:6.01849
G1 X-57.745 Y-63.91 E46.94395
;WIDTH:5.99742
G1 X-57.909 Y-63.469 E47.45512
;WIDTH:6.00248
G1 X-59.244 Y-60.82 E50.68083
;WIDTH:6.01711
G1 X-59.555 Y-60.364 E51.28265
;WIDTH:6.04735
G1 X-60.29 Y-59.361 E52.64593
;WIDTH:6.00099
G1 X-60.715 Y-58.814 E53.39898
;WIDTH:5.96424
G1 X-61.02 Y-58.454 E53.90847
;WIDTH:5.99967
G1 X-61.244 Y-58.212 E54.26687
;WIDTH:6.0351
G1 X-62.137 Y-57.346 E55.62764
;WIDTH:5.99983
G1 X-62.805 Y-56.721 E56.62192
;WIDTH:5.96456
G1 X-62.882 Y-56.651 E56.73429
;WIDTH:5.98818
G1 X-63.1 Y-56.473 E57.03953
;WIDTH:6.01382
G1 X-63.317 Y-56.295 E57.34536
;WIDTH:6.01507
G1 X-65.449 Y-54.881 E60.1337
;WIDTH:6.03153
G1 X-66.983 Y-54.177 E61.97884
;WIDTH:6.00072
G1 X-67.913 Y-53.777 E63.07936
;WIDTH:6.00768
G1 X-68.428 Y-53.585 E63.6776
;WIDTH:6.04295
G1 X-70.598 Y-53.065 E66.12208
;WIDTH:5.99863
G1 X-71.24 Y-52.947 E66.8314
;WIDTH:5.99973
G1 X-71.842 Y-52.881 E67.48962
;WIDTH:6.04515
G1 X-73.082 Y-52.791 E68.85212
;WIDTH:5.99974
G1 X-73.721 Y-52.767 E69.54712
;WIDTH:5.96202
G1 X-74.194 Y-52.771 E70.05768
;WIDTH:5.99981
G1 X-74.558 Y-52.789 E70.45379
;WIDTH:6.0376
G1 X-75.796 Y-52.915 E71.81567
;WIDTH:6.00168
G1 X-76.668 Y-53.023 E72.77101
;WIDTH:5.96575
G1 X-76.778 Y-53.038 E72.89092
;WIDTH:6.00604
G1 X-78.393 Y-53.475 E74.71145
;WIDTH:5.957
G1 X-79.517 Y-53.82 E75.97935
;WIDTH:5.92937
G1 X-79.96 Y-53.977 E76.4836
;WIDTH:5.9729
G1 X-80.264 Y-54.1 E76.83828
;WIDTH:6.01644
G1 X-80.568 Y-54.223 E77.1958
;WIDTH:6.05997
G1 X-80.872 Y-54.346 E77.55616
;WIDTH:6.1035
G1 X-81.176 Y-54.47 E77.91978
;WIDTH:6.138
G1 X-81.341 Y-54.531 E78.11582
;WIDTH:6.17251
G1 X-81.682 Y-54.704 E78.54456
;WIDTH:6.12261
G1 X-81.857 Y-54.817 E78.77606
;WIDTH:6.07271
G1 X-82.109 Y-54.974 E79.10307
;WIDTH:6.03727
G1 X-82.36 Y-55.131 E79.42706
;WIDTH:6.00184
G1 X-82.612 Y-55.288 E79.74988
;WIDTH:5.98766
G1 X-84.989 Y-57.051 E82.95932
;WIDTH:6.02395
G1 X-87.021 Y-59.204 E86.19125
;WIDTH:6.0103
G1 X-87.31 Y-59.6 E86.72511
;WIDTH:6.04367
G1 X-87.864 Y-60.423 E87.81206
;WIDTH:6.00445
G1 X-88.13 Y-60.85 E88.35931
;WIDTH:5.96523
G1 X-88.396 Y-61.277 E88.90264
;WIDTH:5.93038
G1 X-88.626 Y-61.686 E89.40617
;WIDTH:5.96864
G1 X-88.806 Y-62.04 E89.83535
;WIDTH:6.00689
G1 X-88.985 Y-62.393 E90.26609
;WIDTH:6.04514
G1 X-89.414 Y-63.347 E91.41243
;WIDTH:6.01067
G1 X-89.664 Y-63.947 E92.12031
;WIDTH:5.97619
G1 X-89.718 Y-64.081 E92.27666
;WIDTH:6.01433
G1 X-90.446 Y-66.941 E95.49282
;WIDTH:5.9891
G1 X-90.496 Y-67.275 E95.85917
;WIDTH:5.99945
G1 X-90.58 Y-68.186 E96.85346
;WIDTH:6.03505
G1 X-90.664 Y-69.663 E98.47176
;WIDTH:5.99484
G1 X-90.664 Y-70.229 E99.08638
;WIDTH:5.99976
G1 X-90.618 Y-70.901 E99.81847
;WIDTH:6.04487
G1 X-90.491 Y-72.138 E101.18117
;WIDTH:5.99972
G1 X-90.41 Y-72.703 E101.80153
;WIDTH:5.95841
G1 X-90.323 Y-73.167 E102.31075
;WIDTH:5.99969
G1 X-90.225 Y-73.589 E102.78161
;WIDTH:6.04097
G1 X-89.885 Y-74.785 E104.14322
;WIDTH:5.9998
G1 X-89.643 Y-75.56 E105.02567
;WIDTH:5.95862
G1 X-89.601 Y-75.69 E105.17304
;WIDTH:5.98925
G1 X-89.469 Y-76.025 E105.56364
;WIDTH:6.02336
G1 X-88.398 Y-78.243 E108.25223
;WIDTH:5.99261
G1 X-88.171 Y-78.642 E108.75051
;WIDTH:6.00716
G1 X-86.384 Y-81.021 E111.98879
;WIDTH:6.00034
G1 X-85.704 Y-81.704 E113.03642
;WIDTH:6.03359
G1 X-84.63 Y-82.722 E114.65474
;WIDTH:6.00646
G1 X-84.235 Y-83.057 E115.21836
;WIDTH:6.0273
G1 X-83.765 Y-83.405 E115.85718
;WIDTH:6.07527
G1 X-83.296 Y-83.752 E116.50004
;WIDTH:6.11895
G1 X-83.099 Y-83.912 E116.7819
;WIDTH:6.16262
G1 X-83.01 Y-83.974 E116.9033
G1 X-75.37 Y-86.348 F7800
;LAYER_CHANGE
;Z:5
;HEIGHT:2.5
G1 E114.9033 F2400
G92 E0
G1 Z5 F7800
G1 Z15
G1 X-75.708 Y-88.066
G1 X-57.953 Y-79.381
G1 X-55.437 Y-74.449
G1 X-53.803 Y-71.756
G1 X-49.731 Y-69.579
G1 X-50.133 Y-69.582
G1 X-50.132 Y-69.793
G1 Z5
G1 E2 F2400
;WIDTH:7.3365
G1 F3600
G1 X-49.528 Y-69.795 E2.81711
;WIDTH:7.28731
G1 X-48.924 Y-69.796 E3.6283
;WIDTH:7.23811
G1 X-48.32 Y-69.798 E4.43358
;WIDTH:7.18891
G1 X-47.715 Y-69.799 E5.23427
;WIDTH:7.13971
G1 X-47.111 Y-69.8 E6.02773
;WIDTH:7.09051
G1 X-46.507 Y-69.802 E6.81528
;WIDTH:7.04131
G1 X-45.903 Y-69.803 E7.59691
;WIDTH:6.99211
G1 X-45.299 Y-69.805 E8.37263
;WIDTH:6.94291
G1 X-44.694 Y-69.806 E9.14371
;WIDTH:6.89371
G1 X-44.09 Y-69.808 E9.90761
;WIDTH:6.84451
G1 X-43.486 Y-69.809 E10.66559
;WIDTH:6.79531
G1 X-42.882 Y-69.81 E11.41766
;WIDTH:6.74612
G1 X-42.278 Y-69.812 E12.16382
;WIDTH:6.69692
G1 X-41.673 Y-69.813 E12.90529
;WIDTH:6.64772
G1 X-41.069 Y-69.815 E13.63963
;WIDTH:6.59852
G1 X-40.465 Y-69.816 E14.36805
;WIDTH:6.54932
G1 X-39.861 Y-69.818 E15.09057
;WIDTH:6.50012
G1 X-39.257 Y-69.819 E15.80717
;WIDTH:6.45092
G1 X-38.653 Y-69.82 E16.51786
;WIDTH:6.40172
G1 X-38.048 Y-69.822 E17.22381
;WIDTH:6.35252
G1 X-37.444 Y-69.823 E17.92268
;WIDTH:6.30332
G1 X-36.84 Y-69.825 E18.61564
;WIDTH:6.25412
G1 X-36.236 Y-69.826 E19.30268
;WIDTH:6.20492
G1 X-35.632 Y-69.828 E19.98381
;WIDTH:6.15573
G1 X-35.027 Y-69.829 E20.66015
;WIDTH:6.10653
G1 X-34.423 Y-69.831 E21.32946
;WIDTH:6.05733
G1 X-33.819 Y-69.832 E21.99285
;WIDTH:6.00813
G1 X-33.215 Y-69.833 E22.65033
