; generated by PrusaSlicer 2.9.4 on 2025-11-30 at 12:10:52 UTC

; 

; external perimeters extrusion width = 4.50mm
; perimeters extrusion width = 4.50mm
; infill extrusion width = 4.50mm
; solid infill extrusion width = 4.50mm
; top infill extrusion width = 4.50mm
; first layer extrusion width = 4.50mm

M104 S200 ; set temperature
;TYPE:Custom
G28 ; home all axes
G1 Z5 F5000 ; lift nozzle
M109 S200 ; set temperature and wait for it to be reached
G21 ; set units to millimeters
G90 ; use absolute coordinates
M82 ; use absolute distances for extrusion
G92 E0
; WAAM Approach 2 - Contour Generation

G21 ; mm
G90 ; absolute positioning
M107
;LAYER_CHANGE
;Z:2
;HEIGHT:2
G92 E0
G1 X166.487 Y154.682 F10800
G1 Z2
;TYPE:External perimeter
;WIDTH:4.5
G1 F1800
G1 X166.102 Y156.048 E14.7119
G1 X165.948 Y156.435 E19.02958
G1 X164.508 Y159.198 E51.32784
G1 X164.123 Y159.736 E58.18576
G1 X162.304 Y161.961 E87.97733
G1 X162.011 Y162.252 E92.25808
G1 X159.589 Y164.211 E124.54968
G1 X159.24 Y164.439 E128.87109
G1 X156.47 Y165.864 E161.16229
G1 X156.081 Y166.016 E165.49165
G1 X154.75 Y166.384 E179.80671
G1 X154.75 Y169.097 E207.9302
G1 X154.69 Y169.588 E213.05786
G1 X154.507 Y170.062 E218.32492
G1 X154.203 Y170.486 E223.73317
G1 X153.808 Y170.814 E229.05547
G1 X153.341 Y171.034 E234.40677
G1 X152.851 Y171.128 E239.57883
G1 X147.285 Y171.132 E297.2771
G1 X146.763 Y171.064 E302.73397
G1 X146.279 Y170.866 E308.15481
G1 X145.891 Y170.58 E313.15149
G1 X145.572 Y170.195 E318.33444
G1 X145.36 Y169.758 E323.36939
G1 X145.269 Y169.372 E327.48043
G1 X145.25 Y168.683 E334.62545
G1 X145.25 Y166.384 E358.45734
G1 X143.919 Y166.016 E372.7724
G1 X143.162 Y165.675 E381.37903
G1 X140.76 Y164.439 E409.38177
G1 X140.411 Y164.211 E413.70318
G1 X137.989 Y162.252 E445.99478
G1 X137.693 Y161.958 E450.31951
G1 X135.721 Y159.546 E482.61571
G1 X135.492 Y159.198 E486.93414
G1 X134.081 Y156.49 E518.58787
G1 X133.929 Y156.111 E522.82085
G1 X133.054 Y153.058 E555.74301
G1 X132.98 Y152.64 E560.14346
G1 X132.762 Y149.531 E592.4511
G1 X132.775 Y149.115 E596.76554
G1 X133.196 Y146.021 E629.13411
G1 X133.293 Y145.623 E633.38062
G1 X134.332 Y142.686 E665.67509
G1 X134.511 Y142.309 E670.00129
G1 X136.126 Y139.645 E702.29515
G1 X136.378 Y139.313 E706.61585
G1 X138.508 Y137.028 E738.99777
G1 X138.816 Y136.76 E743.23002
G1 X141.36 Y134.962 E775.52324
G1 X141.765 Y134.739 E780.3159
G1 X144.58 Y133.515 E812.13591
G1 X144.978 Y133.388 E816.46661
G1 X148.028 Y132.754 E848.75936
G1 X148.442 Y132.711 E853.07405
G1 X151.558 Y132.711 E885.37512
G1 X151.972 Y132.754 E889.68981
G1 X155.022 Y133.388 E921.98256
G1 X155.42 Y133.515 E926.31326
G1 X158.277 Y134.757 E958.60694
G1 X158.64 Y134.962 E962.92846
G1 X161.184 Y136.76 E995.22168
G1 X161.498 Y137.034 E999.54169
G1 X163.622 Y139.313 E1031.83571
G1 X163.803 Y139.537 E1034.82105
G1 X165.489 Y142.309 E1068.45386
G1 X165.668 Y142.686 E1072.78006
G1 X166.707 Y145.623 E1105.07453
G1 X166.805 Y146.028 E1109.394
G1 X167.225 Y149.115 E1141.68927
G1 X167.238 Y149.531 E1146.00371
G1 X167.02 Y152.639 E1178.30101
G1 X166.966 Y152.947 E1181.5425
G92 E0
G1 X177.55 Y183.149 F10800
G1 F1800
G1 X177.24 Y183.165 E3.2178
G1 X176.804 Y183.29 E7.91954
G1 X176.347 Y183.551 E13.37506
G1 X175.483 Y184.206 E24.61424
G1 X173.863 Y185.358 E45.22057
G1 X173.487 Y185.703 E50.51039
G1 X173.207 Y186.135 E55.84696
G1 X173.036 Y186.67 E61.66928
G1 X173.022 Y187.27 E67.89069
G1 X173.102 Y187.635 E71.76417
G1 X174.057 Y190.622 E104.27206
G1 X174.678 Y193.373 E133.50702
G1 X174.884 Y194.873 E149.20226
G1 X174.649 Y194.999 E151.96638
G1 X173.54 Y194.064 E167.00311
G1 X171.508 Y192.024 E196.85096
G1 X169.498 Y189.618 E229.35016
G1 X169.231 Y189.353 E233.24975
G1 X168.717 Y189.043 E239.47202
G1 X168.174 Y188.901 E245.29015
G1 X167.659 Y188.905 E250.6289
G1 X167.146 Y189.046 E256.14397
G1 X166.164 Y189.459 E267.18722
G1 X164.29 Y190.178 E287.99421
G1 X163.927 Y190.36 E292.20361
G1 X163.558 Y190.662 E297.1465
G1 X163.223 Y191.122 E303.04545
G1 X163.05 Y191.564 E307.96577
G1 X162.988 Y192.195 E314.53834
G1 X163.169 Y195.325 E347.03874
G1 X163.085 Y198.204 E376.89572
G1 X162.916 Y199.644 E391.92549
G1 X162.656 Y199.714 E394.71667
G1 X161.812 Y198.53 E409.78939
G1 X160.352 Y196.048 E439.63958
G1 X159.002 Y193.217 E472.15221
G1 X158.644 Y192.694 E478.72223
G1 X158.28 Y192.39 E483.63839
G1 X157.867 Y192.183 E488.42728
G1 X157.374 Y192.068 E493.67501
G1 X156.869 Y192.079 E498.91118
G1 X155.795 Y192.237 E510.16431
G1 X153.821 Y192.466 E530.76442
G1 X153.334 Y192.584 E535.95884
G1 X152.882 Y192.823 E541.25905
G1 X152.471 Y193.208 E547.09685
G1 X152.165 Y193.732 E553.38711
G1 X152.057 Y194.096 E557.32299
G1 X151.454 Y197.172 E589.81632
G1 X150.657 Y199.939 E619.66574
G1 X150.134 Y201.296 E634.74126
G1 X149.865 Y201.293 E637.52994
G1 X149.343 Y199.939 E652.57272
G1 X148.546 Y197.172 E682.42214
G1 X147.943 Y194.096 E714.91547
G1 X147.835 Y193.732 E718.85135
G1 X147.529 Y193.209 E725.13266
G1 X147.118 Y192.823 E730.97755
G1 X146.666 Y192.584 E736.27776
G1 X146.18 Y192.466 E741.4621
G1 X144.187 Y192.235 E762.26024
G1 X143.132 Y192.079 E773.31549
G1 X142.704 Y192.062 E777.75572
G1 X142.236 Y192.148 E782.68833
G1 X141.721 Y192.389 E788.58255
G1 X141.357 Y192.693 E793.49871
G1 X140.999 Y193.215 E800.06018
G1 X139.648 Y196.048 E832.59599
G1 X138.218 Y198.479 E861.83282
G1 X137.341 Y199.713 E877.52618
G1 X137.084 Y199.644 E880.28464
G1 X136.915 Y198.204 E895.31441
G1 X136.832 Y195.385 E924.54938
G1 X137.012 Y192.192 E957.7012
G1 X136.949 Y191.562 E964.26448
G1 X136.776 Y191.121 E969.17515
G1 X136.515 Y190.741 E973.95397
G1 X136.176 Y190.431 E978.71589
G1 X135.709 Y190.178 E984.22168
G1 X133.837 Y189.459 E1005.00932
G1 X132.854 Y189.046 E1016.06213
G1 X132.341 Y188.905 E1021.5772
G1 X131.826 Y188.901 E1026.91595
G1 X131.283 Y189.043 E1032.73408
G1 X130.769 Y189.353 E1038.95635
G1 X130.503 Y189.617 E1042.84128
G1 X128.492 Y192.024 E1075.35508
G1 X126.502 Y194.022 E1104.58721
G1 X125.349 Y194.998 E1120.24664
G1 X125.114 Y194.872 E1123.01076
G1 X125.309 Y193.431 E1138.0846
G1 X125.943 Y190.622 E1167.93571
G1 X126.898 Y187.635 E1200.4436
G1 X126.978 Y187.269 E1204.3272
G1 X126.965 Y186.669 E1210.54838
G1 X126.794 Y186.134 E1216.3707
G1 X126.514 Y185.702 E1221.70727
G1 X126.121 Y185.344 E1227.21808
G1 X125.245 Y184.736 E1238.27177
G1 X123.635 Y183.54 E1259.06243
G1 X123.147 Y183.272 E1264.83379
G1 X122.633 Y183.149 E1270.31245
G1 X122.078 Y183.167 E1276.06871
G1 X121.533 Y183.342 E1282.0024
G1 X121.233 Y183.521 E1285.62377
G1 X118.688 Y185.351 E1318.11799
G1 X116.212 Y186.822 E1347.97267
G1 X114.903 Y187.453 E1363.0363
G1 X114.708 Y187.267 E1365.82981
G1 X115.255 Y185.923 E1380.87168
G1 X116.568 Y183.36 E1410.7237
G1 X118.234 Y180.705 E1443.2157
G1 X118.394 Y180.394 E1446.84122
G1 X118.489 Y180.099 E1450.0539
G1 X118.546 Y179.619 E1455.06463
G1 X118.492 Y179.159 E1459.86582
G1 X118.341 Y178.733 E1464.55103
G1 X118.048 Y178.289 E1470.06547
G1 X116.775 Y176.782 E1490.51495
G1 X116.067 Y175.891 E1502.31214
G1 X115.688 Y175.544 E1507.63889
G1 X115.221 Y175.298 E1513.11048
G1 X114.68 Y175.177 E1518.85715
G1 X114.11 Y175.21 E1524.77578
G1 X113.775 Y175.309 E1528.39692
G1 X110.851 Y176.45 E1560.93366
G1 X108.087 Y177.259 E1590.78791
G1 X106.665 Y177.544 E1605.82179
G1 X106.518 Y177.318 E1608.61653
G1 X107.383 Y176.15 E1623.68304
G1 X109.253 Y174.038 E1652.92498
G1 X111.565 Y171.838 E1686.00816
G1 X111.801 Y171.572 E1689.69439
G1 X111.965 Y171.311 E1692.88975
G1 X112.139 Y170.86 E1697.90079
G1 X112.201 Y170.403 E1702.68154
G1 X112.16 Y169.952 E1707.37597
G1 X111.999 Y169.474 E1712.60453
G1 X111.261 Y167.948 E1730.17614
G1 X110.663 Y166.631 E1745.16988
G1 X110.385 Y166.206 E1750.43433
G1 X109.995 Y165.851 E1755.90121
G1 X109.5 Y165.599 E1761.65915
G1 X108.938 Y165.489 E1767.5955
G1 X108.587 Y165.501 E1771.23616
G1 X105.474 Y165.879 E1803.74316
G1 X102.596 Y165.976 E1833.59401
G1 X101.144 Y165.898 E1848.66743
G1 X101.063 Y165.641 E1851.46073
G1 X102.19 Y164.726 E1866.50906
G1 X104.575 Y163.113 E1896.35578
G1 X107.314 Y161.589 E1928.84797
G1 X107.605 Y161.392 E1932.49077
G1 X107.831 Y161.18 E1935.70295
G1 X108.112 Y160.785 E1940.728
G1 X108.286 Y160.357 E1945.51736
G1 X108.358 Y159.91 E1950.21078
G1 X108.32 Y159.408 E1955.4295
G1 X107.963 Y157.637 E1974.15732
G1 X107.737 Y156.341 E1987.79465
G1 X107.571 Y155.842 E1993.2461
G1 X107.281 Y155.401 E1998.71746
G1 X106.864 Y155.033 E2004.48272
G1 X106.346 Y154.787 E2010.42717
G1 X106.004 Y154.712 E2014.05666
G1 X102.895 Y154.303 E2046.56285
G1 X100.083 Y153.681 E2076.41719
G1 X98.699 Y153.246 E2091.45597
G1 X98.679 Y152.977 E2094.25217
G1 X100 Y152.37 E2109.32239
G1 X102.712 Y151.4 E2139.17964
G1 X105.746 Y150.605 E2171.69247
G1 X106.076 Y150.488 E2175.32196
G1 X106.347 Y150.338 E2178.53282
G1 X106.718 Y150.025 E2183.56454
G1 X106.993 Y149.654 E2188.35173
G1 X107.174 Y149.239 E2193.04507
G1 X107.264 Y148.722 E2198.48499
G1 X107.308 Y147.657 E2209.53441
G1 X107.455 Y145.656 E2230.33307
G1 X107.42 Y145.102 E2236.08739
G1 X107.248 Y144.602 E2241.56859
G1 X106.936 Y144.143 E2247.32183
G1 X106.497 Y143.776 E2253.25334
G1 X106.185 Y143.618 E2256.87866
G1 X103.275 Y142.45 E2289.38346
G1 X100.706 Y141.148 E2319.23912
G1 X99.474 Y140.382 E2334.27754
G1 X99.522 Y140.117 E2337.06928
G1 X100.953 Y139.857 E2352.14617
G1 X103.82 Y139.592 E2381.99274
G1 X106.955 Y139.577 E2414.49114
G1 X107.305 Y139.545 E2418.13444
G1 X107.604 Y139.468 E2421.33506
G1 X108.041 Y139.258 E2426.361
G1 X108.4 Y138.966 E2431.15804
G1 X108.679 Y138.61 E2435.84669
G1 X108.895 Y138.131 E2441.2936
G1 X109.209 Y137.092 E2452.54518
G1 X109.843 Y135.208 E2473.15127
G1 X109.947 Y134.662 E2478.91297
G1 X109.905 Y134.135 E2484.39328
G1 X109.716 Y133.613 E2490.1482
G1 X109.382 Y133.149 E2496.07466
G1 X109.119 Y132.919 E2499.69644
G1 X106.591 Y131.063 E2532.20653
G1 X104.427 Y129.163 E2562.05847
G1 X103.422 Y128.113 E2577.12525
G1 X103.539 Y127.87 E2579.92101
G1 X104.987 Y127.975 E2594.97068
G1 X107.83 Y128.431 E2624.81846
G1 X110.87 Y129.196 E2657.31417
G1 X111.216 Y129.252 E2660.94755
G1 X111.526 Y129.252 E2664.16107
G1 X112 Y129.157 E2669.17236
G1 X112.421 Y128.964 E2673.97326
G1 X112.78 Y128.689 E2678.6611
G1 X113.108 Y128.278 E2684.11203
G1 X113.671 Y127.35 E2695.36379
G1 X114.797 Y125.614 E2716.81348
G1 X114.99 Y125.18 E2721.73721
G1 X115.08 Y124.659 E2727.21799
G1 X115.028 Y124.106 E2732.97578
G1 X114.819 Y123.574 E2738.9009
G1 X114.622 Y123.285 E2742.52655
G1 X112.635 Y120.859 E2775.03354
G1 X111.045 Y118.53 E2804.26611
G1 X110.301 Y117.211 E2819.9643
G1 X110.473 Y117.008 E2822.72243
G1 X111.849 Y117.469 E2837.76555
G1 X114.489 Y118.618 E2867.61192
G1 X117.244 Y120.114 E2900.10964
G1 X117.566 Y120.255 E2903.75355
G1 X117.866 Y120.332 E2906.96421
G1 X118.349 Y120.358 E2911.97833
G1 X118.804 Y120.276 E2916.77093
G1 X119.22 Y120.098 E2921.46145
G1 X119.64 Y119.782 E2926.90993
G1 X120.416 Y119.023 E2938.16218
G1 X121.879 Y117.678 E2958.76301
G1 X122.233 Y117.25 E2964.52068
G1 X122.45 Y116.769 E2969.99075
G1 X122.537 Y116.222 E2975.73233
G1 X122.468 Y115.654 E2981.66362
G1 X122.349 Y115.325 E2985.29034
G1 X121.027 Y112.479 E3017.82005
G1 X120.046 Y109.771 E3047.6769
G1 X119.671 Y108.367 E3062.74124
G1 X119.891 Y108.21 E3065.54297
G1 X121.109 Y108.999 E3080.58662
G1 X123.333 Y110.732 E3109.8139
G1 X125.674 Y112.901 E3142.89627
G1 X125.955 Y113.121 E3146.59572
G1 X126.226 Y113.269 E3149.79659
G1 X126.688 Y113.414 E3154.81611
G1 X127.149 Y113.446 E3159.60643
G1 X127.595 Y113.377 E3164.28476
G1 X128.061 Y113.186 E3169.50542
G1 X129.986 Y112.108 E3192.37624
G1 X130.854 Y111.651 E3202.54501
G1 X131.221 Y111.371 E3207.33021
G1 X131.551 Y110.959 E3212.80219
G1 X131.771 Y110.449 E3218.55986
G1 X131.846 Y109.881 E3224.49897
G1 X131.812 Y109.532 E3228.1339
G1 X131.239 Y106.449 E3260.64018
G1 X130.968 Y103.642 E3289.87339
G1 X130.951 Y102.13 E3305.54807
G1 X131.198 Y102.03 E3308.3104
G1 X132.184 Y103.099 E3323.38585
G1 X133.944 Y105.378 E3353.23517
G1 X135.637 Y108.018 E3385.7458
G1 X135.851 Y108.295 E3389.37434
G1 X136.077 Y108.507 E3392.58652
G1 X136.489 Y108.762 E3397.60925
G1 X136.927 Y108.909 E3402.39853
G1 X137.378 Y108.954 E3407.0969
G1 X137.898 Y108.879 E3412.5431
G1 X138.731 Y108.646 E3421.50958
G1 X140.958 Y108.093 E3445.29619
G1 X141.389 Y107.909 E3450.15413
G1 X141.812 Y107.591 E3455.63992
G1 X142.151 Y107.152 E3461.38958
G1 X142.364 Y106.621 E3467.32037
G1 X142.418 Y106.276 E3470.94025
G1 X142.63 Y103.148 E3503.4401
G1 X143.065 Y100.361 E3532.68048
G1 X143.425 Y98.893 E3548.34896
G1 X143.689 Y98.857 E3551.11096
G1 X144.378 Y100.138 E3566.18899
G1 X145.516 Y102.783 E3596.03764
G1 X146.499 Y105.759 E3628.5268
G1 X146.638 Y106.082 E3632.17196
G1 X146.804 Y106.343 E3635.3784
G1 X147.138 Y106.693 E3640.3935
G1 X147.526 Y106.945 E3645.18945
G1 X147.951 Y107.1 E3649.87894
G1 X148.475 Y107.157 E3655.34287
G1 X149.741 Y107.137 E3668.46811
G1 X151.566 Y107.156 E3687.38744
G1 X152.098 Y107.086 E3692.94979
G1 X152.586 Y106.883 E3698.42872
G1 X153.025 Y106.542 E3704.19108
G1 X153.363 Y106.081 E3710.11675
G1 X153.5 Y105.76 E3713.73469
G1 X154.484 Y102.783 E3746.23695
G1 X155.599 Y100.192 E3775.47717
G1 X156.314 Y98.857 E3791.17588
G1 X156.578 Y98.894 E3793.9393
G1 X156.926 Y100.302 E3808.9741
G1 X157.37 Y103.148 E3838.83316
G1 X157.582 Y106.275 E3871.32267
G1 X157.636 Y106.622 E3874.96304
G1 X157.732 Y106.916 E3878.16906
G1 X157.969 Y107.338 E3883.18627
G1 X158.282 Y107.678 E3887.97686
G1 X158.655 Y107.935 E3892.67239
G1 X159.147 Y108.12 E3898.12119
G1 X160.204 Y108.368 E3909.37581
G1 X162.124 Y108.883 E3929.98246
G1 X162.674 Y108.952 E3935.72856
G1 X163.197 Y108.878 E3941.20408
G1 X163.707 Y108.657 E3946.96587
G1 X164.149 Y108.294 E3952.89487
G1 X164.363 Y108.017 E3956.52341
G1 X166.056 Y105.378 E3989.02531
G1 X167.78 Y103.146 E4018.26093
G1 X168.804 Y102.031 E4033.954
G1 X169.051 Y102.132 E4036.72024
G1 X169.038 Y103.582 E4051.75183
G1 X168.761 Y106.449 E4081.61011
G1 X168.189 Y109.531 E4114.10431
G1 X168.154 Y109.881 E4117.75057
G1 X168.174 Y110.19 E4120.96043
G1 X168.299 Y110.658 E4125.98188
G1 X168.518 Y111.065 E4130.77292
G1 X168.816 Y111.406 E4135.46739
G1 X169.246 Y111.707 E4140.90842
G1 X170.207 Y112.21 E4152.15242
G1 X171.963 Y113.2 E4173.04908
G1 X172.455 Y113.39 E4178.51634
G1 X172.979 Y113.448 E4183.9814
G1 X173.528 Y113.361 E4189.74346
G1 X174.047 Y113.12 E4195.67526
G1 X174.324 Y112.904 E4199.31651
G1 X176.62 Y110.769 E4231.81721
G1 X178.891 Y108.999 E4261.66455
G1 X180.112 Y108.209 E4276.73994
G1 X180.328 Y108.37 E4279.53261
G1 X179.954 Y109.771 E4294.56423
G1 X178.973 Y112.479 E4324.42108
G1 X177.652 Y115.322 E4356.91822
G1 X177.532 Y115.652 E4360.55822
G1 X177.475 Y115.957 E4363.77465
G1 X177.479 Y116.441 E4368.79206
G1 X177.59 Y116.89 E4373.5866
G1 X177.794 Y117.294 E4378.27817
G1 X178.135 Y117.693 E4383.71901
G1 X178.941 Y118.419 E4394.96388
G1 X180.448 Y119.861 E4416.58532
G1 X180.825 Y120.121 E4421.33264
G1 X181.32 Y120.308 E4426.81786
G1 X181.872 Y120.36 E4432.56533
G1 X182.435 Y120.255 E4438.50213
G1 X182.755 Y120.115 E4442.12289
G1 X185.511 Y118.618 E4474.63467
G1 X188.096 Y117.492 E4503.86312
G1 X189.528 Y117.01 E4519.52585
G1 X189.7 Y117.213 E4522.28398
G1 X188.988 Y118.481 E4537.35875
G1 X187.365 Y120.859 E4567.2037
G1 X185.379 Y123.284 E4599.6961
G1 X185.18 Y123.574 E4603.34201
G1 X185.049 Y123.855 E4606.5559
G1 X184.932 Y124.324 E4611.56665
G1 X184.928 Y124.787 E4616.36638
G1 X185.025 Y125.229 E4621.05728
G1 X185.257 Y125.702 E4626.51853
G1 X185.847 Y126.589 E4637.56166
G1 X186.904 Y128.294 E4658.35687
G1 X187.259 Y128.723 E4664.12914
G1 X187.692 Y129.026 E4669.60754
G1 X188.215 Y129.214 E4675.36869
G1 X188.785 Y129.252 E4681.29054
G1 X189.13 Y129.196 E4684.91369
G1 X192.17 Y128.431 E4717.4094
G1 X194.955 Y127.984 E4746.64875
G1 X196.462 Y127.873 E4762.31293
G1 X196.578 Y128.113 E4765.07618
G1 X195.573 Y129.163 E4780.14296
G1 X193.409 Y131.063 E4809.9949
G1 X190.882 Y132.918 E4842.4905
G1 X190.619 Y133.148 E4846.11228
G1 X190.422 Y133.387 E4849.32296
G1 X190.192 Y133.813 E4854.34148
G1 X190.073 Y134.26 E4859.13656
G1 X190.057 Y134.712 E4863.82502
